lbr-stack/dynamic_parameter_identification/src/test/joint_states_positions.csv
time,lbr_joint_1,lbr_joint_2,lbr_joint_3,lbr_joint_0,lbr_joint_4,lbr_joint_5,lbr_joint_6
1681917731.1628947,0.02157274330245875,6.854976986748579e-05,1.9174732577800952e-05,-0.021579034996246034,-8.542356944253566e-05,5.806361355534735e-05,-7.088665665282795e-05
1681917731.165356,0.02157274330245875,6.854976986748579e-05,1.9174732577800952e-05,-0.021579034996246034,-8.542356944253566e-05,5.806361355534735e-05,-7.088665665282795e-05
1681917731.167881,0.02157268341584879,6.854976986748579e-05,1.9234728270838257e-05,-0.021578915223026116,-8.532775086660117e-05,5.788384464239194e-05,-7.106642556578336e-05
1681917731.1704447,0.02157268341584879,6.854976986748579e-05,1.9234728270838257e-05,-0.021578915223026116,-8.532775086660117e-05,5.788384464239194e-05,-7.106642556578336e-05
1681917731.1728983,0.02157268341584879,6.854976986748579e-05,1.9234728270838257e-05,-0.021578915223026116,-8.532775086660117e-05,5.788384464239194e-05,-7.106642556578336e-05
1681917731.1754045,0.02157268341584879,6.854976986748579e-05,1.9234728270838257e-05,-0.021578915223026116,-8.532775086660117e-05,5.788384464239194e-05,-7.106642556578336e-05
1681917731.1778991,0.02157268341584879,6.854976986748579e-05,1.9234728270838257e-05,-0.021578915223026116,-8.532775086660117e-05,5.788384464239194e-05,-7.106642556578336e-05
1681917731.180454,0.02157280329815179,6.854976986748579e-05,1.9174732577800952e-05,-0.021578915223026116,-8.532775086660117e-05,5.788384464239194e-05,-7.088665665282795e-05
1681917731.1829512,0.02157280329815179,6.854976986748579e-05,1.9174732577800952e-05,-0.021578915223026116,-8.532775086660117e-05,5.788384464239194e-05,-7.088665665282795e-05
1681917731.1854513,0.02157280329815179,6.854976986748579e-05,1.9174732577800952e-05,-0.021578915223026116,-8.532775086660117e-05,5.788384464239194e-05,-7.088665665282795e-05
1681917731.1878712,0.02157280329815179,6.854976986748579e-05,1.9174732577800952e-05,-0.021578915223026116,-8.532775086660117e-05,5.788384464239194e-05,-7.088665665282795e-05
1681917731.190462,0.02157280329815179,6.866965217048214e-05,1.9174732577800952e-05,-0.021578915223026116,-8.542356944253566e-05,5.788384464239194e-05,-7.112642125882067e-05
1681917731.192952,0.02157280329815179,6.866965217048214e-05,1.9174732577800952e-05,-0.021578915223026116,-8.542356944253566e-05,5.788384464239194e-05,-7.112642125882067e-05
1681917731.1954496,0.02157280329815179,6.866965217048214e-05,1.9174732577800952e-05,-0.021578915223026116,-8.542356944253566e-05,5.788384464239194e-05,-7.112642125882067e-05
1681917731.1978915,0.02157280329815179,6.866965217048214e-05,1.9174732577800952e-05,-0.021578915223026116,-8.542356944253566e-05,5.788384464239194e-05,-7.112642125882067e-05
1681917731.2004666,0.021572203995719887,6.866965217048214e-05,1.8635425838934705e-05,-0.021578735454113162,-8.532775086660117e-05,5.7704075729436524e-05,-7.100653895582431e-05
1681917731.2029462,0.021572203995719887,6.866965217048214e-05,1.8635425838934705e-05,-0.021578735454113162,-8.532775086660117e-05,5.7704075729436524e-05,-7.100653895582431e-05
1681917731.2054517,0.021572203995719887,6.866965217048214e-05,1.8635425838934705e-05,-0.021578735454113162,-8.532775086660117e-05,5.7704075729436524e-05,-7.100653895582431e-05
1681917731.207926,0.021572203995719887,6.866965217048214e-05,1.8635425838934705e-05,-0.021578735454113162,-8.532775086660117e-05,5.7704075729436524e-05,-7.100653895582431e-05
1681917731.2103853,0.021562916226105396,6.854976986748579e-05,2.061288388144428e-05,-0.02157753706741551,-8.532775086660117e-05,5.800361786231005e-05,-7.100653895582431e-05
1681917731.212883,0.021562916226105396,6.854976986748579e-05,2.061288388144428e-05,-0.02157753706741551,-8.532775086660117e-05,5.800361786231005e-05,-7.100653895582431e-05
1681917731.2154639,0.021562916226105396,6.854976986748579e-05,2.061288388144428e-05,-0.02157753706741551,-8.532775086660117e-05,5.800361786231005e-05,-7.100653895582431e-05
1681917731.217952,0.021562916226105396,6.854976986748579e-05,2.061288388144428e-05,-0.02157753706741551,-8.532775086660117e-05,5.800361786231005e-05,-7.100653895582431e-05
1681917731.2204528,0.021561298414971876,6.854976986748579e-05,1.306280770347331e-05,-0.02156878849545681,-8.542356944253566e-05,5.7704075729436524e-05,-7.088665665282795e-05
1681917731.2229626,0.021561298414971876,6.854976986748579e-05,1.306280770347331e-05,-0.02156878849545681,-8.542356944253566e-05,5.7704075729436524e-05,-7.088665665282795e-05
1681917731.2254562,0.021561298414971876,6.854976986748579e-05,1.306280770347331e-05,-0.02156878849545681,-8.542356944253566e-05,5.7704075729436524e-05,-7.088665665282795e-05
1681917731.2279203,0.021561298414971876,6.854976986748579e-05,1.306280770347331e-05,-0.02156878849545681,-8.542356944253566e-05,5.7704075729436524e-05,-7.088665665282795e-05
1681917731.230457,0.02155956072153536,6.854976986748579e-05,1.0426269702179375e-05,-0.02155308914975204,-8.532775086660117e-05,5.788384464239194e-05,-7.112642125882067e-05
1681917731.2329407,0.02155956072153536,6.854976986748579e-05,1.0426269702179375e-05,-0.02155308914975204,-8.532775086660117e-05,5.788384464239194e-05,-7.112642125882067e-05
1681917731.2354722,0.02155956072153536,6.854976986748579e-05,1.0426269702179375e-05,-0.02155308914975204,-8.532775086660117e-05,5.788384464239194e-05,-7.112642125882067e-05
1681917731.237964,0.02155956072153536,6.854976986748579e-05,1.0426269702179375e-05,-0.02155308914975204,-8.532775086660117e-05,5.788384464239194e-05,-7.112642125882067e-05
1681917731.2404819,0.02155878175927358,6.860965647744484e-05,1.192430761578176e-05,-0.021528221916735785,-8.551938801847016e-05,5.7704075729436524e-05,-7.100653895582431e-05
1681917731.2428858,0.02155878175927358,6.860965647744484e-05,1.192430761578176e-05,-0.021528221916735785,-8.551938801847016e-05,5.7704075729436524e-05,-7.100653895582431e-05
1681917731.24539,0.02155878175927358,6.860965647744484e-05,1.192430761578176e-05,-0.021528221916735785,-8.551938801847016e-05,5.7704075729436524e-05,-7.100653895582431e-05
1681917731.2479453,0.02155878175927358,6.860965647744484e-05,1.192430761578176e-05,-0.021528221916735785,-8.551938801847016e-05,5.7704075729436524e-05,-7.100653895582431e-05
1681917731.2504616,0.021556504759098195,6.860965647744484e-05,1.0725920918131153e-05,-0.021494965758669816,-8.542356944253566e-05,5.788384464239194e-05,-7.088665665282795e-05
1681917731.2529173,0.021556504759098195,6.860965647744484e-05,1.0725920918131153e-05,-0.021494965758669816,-8.542356944253566e-05,5.788384464239194e-05,-7.088665665282795e-05
1681917731.2554488,0.021556504759098195,6.860965647744484e-05,1.0725920918131153e-05,-0.021494965758669816,-8.542356944253566e-05,5.788384464239194e-05,-7.088665665282795e-05
1681917731.2579331,0.021556504759098195,6.860965647744484e-05,1.0725920918131153e-05,-0.021494965758669816,-8.542356944253566e-05,5.788384464239194e-05,-7.088665665282795e-05
1681917731.2604806,0.021547456645006624,6.854976986748579e-05,1.0725920918131153e-05,-0.021460211453607166,-8.551938801847016e-05,5.7704075729436524e-05,-7.070688773987252e-05
1681917731.2629473,0.021547456645006624,6.854976986748579e-05,1.0725920918131153e-05,-0.021460211453607166,-8.551938801847016e-05,5.7704075729436524e-05,-7.070688773987252e-05
1681917731.2654717,0.021547456645006624,6.854976986748579e-05,1.0725920918131153e-05,-0.021460211453607166,-8.551938801847016e-05,5.7704075729436524e-05,-7.070688773987252e-05
1681917731.2679415,0.021547456645006624,6.854976986748579e-05,1.0725920918131153e-05,-0.021460211453607166,-8.551938801847016e-05,5.7704075729436524e-05,-7.070688773987252e-05
1681917731.270382,0.021535052917261936,6.860965647744484e-05,9.467538527443241e-06,-0.021426176224196337,-8.551938801847016e-05,5.788384464239194e-05,-7.070688773987252e-05
1681917731.2728875,0.021535052917261936,6.860965647744484e-05,9.467538527443241e-06,-0.021426176224196337,-8.551938801847016e-05,5.788384464239194e-05,-7.070688773987252e-05
1681917731.2753735,0.021535052917261936,6.860965647744484e-05,9.467538527443241e-06,-0.021426176224196337,-8.551938801847016e-05,5.788384464239194e-05,-7.070688773987252e-05
1681917731.2778919,0.021535052917261936,6.860965647744484e-05,9.467538527443241e-06,-0.021426176224196337,-8.551938801847016e-05,5.788384464239194e-05,-7.070688773987252e-05
1681917731.280391,0.021522169878471414,6.854976986748579e-05,8.748462875621577e-06,-0.02139555660413166,-8.542356944253566e-05,5.7704075729436524e-05,-7.088665665282795e-05
1681917731.282885,0.021522169878471414,6.854976986748579e-05,8.748462875621577e-06,-0.02139555660413166,-8.542356944253566e-05,5.7704075729436524e-05,-7.088665665282795e-05
1681917731.2853951,0.021522169878471414,6.854976986748579e-05,8.748462875621577e-06,-0.02139555660413166,-8.542356944253566e-05,5.7704075729436524e-05,-7.088665665282795e-05
1681917731.2878838,0.021522169878471414,6.854976986748579e-05,8.748462875621577e-06,-0.02139555660413166,-8.542356944253566e-05,5.7704075729436524e-05,-7.088665665282795e-05
1681917731.290393,0.021507309490721466,6.866965217048214e-05,7.310420655056499e-06,-0.021371408337684146,-8.542356944253566e-05,5.7823848949354634e-05,-7.08267700428689e-05
1681917731.2928882,0.021507309490721466,6.866965217048214e-05,7.310420655056499e-06,-0.021371408337684146,-8.542356944253566e-05,5.7823848949354634e-05,-7.08267700428689e-05
1681917731.2953813,0.021507309490721466,6.866965217048214e-05,7.310420655056499e-06,-0.021371408337684146,-8.542356944253566e-05,5.7823848949354634e-05,-7.08267700428689e-05
1681917731.297896,0.021507309490721466,6.866965217048214e-05,7.310420655056499e-06,-0.021371408337684146,-8.542356944253566e-05,5.7823848949354634e-05,-7.08267700428689e-05
1681917731.3003905,0.021490231989406094,6.854976986748579e-05,7.070656049063778e-06,-0.021350555798279786,-8.542356944253566e-05,5.7704075729436524e-05,-7.100653895582431e-05
1681917731.302929,0.021490231989406094,6.854976986748579e-05,7.070656049063778e-06,-0.021350555798279786,-8.542356944253566e-05,5.7704075729436524e-05,-7.100653895582431e-05
1681917731.3054023,0.021490231989406094,6.854976986748579e-05,7.070656049063778e-06,-0.021350555798279786,-8.542356944253566e-05,5.7704075729436524e-05,-7.100653895582431e-05
1681917731.3079019,0.021490231989406094,6.854976986748579e-05,7.070656049063778e-06,-0.021350555798279786,-8.542356944253566e-05,5.7704075729436524e-05,-7.100653895582431e-05
1681917731.310389,0.021469379340918658,6.854976986748579e-05,7.0107694391047226e-06,-0.021331141410179073,-8.551938801847016e-05,5.788384464239194e-05,-7.100653895582431e-05
1681917731.3128877,0.021469379340918658,6.854976986748579e-05,7.0107694391047226e-06,-0.021331141410179073,-8.551938801847016e-05,5.788384464239194e-05,-7.100653895582431e-05
1681917731.3153682,0.021469379340918658,6.854976986748579e-05,7.0107694391047226e-06,-0.021331141410179073,-8.551938801847016e-05,5.788384464239194e-05,-7.100653895582431e-05
1681917731.3178816,0.021469379340918658,6.854976986748579e-05,7.0107694391047226e-06,-0.021331141410179073,-8.551938801847016e-05,5.788384464239194e-05,-7.100653895582431e-05
1681917731.3203893,0.021444272452379485,6.854976986748579e-05,7.190538352060139e-06,-0.0213108280684305,-8.542356944253566e-05,5.788384464239194e-05,-7.106642556578336e-05
1681917731.3228838,0.021444272452379485,6.854976986748579e-05,7.190538352060139e-06,-0.0213108280684305,-8.542356944253566e-05,5.788384464239194e-05,-7.106642556578336e-05
1681917731.3253834,0.021444272452379485,6.854976986748579e-05,7.190538352060139e-06,-0.0213108280684305,-8.542356944253566e-05,5.788384464239194e-05,-7.106642556578336e-05
1681917731.327891,0.021444272452379485,6.854976986748579e-05,7.190538352060139e-06,-0.0213108280684305,-8.542356944253566e-05,5.788384464239194e-05,-7.106642556578336e-05
1681917731.3304,0.0214156900678842,6.848988325752673e-05,7.190538352060139e-06,-0.02128967598689327,-8.532775086660117e-05,5.776396233939558e-05,-7.100653895582431e-05
1681917731.3328822,0.0214156900678842,6.848988325752673e-05,7.190538352060139e-06,-0.02128967598689327,-8.532775086660117e-05,5.776396233939558e-05,-7.100653895582431e-05
1681917731.3353865,0.0214156900678842,6.848988325752673e-05,7.190538352060139e-06,-0.02128967598689327,-8.532775086660117e-05,5.776396233939558e-05,-7.100653895582431e-05
1681917731.3378565,0.0214156900678842,6.848988325752673e-05,7.190538352060139e-06,-0.02128967598689327,-8.532775086660117e-05,5.776396233939558e-05,-7.100653895582431e-05
1681917731.3403802,0.021385489763172314,6.854976986748579e-05,7.190538352060139e-06,-0.021266666220533446,-8.532775086660117e-05,5.818338677526547e-05,-7.100653895582431e-05
1681917731.3428829,0.021385489763172314,6.854976986748579e-05,7.190538352060139e-06,-0.021266666220533446,-8.532775086660117e-05,5.818338677526547e-05,-7.100653895582431e-05
1681917731.3453848,0.021385489763172314,6.854976986748579e-05,7.190538352060139e-06,-0.021266666220533446,-8.532775086660117e-05,5.818338677526547e-05,-7.100653895582431e-05
1681917731.3478997,0.021385489763172314,6.854976986748579e-05,7.190538352060139e-06,-0.021266666220533446,-8.532775086660117e-05,5.818338677526547e-05,-7.100653895582431e-05
1681917731.3503838,0.021352952680758167,6.854976986748579e-05,7.190538352060139e-06,-0.021243896218779614,-8.551938801847016e-05,5.800361786231005e-05,-7.100653895582431e-05
1681917731.3528905,0.021352952680758167,6.854976986748579e-05,7.190538352060139e-06,-0.021243896218779614,-8.551938801847016e-05,5.800361786231005e-05,-7.100653895582431e-05
1681917731.3553808,0.021352952680758167,6.854976986748579e-05,7.190538352060139e-06,-0.021243896218779614,-8.551938801847016e-05,5.800361786231005e-05,-7.100653895582431e-05
1681917731.3578818,0.021352952680758167,6.854976986748579e-05,7.190538352060139e-06,-0.021243896218779614,-8.551938801847016e-05,5.800361786231005e-05,-7.100653895582431e-05
1681917731.3603942,0.0213204753758709,6.848988325752673e-05,7.370307265015554e-06,-0.021221905179287563,-8.532775086660117e-05,5.7823848949354634e-05,-7.106642556578336e-05
1681917731.3628874,0.0213204753758709,6.848988325752673e-05,7.370307265015554e-06,-0.021221905179287563,-8.532775086660117e-05,5.7823848949354634e-05,-7.106642556578336e-05
1681917731.365391,0.0213204753758709,6.848988325752673e-05,7.370307265015554e-06,-0.021221905179287563,-8.532775086660117e-05,5.7823848949354634e-05,-7.106642556578336e-05
1681917731.3678932,0.021287938184373672,6.854976986748579e-05,7.4901895680119145e-06,-0.0212005732197543,-8.532775086660117e-05,5.776396233939558e-05,-7.106642556578336e-05
1681917731.3703856,0.021287938184373672,6.854976986748579e-05,7.4901895680119145e-06,-0.0212005732197543,-8.532775086660117e-05,5.776396233939558e-05,-7.106642556578336e-05
1681917731.372881,0.021287938184373672,6.854976986748579e-05,7.4901895680119145e-06,-0.0212005732197543,-8.532775086660117e-05,5.776396233939558e-05,-7.106642556578336e-05
1681917731.375381,0.021287938184373672,6.854976986748579e-05,7.4901895680119145e-06,-0.0212005732197543,-8.532775086660117e-05,5.776396233939558e-05,-7.106642556578336e-05
1681917731.3787642,0.021287938184373672,6.854976986748579e-05,7.4901895680119145e-06,-0.0212005732197543,-8.532775086660117e-05,5.776396233939558e-05,-7.106642556578336e-05
1681917731.380382,0.021256299837441223,6.848988325752673e-05,7.849618310844498e-06,-0.021180619524914717,-8.532775086660117e-05,5.788384464239194e-05,-7.088665665282795e-05
1681917731.382881,0.021256299837441223,6.848988325752673e-05,7.849618310844498e-06,-0.021180619524914717,-8.532775086660117e-05,5.788384464239194e-05,-7.088665665282795e-05
1681917731.3853877,0.021256299837441223,6.848988325752673e-05,7.849618310844498e-06,-0.021180619524914717,-8.532775086660117e-05,5.788384464239194e-05,-7.088665665282795e-05
1681917731.3878794,0.021256299837441223,6.848988325752673e-05,7.849618310844498e-06,-0.021180619524914717,-8.532775086660117e-05,5.788384464239194e-05,-7.088665665282795e-05
1681917731.3904042,0.021224841259421732,6.848988325752673e-05,7.849618310844498e-06,-0.021161924103382745,-8.551938801847016e-05,5.818338677526547e-05,-7.076688343290983e-05
1681917731.3928816,0.021224841259421732,6.848988325752673e-05,7.849618310844498e-06,-0.021161924103382745,-8.551938801847016e-05,5.818338677526547e-05,-7.076688343290983e-05
1681917731.3953931,0.021224841259421732,6.848988325752673e-05,7.849618310844498e-06,-0.021161924103382745,-8.551938801847016e-05,5.818338677526547e-05,-7.076688343290983e-05
1681917731.3978822,0.021224841259421732,6.848988325752673e-05,7.849618310844498e-06,-0.021161924103382745,-8.551938801847016e-05,5.818338677526547e-05,-7.076688343290983e-05
1681917731.4003954,0.021193622336925153,6.854976986748579e-05,7.849618310844498e-06,-0.021143408450763727,-8.542356944253566e-05,5.7943731252350994e-05,-7.106642556578336e-05
1681917731.402898,0.021193622336925153,6.854976986748579e-05,7.849618310844498e-06,-0.021143408450763727,-8.542356944253566e-05,5.7943731252350994e-05,-7.106642556578336e-05
1681917731.4053812,0.021193622336925153,6.854976986748579e-05,7.849618310844498e-06,-0.021143408450763727,-8.542356944253566e-05,5.7943731252350994e-05,-7.106642556578336e-05
1681917731.4078693,0.021193622336925153,6.854976986748579e-05,7.849618310844498e-06,-0.021143408450763727,-8.542356944253566e-05,5.7943731252350994e-05,-7.106642556578336e-05
1681917731.4103856,0.02116402133464517,6.848988325752673e-05,7.609962787930026e-06,-0.021123514642534105,-8.542356944253566e-05,5.7823848949354634e-05,-7.100653895582431e-05
1681917731.412887,0.02116402133464517,6.848988325752673e-05,7.609962787930026e-06,-0.021123514642534105,-8.542356944253566e-05,5.7823848949354634e-05,-7.100653895582431e-05
1681917731.4154115,0.02116402133464517,6.848988325752673e-05,7.609962787930026e-06,-0.021123514642534105,-8.542356944253566e-05,5.7823848949354634e-05,-7.100653895582431e-05
1681917731.4178817,0.02116402133464517,6.848988325752673e-05,7.609962787930026e-06,-0.021123514642534105,-8.542356944253566e-05,5.7823848949354634e-05,-7.100653895582431e-05
1681917731.420377,0.0211341805677592,6.854976986748579e-05,7.609962787930026e-06,-0.021103500952001485,-8.542356944253566e-05,5.7704075729436524e-05,-7.088665665282795e-05
1681917731.4228816,0.0211341805677592,6.854976986748579e-05,7.609962787930026e-06,-0.021103500952001485,-8.542356944253566e-05,5.7704075729436524e-05,-7.088665665282795e-05
1681917731.4253821,0.0211341805677592,6.854976986748579e-05,7.609962787930026e-06,-0.021103500952001485,-8.542356944253566e-05,5.7704075729436524e-05,-7.088665665282795e-05
1681917731.427893,0.0211341805677592,6.854976986748579e-05,7.609962787930026e-06,-0.021103500952001485,-8.542356944253566e-05,5.7704075729436524e-05,-7.088665665282795e-05
1681917731.4303966,0.021106736792434685,6.848988325752673e-05,7.4901895680119145e-06,-0.021081749677115427,-8.532775086660117e-05,5.788384464239194e-05,-7.100653895582431e-05
1681917731.4328873,0.021106736792434685,6.848988325752673e-05,7.4901895680119145e-06,-0.021081749677115427,-8.532775086660117e-05,5.788384464239194e-05,-7.100653895582431e-05
1681917731.4353802,0.021106736792434685,6.848988325752673e-05,7.4901895680119145e-06,-0.021081749677115427,-8.532775086660117e-05,5.788384464239194e-05,-7.100653895582431e-05
1681917731.4378836,0.021106736792434685,6.848988325752673e-05,7.4901895680119145e-06,-0.021081749677115427,-8.532775086660117e-05,5.788384464239194e-05,-7.100653895582431e-05
1681917731.4403813,0.02108049129472474,6.842988756448943e-05,7.729845090926386e-06,-0.02105856014184265,-8.542356944253566e-05,5.776396233939558e-05,-7.112642125882067e-05
1681917731.4428883,0.02108049129472474,6.842988756448943e-05,7.729845090926386e-06,-0.02105856014184265,-8.542356944253566e-05,5.776396233939558e-05,-7.112642125882067e-05
1681917731.4453826,0.02108049129472474,6.842988756448943e-05,7.729845090926386e-06,-0.02105856014184265,-8.542356944253566e-05,5.776396233939558e-05,-7.112642125882067e-05
1681917731.4478805,0.02108049129472474,6.842988756448943e-05,7.729845090926386e-06,-0.02105856014184265,-8.542356944253566e-05,5.776396233939558e-05,-7.112642125882067e-05
1681917731.4503639,0.021055564066015445,6.848988325752673e-05,7.609962787930026e-06,-0.021033872677739346,-8.542356944253566e-05,5.7704075729436524e-05,-7.100653895582431e-05
1681917731.4528801,0.021055564066015445,6.848988325752673e-05,7.609962787930026e-06,-0.021033872677739346,-8.542356944253566e-05,5.7704075729436524e-05,-7.100653895582431e-05
1681917731.455386,0.021055564066015445,6.848988325752673e-05,7.609962787930026e-06,-0.021033872677739346,-8.542356944253566e-05,5.7704075729436524e-05,-7.100653895582431e-05
1681917731.4579005,0.021055564066015445,6.848988325752673e-05,7.609962787930026e-06,-0.021033872677739346,-8.542356944253566e-05,5.7704075729436524e-05,-7.100653895582431e-05
1681917731.460384,0.021030876601912142,6.837000095453037e-05,7.609962787930026e-06,-0.02101128244489847,-8.542356944253566e-05,5.788384464239194e-05,-7.088665665282795e-05
1681917731.4628844,0.021030876601912142,6.837000095453037e-05,7.609962787930026e-06,-0.02101128244489847,-8.542356944253566e-05,5.788384464239194e-05,-7.088665665282795e-05
1681917731.4653888,0.021030876601912142,6.837000095453037e-05,7.609962787930026e-06,-0.02101128244489847,-8.542356944253566e-05,5.788384464239194e-05,-7.088665665282795e-05
1681917731.4678893,0.021030876601912142,6.837000095453037e-05,7.609962787930026e-06,-0.02101128244489847,-8.542356944253566e-05,5.788384464239194e-05,-7.088665665282795e-05
1681917731.4703932,0.021007627180029402,6.842988756448943e-05,7.609962787930026e-06,-0.020990669561017024,-8.542356944253566e-05,5.7704075729436524e-05,-7.08267700428689e-05
1681917731.4728916,0.021007627180029402,6.842988756448943e-05,7.609962787930026e-06,-0.020990669561017024,-8.542356944253566e-05,5.7704075729436524e-05,-7.08267700428689e-05
1681917731.475381,0.021007627180029402,6.842988756448943e-05,7.609962787930026e-06,-0.020990669561017024,-8.542356944253566e-05,5.7704075729436524e-05,-7.08267700428689e-05
1681917731.4778864,0.021007627180029402,6.842988756448943e-05,7.609962787930026e-06,-0.020990669561017024,-8.542356944253566e-05,5.7704075729436524e-05,-7.08267700428689e-05
1681917731.480396,0.020984677409362617,6.842988756448943e-05,7.4901895680119145e-06,-0.020971554715049183,-8.551938801847016e-05,5.7584193426440165e-05,-7.088665665282795e-05
1681917731.482881,0.020984677409362617,6.842988756448943e-05,7.4901895680119145e-06,-0.020971554715049183,-8.551938801847016e-05,5.7584193426440165e-05,-7.088665665282795e-05
1681917731.485381,0.020984677409362617,6.842988756448943e-05,7.4901895680119145e-06,-0.020971554715049183,-8.551938801847016e-05,5.7584193426440165e-05,-7.088665665282795e-05
1681917731.4878893,0.020984677409362617,6.842988756448943e-05,7.4901895680119145e-06,-0.020971554715049183,-8.551938801847016e-05,5.7584193426440165e-05,-7.088665665282795e-05
1681917731.4903972,0.020960768907521094,6.848988325752673e-05,7.609962787930026e-06,-0.020953158944733163,-8.542356944253566e-05,5.788384464239194e-05,-7.088665665282795e-05
1681917731.4928849,0.020960768907521094,6.848988325752673e-05,7.609962787930026e-06,-0.020953158944733163,-8.542356944253566e-05,5.788384464239194e-05,-7.088665665282795e-05
1681917731.4953883,0.020960768907521094,6.848988325752673e-05,7.609962787930026e-06,-0.020953158944733163,-8.542356944253566e-05,5.788384464239194e-05,-7.088665665282795e-05
1681917731.4978867,0.020960768907521094,6.848988325752673e-05,7.609962787930026e-06,-0.020953158944733163,-8.542356944253566e-05,5.788384464239194e-05,-7.088665665282795e-05
1681917731.5003831,0.02093542225437593,6.842988756448943e-05,7.43019387497461e-06,-0.02093500282994006,-8.532775086660117e-05,5.788384464239194e-05,-7.076688343290983e-05
1681917731.502885,0.02093542225437593,6.842988756448943e-05,7.43019387497461e-06,-0.02093500282994006,-8.532775086660117e-05,5.788384464239194e-05,-7.076688343290983e-05
1681917731.505468,0.02093542225437593,6.842988756448943e-05,7.43019387497461e-06,-0.02093500282994006,-8.532775086660117e-05,5.788384464239194e-05,-7.076688343290983e-05
1681917731.5079901,0.02093542225437593,6.842988756448943e-05,7.43019387497461e-06,-0.02093500282994006,-8.532775086660117e-05,5.788384464239194e-05,-7.076688343290983e-05
1681917731.5103827,0.020907798601055377,6.848988325752673e-05,7.4901895680119145e-06,-0.02091780544632169,-8.551938801847016e-05,5.776396233939558e-05,-7.100653895582431e-05
1681917731.5128806,0.020907798601055377,6.848988325752673e-05,7.4901895680119145e-06,-0.02091780544632169,-8.551938801847016e-05,5.776396233939558e-05,-7.100653895582431e-05
1681917731.5154517,0.020907798601055377,6.848988325752673e-05,7.4901895680119145e-06,-0.02091780544632169,-8.551938801847016e-05,5.776396233939558e-05,-7.100653895582431e-05
1681917731.5178735,0.020907798601055377,6.848988325752673e-05,7.4901895680119145e-06,-0.02091780544632169,-8.551938801847016e-05,5.776396233939558e-05,-7.100653895582431e-05
1681917731.5203836,0.02088011506112487,6.854976986748579e-05,7.190538352060139e-06,-0.020900727945006314,-8.551938801847016e-05,5.7823848949354634e-05,-7.100653895582431e-05
1681917731.5228837,0.02088011506112487,6.854976986748579e-05,7.190538352060139e-06,-0.020900727945006314,-8.551938801847016e-05,5.7823848949354634e-05,-7.100653895582431e-05
1681917731.5253918,0.02088011506112487,6.854976986748579e-05,7.190538352060139e-06,-0.020900727945006314,-8.551938801847016e-05,5.7823848949354634e-05,-7.100653895582431e-05
1681917731.5278842,0.02088011506112487,6.854976986748579e-05,7.190538352060139e-06,-0.020900727945006314,-8.551938801847016e-05,5.7823848949354634e-05,-7.100653895582431e-05
1681917731.5303874,0.020852371525501325,6.848988325752673e-05,7.4901895680119145e-06,-0.02088305114125904,-8.532775086660117e-05,5.776396233939558e-05,-7.088665665282795e-05
1681917731.532881,0.020852371525501325,6.848988325752673e-05,7.4901895680119145e-06,-0.02088305114125904,-8.532775086660117e-05,5.776396233939558e-05,-7.088665665282795e-05
1681917731.5353813,0.020852371525501325,6.848988325752673e-05,7.4901895680119145e-06,-0.02088305114125904,-8.532775086660117e-05,5.776396233939558e-05,-7.088665665282795e-05
1681917731.5378864,0.020825167405699726,6.848988325752673e-05,7.310420655056499e-06,-0.020864355828810143,-8.542356944253566e-05,5.7584193426440165e-05,-7.100653895582431e-05
1681917731.5403957,0.020825167405699726,6.848988325752673e-05,7.310420655056499e-06,-0.020864355828810143,-8.542356944253566e-05,5.7584193426440165e-05,-7.100653895582431e-05
1681917731.5428805,0.020825167405699726,6.848988325752673e-05,7.310420655056499e-06,-0.020864355828810143,-8.542356944253566e-05,5.7584193426440165e-05,-7.100653895582431e-05
1681917731.5453823,0.020825167405699726,6.848988325752673e-05,7.310420655056499e-06,-0.020864355828810143,-8.542356944253566e-05,5.7584193426440165e-05,-7.100653895582431e-05
1681917731.547887,0.020825167405699726,6.848988325752673e-05,7.310420655056499e-06,-0.020864355828810143,-8.542356944253566e-05,5.7584193426440165e-05,-7.100653895582431e-05
1681917731.5503953,0.02079694455903035,6.842988756448943e-05,7.310420655056499e-06,-0.02084098652462441,-8.551938801847016e-05,5.7704075729436524e-05,-7.088665665282795e-05
1681917731.5528827,0.02079694455903035,6.842988756448943e-05,7.310420655056499e-06,-0.02084098652462441,-8.551938801847016e-05,5.7704075729436524e-05,-7.088665665282795e-05
1681917731.555383,0.02079694455903035,6.842988756448943e-05,7.310420655056499e-06,-0.02084098652462441,-8.551938801847016e-05,5.7704075729436524e-05,-7.088665665282795e-05
1681917731.557881,0.02079694455903035,6.842988756448943e-05,7.310420655056499e-06,-0.02084098652462441,-8.551938801847016e-05,5.7704075729436524e-05,-7.088665665282795e-05
1681917731.560397,0.020767643098883244,6.848988325752673e-05,7.43019387497461e-06,-0.02081540021595633,-8.532775086660117e-05,5.788384464239194e-05,-7.088665665282795e-05
1681917731.5628877,0.020767643098883244,6.848988325752673e-05,7.43019387497461e-06,-0.02081540021595633,-8.532775086660117e-05,5.788384464239194e-05,-7.088665665282795e-05
1681917731.5654128,0.020767643098883244,6.848988325752673e-05,7.43019387497461e-06,-0.02081540021595633,-8.532775086660117e-05,5.788384464239194e-05,-7.088665665282795e-05
1681917731.567881,0.020767643098883244,6.848988325752673e-05,7.43019387497461e-06,-0.02081540021595633,-8.532775086660117e-05,5.788384464239194e-05,-7.088665665282795e-05
1681917731.5704427,0.02073618452086375,6.848988325752673e-05,7.370307265015554e-06,-0.020789694024985254,-8.551938801847016e-05,5.7584193426440165e-05,-7.076688343290983e-05
1681917731.5729396,0.02073618452086375,6.848988325752673e-05,7.370307265015554e-06,-0.020789694024985254,-8.551938801847016e-05,5.7584193426440165e-05,-7.076688343290983e-05
1681917731.5753868,0.02073618452086375,6.848988325752673e-05,7.370307265015554e-06,-0.020789694024985254,-8.551938801847016e-05,5.7584193426440165e-05,-7.076688343290983e-05
1681917731.5778878,0.020705564791715998,6.842988756448943e-05,7.43019387497461e-06,-0.020765485981010856,-8.532775086660117e-05,5.788384464239194e-05,-7.106642556578336e-05
1681917731.5803807,0.020705564791715998,6.842988756448943e-05,7.43019387497461e-06,-0.020765485981010856,-8.532775086660117e-05,5.788384464239194e-05,-7.106642556578336e-05
1681917731.5828474,0.020705564791715998,6.842988756448943e-05,7.43019387497461e-06,-0.020765485981010856,-8.532775086660117e-05,5.788384464239194e-05,-7.106642556578336e-05
1681917731.5853813,0.020705564791715998,6.842988756448943e-05,7.43019387497461e-06,-0.020765485981010856,-8.532775086660117e-05,5.788384464239194e-05,-7.106642556578336e-05
1681917731.5878723,0.020705564791715998,6.842988756448943e-05,7.43019387497461e-06,-0.020765485981010856,-8.532775086660117e-05,5.788384464239194e-05,-7.106642556578336e-05
1681917731.5904136,0.020685551210266457,6.842988756448943e-05,7.849618310844498e-06,-0.020743974252564634,-8.542356944253566e-05,5.7704075729436524e-05,-7.088665665282795e-05
1681917731.592897,0.020685551210266457,6.842988756448943e-05,7.849618310844498e-06,-0.020743974252564634,-8.542356944253566e-05,5.7704075729436524e-05,-7.088665665282795e-05
1681917731.5953813,0.020685551210266457,6.842988756448943e-05,7.849618310844498e-06,-0.020743974252564634,-8.542356944253566e-05,5.7704075729436524e-05,-7.088665665282795e-05
1681917731.5978804,0.020685551210266457,6.842988756448943e-05,7.849618310844498e-06,-0.020743974252564634,-8.542356944253566e-05,5.7704075729436524e-05,-7.088665665282795e-05
1681917731.600382,0.020667934402212217,6.854976986748579e-05,8.149269526796273e-06,-0.02072432009985793,-8.542356944253566e-05,5.7704075729436524e-05,-7.088665665282795e-05
1681917731.6028833,0.020667934402212217,6.854976986748579e-05,8.149269526796273e-06,-0.02072432009985793,-8.542356944253566e-05,5.7704075729436524e-05,-7.088665665282795e-05
1681917731.6053898,0.020667934402212217,6.854976986748579e-05,8.149269526796273e-06,-0.02072432009985793,-8.542356944253566e-05,5.7704075729436524e-05,-7.088665665282795e-05
1681917731.6078389,0.020667934402212217,6.854976986748579e-05,8.149269526796273e-06,-0.02072432009985793,-8.542356944253566e-05,5.7704075729436524e-05,-7.088665665282795e-05
1681917731.6103897,0.02064989806063903,6.848988325752673e-05,8.32903843975169e-06,-0.02070670329180369,-8.542356944253566e-05,5.7704075729436524e-05,-7.100653895582431e-05
1681917731.612881,0.02064989806063903,6.848988325752673e-05,8.32903843975169e-06,-0.02070670329180369,-8.542356944253566e-05,5.7704075729436524e-05,-7.100653895582431e-05
1681917731.615393,0.02064989806063903,6.848988325752673e-05,8.32903843975169e-06,-0.02070670329180369,-8.542356944253566e-05,5.7704075729436524e-05,-7.100653895582431e-05
1681917731.6178837,0.02064989806063903,6.848988325752673e-05,8.32903843975169e-06,-0.02070670329180369,-8.542356944253566e-05,5.7704075729436524e-05,-7.100653895582431e-05
1681917731.6203954,0.020632880445933616,6.854976986748579e-05,8.32903843975169e-06,-0.02068986544601123,-8.532775086660117e-05,5.788384464239194e-05,-7.088665665282795e-05
1681917731.622885,0.020632880445933616,6.854976986748579e-05,8.32903843975169e-06,-0.02068986544601123,-8.532775086660117e-05,5.788384464239194e-05,-7.088665665282795e-05
1681917731.6253831,0.020632880445933616,6.854976986748579e-05,8.32903843975169e-06,-0.02068986544601123,-8.532775086660117e-05,5.788384464239194e-05,-7.088665665282795e-05
1681917731.6278715,0.020632880445933616,6.854976986748579e-05,8.32903843975169e-06,-0.02068986544601123,-8.532775086660117e-05,5.788384464239194e-05,-7.088665665282795e-05
1681917731.6303823,0.020617241095921883,6.842988756448943e-05,8.32903843975169e-06,-0.02067105025125934,-8.542356944253566e-05,5.7943731252350994e-05,-7.094665234586525e-05
1681917731.6328838,0.020617241095921883,6.842988756448943e-05,8.32903843975169e-06,-0.02067105025125934,-8.542356944253566e-05,5.7943731252350994e-05,-7.094665234586525e-05
1681917731.6353812,0.020617241095921883,6.842988756448943e-05,8.32903843975169e-06,-0.02067105025125934,-8.542356944253566e-05,5.7943731252350994e-05,-7.094665234586525e-05
1681917731.6378815,0.020617241095921883,6.842988756448943e-05,8.32903843975169e-06,-0.02067105025125934,-8.542356944253566e-05,5.7943731252350994e-05,-7.094665234586525e-05
1681917731.640401,0.02060315956135064,6.848988325752673e-05,7.849618310844498e-06,-0.020649238980680242,-8.52317577577415e-05,5.7704075729436524e-05,-7.076688343290983e-05
1681917731.6428807,0.02060315956135064,6.848988325752673e-05,7.849618310844498e-06,-0.020649238980680242,-8.52317577577415e-05,5.7704075729436524e-05,-7.076688343290983e-05
1681917731.6453855,0.02060315956135064,6.848988325752673e-05,7.849618310844498e-06,-0.020649238980680242,-8.52317577577415e-05,5.7704075729436524e-05,-7.076688343290983e-05
1681917731.6478844,0.020589976980427246,6.842988756448943e-05,7.370307265015554e-06,-0.020624251865360987,-8.542356944253566e-05,5.7943731252350994e-05,-7.094665234586525e-05
1681917731.650388,0.020589976980427246,6.842988756448943e-05,7.370307265015554e-06,-0.020624251865360987,-8.542356944253566e-05,5.7943731252350994e-05,-7.094665234586525e-05
1681917731.652876,0.020589976980427246,6.842988756448943e-05,7.370307265015554e-06,-0.020624251865360987,-8.542356944253566e-05,5.7943731252350994e-05,-7.094665234586525e-05
1681917731.6553886,0.020589976980427246,6.842988756448943e-05,7.370307265015554e-06,-0.020624251865360987,-8.542356944253566e-05,5.7943731252350994e-05,-7.094665234586525e-05
1681917731.6578898,0.020589976980427246,6.842988756448943e-05,7.370307265015554e-06,-0.020624251865360987,-8.542356944253566e-05,5.7943731252350994e-05,-7.094665234586525e-05
1681917731.6603806,0.020576794290420777,6.842988756448943e-05,7.2504249620191935e-06,-0.02059944451895469,-8.532775086660117e-05,5.776396233939558e-05,-7.100653895582431e-05
1681917731.6628838,0.020576794290420777,6.842988756448943e-05,7.2504249620191935e-06,-0.02059944451895469,-8.532775086660117e-05,5.776396233939558e-05,-7.100653895582431e-05
1681917731.6654088,0.020576794290420777,6.842988756448943e-05,7.2504249620191935e-06,-0.02059944451895469,-8.532775086660117e-05,5.776396233939558e-05,-7.100653895582431e-05
1681917731.6678977,0.020576794290420777,6.842988756448943e-05,7.2504249620191935e-06,-0.02059944451895469,-8.532775086660117e-05,5.776396233939558e-05,-7.100653895582431e-05
1681917731.6703923,0.02056301251614856,6.842988756448943e-05,7.310420655056499e-06,-0.020574936714681264,-8.542356944253566e-05,5.7704075729436524e-05,-7.088665665282795e-05
1681917731.6728806,0.02056301251614856,6.842988756448943e-05,7.310420655056499e-06,-0.020574936714681264,-8.542356944253566e-05,5.7704075729436524e-05,-7.088665665282795e-05
1681917731.675381,0.02056301251614856,6.842988756448943e-05,7.310420655056499e-06,-0.020574936714681264,-8.542356944253566e-05,5.7704075729436524e-05,-7.088665665282795e-05
1681917731.6779048,0.02056301251614856,6.842988756448943e-05,7.310420655056499e-06,-0.020574936714681264,-8.542356944253566e-05,5.7704075729436524e-05,-7.088665665282795e-05
1681917731.6803887,0.020548571443751402,6.842988756448943e-05,6.950882829145667e-06,-0.02055066867501383,-8.542356944253566e-05,5.7704075729436524e-05,-7.100653895582431e-05
1681917731.682889,0.020548571443751402,6.842988756448943e-05,6.950882829145667e-06,-0.02055066867501383,-8.542356944253566e-05,5.7704075729436524e-05,-7.100653895582431e-05
1681917731.685396,0.020548571443751402,6.842988756448943e-05,6.950882829145667e-06,-0.02055066867501383,-8.542356944253566e-05,5.7704075729436524e-05,-7.100653895582431e-05
1681917731.6879141,0.020548571443751402,6.842988756448943e-05,6.950882829145667e-06,-0.02055066867501383,-8.542356944253566e-05,5.7704075729436524e-05,-7.100653895582431e-05
1681917731.6904154,0.020533111862652626,6.848988325752673e-05,7.0107694391047226e-06,-0.020528138328782912,-8.551938801847016e-05,5.788384464239194e-05,-7.076688343290983e-05
1681917731.692883,0.020533111862652626,6.848988325752673e-05,7.0107694391047226e-06,-0.020528138328782912,-8.551938801847016e-05,5.788384464239194e-05,-7.076688343290983e-05
1681917731.6953857,0.020533111862652626,6.848988325752673e-05,7.0107694391047226e-06,-0.020528138328782912,-8.551938801847016e-05,5.788384464239194e-05,-7.076688343290983e-05
1681917731.6978593,0.020533111862652626,6.848988325752673e-05,7.0107694391047226e-06,-0.020528138328782912,-8.551938801847016e-05,5.788384464239194e-05,-7.076688343290983e-05
1681917731.7003877,0.020515914479034256,6.837000095453037e-05,6.890887136108362e-06,-0.02050734578507159,-8.542356944253566e-05,5.7704075729436524e-05,-7.064700112991347e-05
1681917731.7028968,0.020515914479034256,6.837000095453037e-05,6.890887136108362e-06,-0.02050734578507159,-8.542356944253566e-05,5.7704075729436524e-05,-7.064700112991347e-05
1681917731.7053812,0.020515914479034256,6.837000095453037e-05,6.890887136108362e-06,-0.02050734578507159,-8.542356944253566e-05,5.7704075729436524e-05,-7.064700112991347e-05
1681917731.7078824,0.020515914479034256,6.837000095453037e-05,6.890887136108362e-06,-0.02050734578507159,-8.542356944253566e-05,5.7704075729436524e-05,-7.064700112991347e-05
1681917731.7103825,0.02049632021293751,6.837000095453037e-05,6.950882829145667e-06,-0.020488350712323668,-8.532775086660117e-05,5.788384464239194e-05,-7.100653895582431e-05
1681917731.712881,0.02049632021293751,6.837000095453037e-05,6.950882829145667e-06,-0.020488350712323668,-8.532775086660117e-05,5.788384464239194e-05,-7.100653895582431e-05
1681917731.7153857,0.02049632021293751,6.837000095453037e-05,6.950882829145667e-06,-0.020488350712323668,-8.532775086660117e-05,5.788384464239194e-05,-7.100653895582431e-05
1681917731.7178833,0.02049632021293751,6.837000095453037e-05,6.950882829145667e-06,-0.020488350712323668,-8.532775086660117e-05,5.788384464239194e-05,-7.100653895582431e-05
1681917731.7204316,0.020475587555836148,6.842988756448943e-05,6.950882829145667e-06,-0.02047109344209534,-8.532775086660117e-05,5.776396233939558e-05,-7.088665665282795e-05
1681917731.7229378,0.020475587555836148,6.842988756448943e-05,6.950882829145667e-06,-0.02047109344209534,-8.532775086660117e-05,5.776396233939558e-05,-7.088665665282795e-05
1681917731.7253964,0.020475587555836148,6.842988756448943e-05,6.950882829145667e-06,-0.02047109344209534,-8.532775086660117e-05,5.776396233939558e-05,-7.088665665282795e-05
1681917731.7278817,0.020475587555836148,6.842988756448943e-05,6.950882829145667e-06,-0.02047109344209534,-8.532775086660117e-05,5.776396233939558e-05,-7.088665665282795e-05
1681917731.7303715,0.020453236978518186,6.837000095453037e-05,7.070656049063778e-06,-0.020453956054170008,-8.551938801847016e-05,5.788384464239194e-05,-7.088665665282795e-05
1681917731.7329438,0.020453236978518186,6.837000095453037e-05,7.070656049063778e-06,-0.020453956054170008,-8.551938801847016e-05,5.788384464239194e-05,-7.088665665282795e-05
1681917731.7354445,0.020453236978518186,6.837000095453037e-05,7.070656049063778e-06,-0.020453956054170008,-8.551938801847016e-05,5.788384464239194e-05,-7.088665665282795e-05
1681917731.737961,0.020453236978518186,6.837000095453037e-05,7.070656049063778e-06,-0.020453956054170008,-8.551938801847016e-05,5.788384464239194e-05,-7.088665665282795e-05
1681917731.740475,0.020430047443245405,6.842988756448943e-05,7.190538352060139e-06,-0.020433283174595526,-8.532775086660117e-05,5.7943731252350994e-05,-7.088665665282795e-05
1681917731.7429438,0.020430047443245405,6.842988756448943e-05,7.190538352060139e-06,-0.020433283174595526,-8.532775086660117e-05,5.7943731252350994e-05,-7.088665665282795e-05
1681917731.7454398,0.020430047443245405,6.842988756448943e-05,7.190538352060139e-06,-0.020433283174595526,-8.532775086660117e-05,5.7943731252350994e-05,-7.088665665282795e-05
1681917731.7479422,0.020430047443245405,6.842988756448943e-05,7.190538352060139e-06,-0.020433283174595526,-8.532775086660117e-05,5.7943731252350994e-05,-7.088665665282795e-05
1681917731.750454,0.020407277441491574,6.837000095453037e-05,7.190538352060139e-06,-0.020408535823882263,-8.551938801847016e-05,5.776396233939558e-05,-7.088665665282795e-05
1681917731.7529411,0.020407277441491574,6.837000095453037e-05,7.190538352060139e-06,-0.020408535823882263,-8.551938801847016e-05,5.776396233939558e-05,-7.088665665282795e-05
1681917731.755381,0.020407277441491574,6.837000095453037e-05,7.190538352060139e-06,-0.020408535823882263,-8.551938801847016e-05,5.776396233939558e-05,-7.088665665282795e-05
1681917731.7578826,0.020407277441491574,6.837000095453037e-05,7.190538352060139e-06,-0.020408535823882263,-8.551938801847016e-05,5.776396233939558e-05,-7.088665665282795e-05
1681917731.7604694,0.02038582570873839,6.842988756448943e-05,7.370307265015554e-06,-0.02038223043956236,-8.532775086660117e-05,5.7943731252350994e-05,-7.094665234586525e-05
1681917731.762985,0.02038582570873839,6.842988756448943e-05,7.370307265015554e-06,-0.02038223043956236,-8.532775086660117e-05,5.7943731252350994e-05,-7.094665234586525e-05
1681917731.7654397,0.02038582570873839,6.842988756448943e-05,7.370307265015554e-06,-0.02038223043956236,-8.532775086660117e-05,5.7943731252350994e-05,-7.094665234586525e-05
1681917731.76794,0.02038582570873839,6.842988756448943e-05,7.370307265015554e-06,-0.02038223043956236,-8.532775086660117e-05,5.7943731252350994e-05,-7.094665234586525e-05
1681917731.770441,0.020365152938246988,6.825011865153401e-05,7.190538352060139e-06,-0.020355445635113552,-8.551938801847016e-05,5.7704075729436524e-05,-7.076688343290983e-05
1681917731.7729466,0.020365152938246988,6.825011865153401e-05,7.190538352060139e-06,-0.020355445635113552,-8.551938801847016e-05,5.7704075729436524e-05,-7.076688343290983e-05
1681917731.775455,0.020365152938246988,6.825011865153401e-05,7.190538352060139e-06,-0.020355445635113552,-8.551938801847016e-05,5.7704075729436524e-05,-7.076688343290983e-05
1681917731.7779467,0.020365152938246988,6.825011865153401e-05,7.190538352060139e-06,-0.020355445635113552,-8.551938801847016e-05,5.7704075729436524e-05,-7.076688343290983e-05
1681917731.780475,0.020344240403149593,6.842988756448943e-05,7.190538352060139e-06,-0.020329260133096647,-8.542356944253566e-05,5.7943731252350994e-05,-7.100653895582431e-05
1681917731.7829158,0.020344240403149593,6.842988756448943e-05,7.190538352060139e-06,-0.020329260133096647,-8.542356944253566e-05,5.7943731252350994e-05,-7.100653895582431e-05
1681917731.785459,0.020344240403149593,6.842988756448943e-05,7.190538352060139e-06,-0.020329260133096647,-8.542356944253566e-05,5.7943731252350994e-05,-7.100653895582431e-05
1681917731.7880225,0.020344240403149593,6.842988756448943e-05,7.190538352060139e-06,-0.020329260133096647,-8.542356944253566e-05,5.7943731252350994e-05,-7.100653895582431e-05
1681917731.7903864,0.020322489019180455,6.837000095453037e-05,7.190538352060139e-06,-0.020304333013470427,-8.532775086660117e-05,5.800361786231005e-05,-7.076688343290983e-05
1681917731.7929718,0.020322489019180455,6.837000095453037e-05,7.190538352060139e-06,-0.020304333013470427,-8.532775086660117e-05,5.800361786231005e-05,-7.076688343290983e-05
1681917731.7954924,0.020322489019180455,6.837000095453037e-05,7.190538352060139e-06,-0.020304333013470427,-8.532775086660117e-05,5.800361786231005e-05,-7.076688343290983e-05
1681917731.7979586,0.020322489019180455,6.837000095453037e-05,7.190538352060139e-06,-0.020304333013470427,-8.532775086660117e-05,5.800361786231005e-05,-7.076688343290983e-05
1681917731.8004105,0.020300078555252534,6.837000095453037e-05,7.070656049063778e-06,-0.020280184747022912,-8.542356944253566e-05,5.788384464239194e-05,-7.08267700428689e-05
1681917731.802967,0.020300078555252534,6.837000095453037e-05,7.070656049063778e-06,-0.020280184747022912,-8.542356944253566e-05,5.788384464239194e-05,-7.08267700428689e-05
1681917731.8054478,0.020300078555252534,6.837000095453037e-05,7.070656049063778e-06,-0.020280184747022912,-8.542356944253566e-05,5.788384464239194e-05,-7.08267700428689e-05
1681917731.807948,0.020300078555252534,6.837000095453037e-05,7.070656049063778e-06,-0.020280184747022912,-8.542356944253566e-05,5.788384464239194e-05,-7.08267700428689e-05
1681917731.81047,0.02027575062897514,6.837000095453037e-05,6.950882829145667e-06,-0.020258493358746816,-8.532775086660117e-05,5.7704075729436524e-05,-7.076688343290983e-05
1681917731.8129597,0.02027575062897514,6.837000095453037e-05,6.950882829145667e-06,-0.020258493358746816,-8.532775086660117e-05,5.7704075729436524e-05,-7.076688343290983e-05
1681917731.815455,0.02027575062897514,6.837000095453037e-05,6.950882829145667e-06,-0.020258493358746816,-8.532775086660117e-05,5.7704075729436524e-05,-7.076688343290983e-05
1681917731.817946,0.02027575062897514,6.837000095453037e-05,6.950882829145667e-06,-0.020258493358746816,-8.532775086660117e-05,5.7704075729436524e-05,-7.076688343290983e-05
1681917731.8204548,0.02025034398013694,6.842988756448943e-05,6.890887136108362e-06,-0.020238479668214196,-8.542356944253566e-05,5.788384464239194e-05,-7.112642125882067e-05
1681917731.822882,0.02025034398013694,6.842988756448943e-05,6.890887136108362e-06,-0.020238479668214196,-8.542356944253566e-05,5.788384464239194e-05,-7.112642125882067e-05
1681917731.825479,0.02025034398013694,6.842988756448943e-05,6.890887136108362e-06,-0.020238479668214196,-8.542356944253566e-05,5.788384464239194e-05,-7.112642125882067e-05
1681917731.8279006,0.020224518015945946,6.842988756448943e-05,6.890887136108362e-06,-0.020218226322158663,-8.532775086660117e-05,5.788384464239194e-05,-7.094665234586525e-05
1681917731.8304543,0.020224518015945946,6.842988756448943e-05,6.890887136108362e-06,-0.020218226322158663,-8.532775086660117e-05,5.788384464239194e-05,-7.094665234586525e-05
1681917731.8328807,0.020224518015945946,6.842988756448943e-05,6.890887136108362e-06,-0.020218226322158663,-8.532775086660117e-05,5.788384464239194e-05,-7.094665234586525e-05
1681917731.835439,0.020224518015945946,6.842988756448943e-05,6.890887136108362e-06,-0.020218226322158663,-8.532775086660117e-05,5.788384464239194e-05,-7.094665234586525e-05
1681917731.837961,0.020224518015945946,6.842988756448943e-05,6.890887136108362e-06,-0.020218226322158663,-8.532775086660117e-05,5.788384464239194e-05,-7.094665234586525e-05
1681917731.8404727,0.020198032862713086,6.837000095453037e-05,6.890887136108362e-06,-0.020196774589405476,-8.551938801847016e-05,5.800361786231005e-05,-7.076688343290983e-05
1681917731.8429492,0.020198032862713086,6.837000095453037e-05,6.890887136108362e-06,-0.020196774589405476,-8.551938801847016e-05,5.800361786231005e-05,-7.076688343290983e-05
1681917731.8454192,0.020198032862713086,6.837000095453037e-05,6.890887136108362e-06,-0.020196774589405476,-8.551938801847016e-05,5.800361786231005e-05,-7.076688343290983e-05
1681917731.8479464,0.020198032862713086,6.837000095453037e-05,6.890887136108362e-06,-0.020196774589405476,-8.551938801847016e-05,5.800361786231005e-05,-7.076688343290983e-05
1681917731.8504167,0.020171667591783227,6.837000095453037e-05,6.831000526149306e-06,-0.020174124360871563,-8.551938801847016e-05,5.800361786231005e-05,-7.106642556578336e-05
1681917731.8529558,0.020171667591783227,6.837000095453037e-05,6.831000526149306e-06,-0.020174124360871563,-8.551938801847016e-05,5.800361786231005e-05,-7.106642556578336e-05
1681917731.8553834,0.020171667591783227,6.837000095453037e-05,6.831000526149306e-06,-0.020174124360871563,-8.551938801847016e-05,5.800361786231005e-05,-7.106642556578336e-05
1681917731.85788,0.020144822900724457,6.837000095453037e-05,6.771113916190251e-06,-0.02015075516576891,-8.561538112732984e-05,5.7704075729436524e-05,-7.088665665282795e-05
1681917731.8605027,0.020144822900724457,6.837000095453037e-05,6.771113916190251e-06,-0.02015075516576891,-8.561538112732984e-05,5.7704075729436524e-05,-7.088665665282795e-05
1681917731.8628855,0.020144822900724457,6.837000095453037e-05,6.771113916190251e-06,-0.02015075516576891,-8.561538112732984e-05,5.7704075729436524e-05,-7.088665665282795e-05
1681917731.8655322,0.020144822900724457,6.837000095453037e-05,6.771113916190251e-06,-0.02015075516576891,-8.561538112732984e-05,5.7704075729436524e-05,-7.088665665282795e-05
1681917731.8679872,0.020144822900724457,6.837000095453037e-05,6.771113916190251e-06,-0.02015075516576891,-8.561538112732984e-05,5.7704075729436524e-05,-7.088665665282795e-05
1681917731.870447,0.020116120743009256,6.842988756448943e-05,6.950882829145667e-06,-0.020129602975148597,-8.542356944253566e-05,5.7704075729436524e-05,-7.08267700428689e-05
1681917731.8729231,0.020116120743009256,6.842988756448943e-05,6.950882829145667e-06,-0.020129602975148597,-8.542356944253566e-05,5.7704075729436524e-05,-7.08267700428689e-05
1681917731.8754404,0.020116120743009256,6.842988756448943e-05,6.950882829145667e-06,-0.020129602975148597,-8.542356944253566e-05,5.7704075729436524e-05,-7.08267700428689e-05
1681917731.8779402,0.020116120743009256,6.842988756448943e-05,6.950882829145667e-06,-0.020129602975148597,-8.542356944253566e-05,5.7704075729436524e-05,-7.08267700428689e-05
1681917731.88047,0.020085381131558503,6.837000095453037e-05,6.890887136108362e-06,-0.020110907553616626,-8.551938801847016e-05,5.7704075729436524e-05,-7.076688343290983e-05
1681917731.882879,0.020085381131558503,6.837000095453037e-05,6.890887136108362e-06,-0.020110907553616626,-8.551938801847016e-05,5.7704075729436524e-05,-7.076688343290983e-05
1681917731.8854249,0.020085381131558503,6.837000095453037e-05,6.890887136108362e-06,-0.020110907553616626,-8.551938801847016e-05,5.7704075729436524e-05,-7.076688343290983e-05
1681917731.887887,0.020085381131558503,6.837000095453037e-05,6.890887136108362e-06,-0.020110907553616626,-8.551938801847016e-05,5.7704075729436524e-05,-7.076688343290983e-05
1681917731.890512,0.020053742784626055,6.831011434457132e-05,7.070656049063778e-06,-0.020092511783300605,-8.551938801847016e-05,5.800361786231005e-05,-7.076688343290983e-05
1681917731.892939,0.020053742784626055,6.831011434457132e-05,7.070656049063778e-06,-0.020092511783300605,-8.551938801847016e-05,5.800361786231005e-05,-7.076688343290983e-05
1681917731.895441,0.020053742784626055,6.831011434457132e-05,7.070656049063778e-06,-0.020092511783300605,-8.551938801847016e-05,5.800361786231005e-05,-7.076688343290983e-05
1681917731.897986,0.020053742784626055,6.831011434457132e-05,7.070656049063778e-06,-0.020092511783300605,-8.551938801847016e-05,5.800361786231005e-05,-7.076688343290983e-05
1681917731.9004605,0.020022104437693606,6.825011865153401e-05,6.950882829145667e-06,-0.020075254513072276,-8.551938801847016e-05,5.788384464239194e-05,-7.076688343290983e-05
1681917731.902979,0.020022104437693606,6.825011865153401e-05,6.950882829145667e-06,-0.020075254513072276,-8.551938801847016e-05,5.788384464239194e-05,-7.076688343290983e-05
1681917731.9054656,0.020022104437693606,6.825011865153401e-05,6.950882829145667e-06,-0.020075254513072276,-8.551938801847016e-05,5.788384464239194e-05,-7.076688343290983e-05
1681917731.9079628,0.020022104437693606,6.825011865153401e-05,6.950882829145667e-06,-0.020075254513072276,-8.551938801847016e-05,5.788384464239194e-05,-7.076688343290983e-05
1681917731.9104402,0.01999513997341492,6.831011434457132e-05,7.130651742101083e-06,-0.020058836091715687,-8.532775086660117e-05,5.800361786231005e-05,-7.088665665282795e-05
1681917731.9128811,0.01999513997341492,6.831011434457132e-05,7.130651742101083e-06,-0.020058836091715687,-8.532775086660117e-05,5.800361786231005e-05,-7.088665665282795e-05
1681917731.9153838,0.01999513997341492,6.831011434457132e-05,7.130651742101083e-06,-0.020058836091715687,-8.532775086660117e-05,5.800361786231005e-05,-7.088665665282795e-05
1681917731.9179854,0.01999513997341492,6.831011434457132e-05,7.130651742101083e-06,-0.020058836091715687,-8.532775086660117e-05,5.800361786231005e-05,-7.088665665282795e-05
1681917731.9203818,0.01998045924549485,6.831011434457132e-05,7.310420655056499e-06,-0.020043496283836833,-8.532775086660117e-05,5.7704075729436524e-05,-7.070688773987252e-05
1681917731.9228587,0.01998045924549485,6.831011434457132e-05,7.310420655056499e-06,-0.020043496283836833,-8.532775086660117e-05,5.7704075729436524e-05,-7.070688773987252e-05
1681917731.9254603,0.01998045924549485,6.831011434457132e-05,7.310420655056499e-06,-0.020043496283836833,-8.532775086660117e-05,5.7704075729436524e-05,-7.070688773987252e-05
1681917731.9279833,0.01998045924549485,6.831011434457132e-05,7.310420655056499e-06,-0.020043496283836833,-8.532775086660117e-05,5.7704075729436524e-05,-7.070688773987252e-05
1681917731.9304588,0.0199655988577449,6.825011865153401e-05,7.729845090926386e-06,-0.020024860857997897,-8.551938801847016e-05,5.788384464239194e-05,-7.100653895582431e-05
1681917731.9329588,0.0199655988577449,6.825011865153401e-05,7.729845090926386e-06,-0.020024860857997897,-8.551938801847016e-05,5.788384464239194e-05,-7.100653895582431e-05
1681917731.9354415,0.0199655988577449,6.825011865153401e-05,7.729845090926386e-06,-0.020024860857997897,-8.551938801847016e-05,5.788384464239194e-05,-7.100653895582431e-05
1681917731.9379559,0.0199655988577449,6.825011865153401e-05,7.729845090926386e-06,-0.020024860857997897,-8.551938801847016e-05,5.788384464239194e-05,-7.100653895582431e-05
1681917731.9405007,0.019951397549953735,6.837000095453037e-05,7.909614003881803e-06,-0.02000161143611516,-8.551938801847016e-05,5.776396233939558e-05,-7.076688343290983e-05
1681917731.9429355,0.019951397549953735,6.837000095453037e-05,7.909614003881803e-06,-0.02000161143611516,-8.551938801847016e-05,5.776396233939558e-05,-7.076688343290983e-05
1681917731.9454203,0.019951397549953735,6.837000095453037e-05,7.909614003881803e-06,-0.02000161143611516,-8.551938801847016e-05,5.776396233939558e-05,-7.076688343290983e-05
1681917731.947882,0.019951397549953735,6.837000095453037e-05,7.909614003881803e-06,-0.02000161143611516,-8.551938801847016e-05,5.776396233939558e-05,-7.076688343290983e-05
1681917731.9503837,0.019938993822209046,6.825011865153401e-05,7.909614003881803e-06,-0.01997554570731817,-8.532775086660117e-05,5.7704075729436524e-05,-7.100653895582431e-05
1681917731.9528763,0.019938993822209046,6.825011865153401e-05,7.909614003881803e-06,-0.01997554570731817,-8.532775086660117e-05,5.7704075729436524e-05,-7.100653895582431e-05
1681917731.9553826,0.019938993822209046,6.825011865153401e-05,7.909614003881803e-06,-0.01997554570731817,-8.532775086660117e-05,5.7704075729436524e-05,-7.100653895582431e-05
1681917731.9579613,0.019938993822209046,6.825011865153401e-05,7.909614003881803e-06,-0.01997554570731817,-8.532775086660117e-05,5.7704075729436524e-05,-7.100653895582431e-05
1681917731.9604704,0.019927489048112212,6.831011434457132e-05,7.609962787930026e-06,-0.0199479221630807,-8.542356944253566e-05,5.7584193426440165e-05,-7.088665665282795e-05
1681917731.96294,0.019927489048112212,6.831011434457132e-05,7.609962787930026e-06,-0.0199479221630807,-8.542356944253566e-05,5.7584193426440165e-05,-7.088665665282795e-05
1681917731.9654686,0.019927489048112212,6.831011434457132e-05,7.609962787930026e-06,-0.0199479221630807,-8.542356944253566e-05,5.7584193426440165e-05,-7.088665665282795e-05
1681917731.9679415,0.019927489048112212,6.831011434457132e-05,7.609962787930026e-06,-0.0199479221630807,-8.542356944253566e-05,5.7584193426440165e-05,-7.088665665282795e-05
1681917731.970451,0.019917422316235944,6.825011865153401e-05,7.310420655056499e-06,-0.01992029850976015,-8.542356944253566e-05,5.788384464239194e-05,-7.070688773987252e-05
1681917731.9729655,0.019917422316235944,6.825011865153401e-05,7.310420655056499e-06,-0.01992029850976015,-8.542356944253566e-05,5.788384464239194e-05,-7.070688773987252e-05
1681917731.9754508,0.019917422316235944,6.825011865153401e-05,7.310420655056499e-06,-0.01992029850976015,-8.542356944253566e-05,5.788384464239194e-05,-7.070688773987252e-05
1681917731.9778793,0.019908913508883234,6.825011865153401e-05,6.950882829145667e-06,-0.019893813356527294,-8.532775086660117e-05,5.776396233939558e-05,-7.094665234586525e-05
1681917731.9804866,0.019908913508883234,6.825011865153401e-05,6.950882829145667e-06,-0.019893813356527294,-8.532775086660117e-05,5.776396233939558e-05,-7.094665234586525e-05
1681917731.982955,0.019908913508883234,6.825011865153401e-05,6.950882829145667e-06,-0.019893813356527294,-8.532775086660117e-05,5.776396233939558e-05,-7.094665234586525e-05
1681917731.9854527,0.019908913508883234,6.825011865153401e-05,6.950882829145667e-06,-0.019893813356527294,-8.532775086660117e-05,5.776396233939558e-05,-7.094665234586525e-05
1681917731.9880147,0.019908913508883234,6.825011865153401e-05,6.950882829145667e-06,-0.019893813356527294,-8.532775086660117e-05,5.776396233939558e-05,-7.094665234586525e-05
1681917731.9904215,0.019901303437012227,6.837000095453037e-05,6.65123161319389e-06,-0.01986876635459808,-8.532775086660117e-05,5.788384464239194e-05,-7.100653895582431e-05
1681917731.992945,0.019901303437012227,6.837000095453037e-05,6.65123161319389e-06,-0.01986876635459808,-8.532775086660117e-05,5.788384464239194e-05,-7.100653895582431e-05
1681917731.9954455,0.019901303437012227,6.837000095453037e-05,6.65123161319389e-06,-0.01986876635459808,-8.532775086660117e-05,5.788384464239194e-05,-7.100653895582431e-05
1681917731.9979746,0.019901303437012227,6.837000095453037e-05,6.65123161319389e-06,-0.01986876635459808,-8.532775086660117e-05,5.788384464239194e-05,-7.100653895582431e-05
1681917732.0003877,0.019893453818701383,6.837000095453037e-05,6.53134931019753e-06,-0.019848153470716636,-8.532775086660117e-05,5.7943731252350994e-05,-7.100653895582431e-05
1681917732.0028727,0.019893453818701383,6.837000095453037e-05,6.53134931019753e-06,-0.019848153470716636,-8.532775086660117e-05,5.7943731252350994e-05,-7.100653895582431e-05
1681917732.0054898,0.019893453818701383,6.837000095453037e-05,6.53134931019753e-06,-0.019848153470716636,-8.532775086660117e-05,5.7943731252350994e-05,-7.100653895582431e-05
1681917732.0079856,0.019893453818701383,6.837000095453037e-05,6.53134931019753e-06,-0.019848153470716636,-8.532775086660117e-05,5.7943731252350994e-05,-7.100653895582431e-05
1681917732.0104465,0.019885004897958636,6.825011865153401e-05,6.53134931019753e-06,-0.019829278280271707,-8.532775086660117e-05,5.800361786231005e-05,-7.076688343290983e-05
1681917732.0129623,0.019885004897958636,6.825011865153401e-05,6.53134931019753e-06,-0.019829278280271707,-8.532775086660117e-05,5.800361786231005e-05,-7.076688343290983e-05
1681917732.0155041,0.019885004897958636,6.825011865153401e-05,6.53134931019753e-06,-0.019829278280271707,-8.532775086660117e-05,5.800361786231005e-05,-7.076688343290983e-05
1681917732.017998,0.019885004897958636,6.825011865153401e-05,6.53134931019753e-06,-0.019829278280271707,-8.532775086660117e-05,5.800361786231005e-05,-7.076688343290983e-05
1681917732.020442,0.01987194209025516,6.837000095453037e-05,6.351689480320364e-06,-0.019810582858739736,-8.532775086660117e-05,5.788384464239194e-05,-7.088665665282795e-05
1681917732.0228815,0.01987194209025516,6.837000095453037e-05,6.351689480320364e-06,-0.019810582858739736,-8.532775086660117e-05,5.788384464239194e-05,-7.088665665282795e-05
1681917732.0254436,0.01987194209025516,6.837000095453037e-05,6.351689480320364e-06,-0.019810582858739736,-8.532775086660117e-05,5.788384464239194e-05,-7.088665665282795e-05
1681917732.027958,0.01987194209025516,6.837000095453037e-05,6.351689480320364e-06,-0.019810582858739736,-8.532775086660117e-05,5.788384464239194e-05,-7.088665665282795e-05
1681917732.030422,0.01985390585776505,6.825011865153401e-05,6.231807177324003e-06,-0.019790928815116106,-8.532775086660117e-05,5.776396233939558e-05,-7.106642556578336e-05
1681917732.0329592,0.01985390585776505,6.825011865153401e-05,6.231807177324003e-06,-0.019790928815116106,-8.532775086660117e-05,5.776396233939558e-05,-7.106642556578336e-05
1681917732.0354786,0.01985390585776505,6.825011865153401e-05,6.231807177324003e-06,-0.019790928815116106,-8.532775086660117e-05,5.776396233939558e-05,-7.106642556578336e-05
1681917732.0379949,0.01985390585776505,6.825011865153401e-05,6.231807177324003e-06,-0.019790928815116106,-8.532775086660117e-05,5.776396233939558e-05,-7.106642556578336e-05
1681917732.0405064,0.019832633893924825,6.825011865153401e-05,6.231807177324003e-06,-0.01977043570445458,-8.551938801847016e-05,5.788384464239194e-05,-7.076688343290983e-05
1681917732.042888,0.019832633893924825,6.825011865153401e-05,6.231807177324003e-06,-0.01977043570445458,-8.551938801847016e-05,5.788384464239194e-05,-7.076688343290983e-05
1681917732.0453866,0.019832633893924825,6.825011865153401e-05,6.231807177324003e-06,-0.01977043570445458,-8.551938801847016e-05,5.788384464239194e-05,-7.076688343290983e-05
1681917732.047888,0.019832633893924825,6.825011865153401e-05,6.231807177324003e-06,-0.01977043570445458,-8.551938801847016e-05,5.788384464239194e-05,-7.076688343290983e-05
1681917732.0503845,0.019810343203216823,6.831011434457132e-05,6.291693787283059e-06,-0.01974772558931071,-8.532775086660117e-05,5.788384464239194e-05,-7.076688343290983e-05
1681917732.0529375,0.019810343203216823,6.831011434457132e-05,6.291693787283059e-06,-0.01974772558931071,-8.532775086660117e-05,5.788384464239194e-05,-7.076688343290983e-05
1681917732.0554667,0.019810343203216823,6.831011434457132e-05,6.291693787283059e-06,-0.01974772558931071,-8.532775086660117e-05,5.788384464239194e-05,-7.076688343290983e-05
1681917732.0579653,0.019810343203216823,6.831011434457132e-05,6.291693787283059e-06,-0.01974772558931071,-8.532775086660117e-05,5.788384464239194e-05,-7.076688343290983e-05
1681917732.0604756,0.019785895394636432,6.837000095453037e-05,6.351689480320364e-06,-0.019722618700771535,-8.532775086660117e-05,5.788384464239194e-05,-7.088665665282795e-05
1681917732.062948,0.019785895394636432,6.837000095453037e-05,6.351689480320364e-06,-0.019722618700771535,-8.532775086660117e-05,5.788384464239194e-05,-7.088665665282795e-05
1681917732.065458,0.019785895394636432,6.837000095453037e-05,6.351689480320364e-06,-0.019722618700771535,-8.532775086660117e-05,5.788384464239194e-05,-7.088665665282795e-05
1681917732.0679495,0.019785895394636432,6.837000095453037e-05,6.351689480320364e-06,-0.019722618700771535,-8.532775086660117e-05,5.788384464239194e-05,-7.088665665282795e-05
1681917732.0704427,0.019760608737184306,6.831011434457132e-05,6.231807177324003e-06,-0.01969643319875463,-8.542356944253566e-05,5.7584193426440165e-05,-7.088665665282795e-05
1681917732.0729678,0.019760608737184306,6.831011434457132e-05,6.231807177324003e-06,-0.01969643319875463,-8.542356944253566e-05,5.7584193426440165e-05,-7.088665665282795e-05
1681917732.0753884,0.019760608737184306,6.831011434457132e-05,6.231807177324003e-06,-0.01969643319875463,-8.542356944253566e-05,5.7584193426440165e-05,-7.088665665282795e-05
1681917732.077906,0.019760608737184306,6.831011434457132e-05,6.231807177324003e-06,-0.01969643319875463,-8.542356944253566e-05,5.7584193426440165e-05,-7.088665665282795e-05
1681917732.0804677,0.01973526208403914,6.837000095453037e-05,6.351689480320364e-06,-0.0196735433146978,-8.532775086660117e-05,5.788384464239194e-05,-7.070688773987252e-05
1681917732.0829616,0.01973526208403914,6.837000095453037e-05,6.351689480320364e-06,-0.0196735433146978,-8.532775086660117e-05,5.788384464239194e-05,-7.070688773987252e-05
1681917732.085433,0.01973526208403914,6.837000095453037e-05,6.351689480320364e-06,-0.0196735433146978,-8.532775086660117e-05,5.788384464239194e-05,-7.070688773987252e-05
1681917732.087983,0.01973526208403914,6.837000095453037e-05,6.351689480320364e-06,-0.0196735433146978,-8.532775086660117e-05,5.788384464239194e-05,-7.070688773987252e-05
1681917732.0904994,0.01971009519980693,6.842988756448943e-05,6.351689480320364e-06,-0.019654608237642916,-8.542356944253566e-05,5.7704075729436524e-05,-7.088665665282795e-05
1681917732.0929406,0.01971009519980693,6.842988756448943e-05,6.351689480320364e-06,-0.019654608237642916,-8.542356944253566e-05,5.7704075729436524e-05,-7.088665665282795e-05
1681917732.09544,0.01971009519980693,6.842988756448943e-05,6.351689480320364e-06,-0.019654608237642916,-8.542356944253566e-05,5.7704075729436524e-05,-7.088665665282795e-05
1681917732.0979512,0.01971009519980693,6.842988756448943e-05,6.351689480320364e-06,-0.019654608237642916,-8.542356944253566e-05,5.7704075729436524e-05,-7.088665665282795e-05
1681917732.1004856,0.019684269126532854,6.831011434457132e-05,6.291693787283059e-06,-0.019637111202808595,-8.551938801847016e-05,5.788384464239194e-05,-7.088665665282795e-05
1681917732.1029296,0.019684269126532854,6.831011434457132e-05,6.291693787283059e-06,-0.019637111202808595,-8.551938801847016e-05,5.788384464239194e-05,-7.088665665282795e-05
1681917732.1054533,0.019684269126532854,6.831011434457132e-05,6.291693787283059e-06,-0.019637111202808595,-8.551938801847016e-05,5.788384464239194e-05,-7.088665665282795e-05
1681917732.1079848,0.019684269126532854,6.831011434457132e-05,6.291693787283059e-06,-0.019637111202808595,-8.551938801847016e-05,5.788384464239194e-05,-7.088665665282795e-05
1681917732.1103818,0.019659461780126557,6.831011434457132e-05,6.231807177324003e-06,-0.019620573008232087,-8.542356944253566e-05,5.788384464239194e-05,-7.076688343290983e-05
1681917732.1128953,0.019659461780126557,6.831011434457132e-05,6.231807177324003e-06,-0.019620573008232087,-8.542356944253566e-05,5.788384464239194e-05,-7.076688343290983e-05
1681917732.1154432,0.019659461780126557,6.831011434457132e-05,6.231807177324003e-06,-0.019620573008232087,-8.542356944253566e-05,5.788384464239194e-05,-7.076688343290983e-05
1681917732.1179683,0.019659461780126557,6.831011434457132e-05,6.231807177324003e-06,-0.019620573008232087,-8.542356944253566e-05,5.788384464239194e-05,-7.076688343290983e-05
1681917732.1204853,0.019634834202633213,6.831011434457132e-05,6.471462700238475e-06,-0.01960397481796254,-8.532775086660117e-05,5.788384464239194e-05,-7.088665665282795e-05
1681917732.1229374,0.019634834202633213,6.831011434457132e-05,6.471462700238475e-06,-0.01960397481796254,-8.532775086660117e-05,5.788384464239194e-05,-7.088665665282795e-05
1681917732.1254408,0.019634834202633213,6.831011434457132e-05,6.471462700238475e-06,-0.01960397481796254,-8.532775086660117e-05,5.788384464239194e-05,-7.088665665282795e-05
1681917732.127981,0.019634834202633213,6.831011434457132e-05,6.471462700238475e-06,-0.01960397481796254,-8.532775086660117e-05,5.788384464239194e-05,-7.088665665282795e-05
1681917732.1304493,0.019610266620832904,6.825011865153401e-05,6.471462700238475e-06,-0.01958713708125316,-8.532775086660117e-05,5.776396233939558e-05,-7.070688773987252e-05
1681917732.1329505,0.019610266620832904,6.825011865153401e-05,6.471462700238475e-06,-0.01958713708125316,-8.532775086660117e-05,5.776396233939558e-05,-7.070688773987252e-05
1681917732.1354144,0.019610266620832904,6.825011865153401e-05,6.471462700238475e-06,-0.01958713708125316,-8.532775086660117e-05,5.776396233939558e-05,-7.070688773987252e-05
1681917732.1379073,0.019610266620832904,6.825011865153401e-05,6.471462700238475e-06,-0.01958713708125316,-8.532775086660117e-05,5.776396233939558e-05,-7.070688773987252e-05
1681917732.1403918,0.019585519161036565,6.837000095453037e-05,6.351689480320364e-06,-0.01956999958424475,-8.542356944253566e-05,5.7704075729436524e-05,-7.076688343290983e-05
1681917732.1429574,0.019585519161036565,6.837000095453037e-05,6.351689480320364e-06,-0.01956999958424475,-8.542356944253566e-05,5.7704075729436524e-05,-7.076688343290983e-05
1681917732.1454303,0.019585519161036565,6.837000095453037e-05,6.351689480320364e-06,-0.01956999958424475,-8.542356944253566e-05,5.7704075729436524e-05,-7.076688343290983e-05
1681917732.147924,0.019585519161036565,6.837000095453037e-05,6.351689480320364e-06,-0.01956999958424475,-8.542356944253566e-05,5.7704075729436524e-05,-7.076688343290983e-05
1681917732.1504571,0.019562389621456823,6.831011434457132e-05,6.351689480320364e-06,-0.019548248200275616,-8.542356944253566e-05,5.7704075729436524e-05,-7.112642125882067e-05
1681917732.15297,0.019562389621456823,6.831011434457132e-05,6.351689480320364e-06,-0.019548248200275616,-8.542356944253566e-05,5.7704075729436524e-05,-7.112642125882067e-05
1681917732.1554396,0.019562389621456823,6.831011434457132e-05,6.351689480320364e-06,-0.019548248200275616,-8.542356944253566e-05,5.7704075729436524e-05,-7.112642125882067e-05
1681917732.1579745,0.019562389621456823,6.831011434457132e-05,6.351689480320364e-06,-0.019548248200275616,-8.542356944253566e-05,5.7704075729436524e-05,-7.112642125882067e-05
1681917732.1604133,0.019540818006400642,6.831011434457132e-05,6.351689480320364e-06,-0.019523021429433445,-8.532775086660117e-05,5.7584193426440165e-05,-7.070688773987252e-05
1681917732.162979,0.019540818006400642,6.831011434457132e-05,6.351689480320364e-06,-0.019523021429433445,-8.532775086660117e-05,5.7584193426440165e-05,-7.070688773987252e-05
1681917732.165489,0.019540818006400642,6.831011434457132e-05,6.351689480320364e-06,-0.019523021429433445,-8.532775086660117e-05,5.7584193426440165e-05,-7.070688773987252e-05
1681917732.1679654,0.019540818006400642,6.831011434457132e-05,6.351689480320364e-06,-0.019523021429433445,-8.532775086660117e-05,5.7584193426440165e-05,-7.070688773987252e-05
1681917732.1704404,0.019520684542648103,6.825011865153401e-05,6.351689480320364e-06,-0.019496596162810548,-8.532775086660117e-05,5.788384464239194e-05,-7.088665665282795e-05
1681917732.1729927,0.019520684542648103,6.825011865153401e-05,6.351689480320364e-06,-0.019496596162810548,-8.532775086660117e-05,5.788384464239194e-05,-7.088665665282795e-05
1681917732.1753852,0.019520684542648103,6.825011865153401e-05,6.351689480320364e-06,-0.019496596162810548,-8.532775086660117e-05,5.788384464239194e-05,-7.088665665282795e-05
1681917732.1778984,0.019520684542648103,6.825011865153401e-05,6.351689480320364e-06,-0.019496596162810548,-8.532775086660117e-05,5.788384464239194e-05,-7.088665665282795e-05
1681917732.1804614,0.019500610965505528,6.819023204157496e-05,6.351689480320364e-06,-0.019469511816228864,-8.52317577577415e-05,5.7704075729436524e-05,-7.076688343290983e-05
1681917732.182946,0.019500610965505528,6.819023204157496e-05,6.351689480320364e-06,-0.019469511816228864,-8.52317577577415e-05,5.7704075729436524e-05,-7.076688343290983e-05
1681917732.1854677,0.019500610965505528,6.819023204157496e-05,6.351689480320364e-06,-0.019469511816228864,-8.52317577577415e-05,5.7704075729436524e-05,-7.076688343290983e-05
1681917732.187994,0.019500610965505528,6.819023204157496e-05,6.351689480320364e-06,-0.019469511816228864,-8.52317577577415e-05,5.7704075729436524e-05,-7.076688343290983e-05
1681917732.1904776,0.019480117854844,6.825011865153401e-05,6.411576090279419e-06,-0.019442966776386048,-8.532775086660117e-05,5.776396233939558e-05,-7.076688343290983e-05
1681917732.1929388,0.019480117854844,6.825011865153401e-05,6.411576090279419e-06,-0.019442966776386048,-8.532775086660117e-05,5.776396233939558e-05,-7.076688343290983e-05
1681917732.195442,0.019480117854844,6.825011865153401e-05,6.411576090279419e-06,-0.019442966776386048,-8.532775086660117e-05,5.776396233939558e-05,-7.076688343290983e-05
1681917732.1979902,0.019480117854844,6.825011865153401e-05,6.411576090279419e-06,-0.019442966776386048,-8.532775086660117e-05,5.776396233939558e-05,-7.076688343290983e-05
1681917732.2004886,0.019459804622178507,6.819023204157496e-05,6.351689480320364e-06,-0.01941815942997975,-8.52317577577415e-05,5.788384464239194e-05,-7.070688773987252e-05
1681917732.2029,0.019459804622178507,6.819023204157496e-05,6.351689480320364e-06,-0.01941815942997975,-8.52317577577415e-05,5.788384464239194e-05,-7.070688773987252e-05
1681917732.205402,0.019459804622178507,6.819023204157496e-05,6.351689480320364e-06,-0.01941815942997975,-8.52317577577415e-05,5.788384464239194e-05,-7.070688773987252e-05
1681917732.208002,0.019459804622178507,6.819023204157496e-05,6.351689480320364e-06,-0.01941815942997975,-8.52317577577415e-05,5.788384464239194e-05,-7.070688773987252e-05
1681917732.210424,0.01943961127181601,6.825011865153401e-05,6.351689480320364e-06,-0.019396408046010612,-8.52317577577415e-05,5.7704075729436524e-05,-7.070688773987252e-05
1681917732.2129626,0.01943961127181601,6.825011865153401e-05,6.351689480320364e-06,-0.019396408046010612,-8.52317577577415e-05,5.7704075729436524e-05,-7.070688773987252e-05
1681917732.2154799,0.01943961127181601,6.825011865153401e-05,6.351689480320364e-06,-0.019396408046010612,-8.52317577577415e-05,5.7704075729436524e-05,-7.070688773987252e-05
1681917732.217955,0.01943961127181601,6.825011865153401e-05,6.351689480320364e-06,-0.019396408046010612,-8.52317577577415e-05,5.7704075729436524e-05,-7.070688773987252e-05
1681917732.2204669,0.019418399194585743,6.819023204157496e-05,6.411576090279419e-06,-0.01937765273786868,-8.532775086660117e-05,5.7943731252350994e-05,-7.076688343290983e-05
1681917732.22294,0.019418399194585743,6.819023204157496e-05,6.411576090279419e-06,-0.01937765273786868,-8.532775086660117e-05,5.7943731252350994e-05,-7.076688343290983e-05
1681917732.2254515,0.019418399194585743,6.819023204157496e-05,6.411576090279419e-06,-0.01937765273786868,-8.532775086660117e-05,5.7943731252350994e-05,-7.076688343290983e-05
1681917732.228018,0.019418399194585743,6.819023204157496e-05,6.411576090279419e-06,-0.01937765273786868,-8.532775086660117e-05,5.7943731252350994e-05,-7.076688343290983e-05
1681917732.2304637,0.019396348159400653,6.831011434457132e-05,6.111924874327643e-06,-0.019358777656506832,-8.542356944253566e-05,5.788384464239194e-05,-7.070688773987252e-05
1681917732.2329416,0.019396348159400653,6.831011434457132e-05,6.111924874327643e-06,-0.019358777656506832,-8.542356944253566e-05,5.788384464239194e-05,-7.070688773987252e-05
1681917732.2354496,0.019396348159400653,6.831011434457132e-05,6.111924874327643e-06,-0.019358777656506832,-8.542356944253566e-05,5.788384464239194e-05,-7.070688773987252e-05
1681917732.237897,0.019396348159400653,6.831011434457132e-05,6.111924874327643e-06,-0.019358777656506832,-8.542356944253566e-05,5.788384464239194e-05,-7.070688773987252e-05
1681917732.2403872,0.019374297233298646,6.825011865153401e-05,6.111924874327643e-06,-0.01933978258375891,-8.532775086660117e-05,5.788384464239194e-05,-7.088665665282795e-05
1681917732.2428825,0.019374297233298646,6.825011865153401e-05,6.111924874327643e-06,-0.01933978258375891,-8.532775086660117e-05,5.788384464239194e-05,-7.088665665282795e-05
1681917732.2453804,0.019374297233298646,6.825011865153401e-05,6.111924874327643e-06,-0.01933978258375891,-8.532775086660117e-05,5.788384464239194e-05,-7.088665665282795e-05
1681917732.247885,0.019374297233298646,6.825011865153401e-05,6.111924874327643e-06,-0.01933978258375891,-8.532775086660117e-05,5.788384464239194e-05,-7.088665665282795e-05
1681917732.250457,0.019352006542590644,6.81303454316159e-05,6.052038264368587e-06,-0.01932090750239706,-8.52317577577415e-05,5.7704075729436524e-05,-7.088665665282795e-05
1681917732.2530086,0.019352006542590644,6.81303454316159e-05,6.052038264368587e-06,-0.01932090750239706,-8.52317577577415e-05,5.7704075729436524e-05,-7.088665665282795e-05
1681917732.2554588,0.019352006542590644,6.81303454316159e-05,6.052038264368587e-06,-0.01932090750239706,-8.52317577577415e-05,5.7704075729436524e-05,-7.088665665282795e-05
1681917732.257877,0.019352006542590644,6.81303454316159e-05,6.052038264368587e-06,-0.01932090750239706,-8.52317577577415e-05,5.7704075729436524e-05,-7.088665665282795e-05
1681917732.2604258,0.01932929642744677,6.831011434457132e-05,6.231807177324003e-06,-0.01930083392525448,-8.52317577577415e-05,5.800361786231005e-05,-7.076688343290983e-05
1681917732.2628794,0.01932929642744677,6.831011434457132e-05,6.231807177324003e-06,-0.01930083392525448,-8.52317577577415e-05,5.800361786231005e-05,-7.076688343290983e-05
1681917732.2653866,0.01932929642744677,6.831011434457132e-05,6.231807177324003e-06,-0.01930083392525448,-8.52317577577415e-05,5.800361786231005e-05,-7.076688343290983e-05
1681917732.2679625,0.01932929642744677,6.831011434457132e-05,6.231807177324003e-06,-0.01930083392525448,-8.52317577577415e-05,5.800361786231005e-05,-7.076688343290983e-05
1681917732.2703936,0.0193065863123029,6.81303454316159e-05,6.231807177324003e-06,-0.019279981385850124,-8.542356944253566e-05,5.788384464239194e-05,-7.076688343290983e-05
1681917732.272889,0.0193065863123029,6.81303454316159e-05,6.231807177324003e-06,-0.019279981385850124,-8.542356944253566e-05,5.788384464239194e-05,-7.076688343290983e-05
1681917732.2753804,0.0193065863123029,6.81303454316159e-05,6.231807177324003e-06,-0.019279981385850124,-8.542356944253566e-05,5.788384464239194e-05,-7.076688343290983e-05
1681917732.2779558,0.0193065863123029,6.81303454316159e-05,6.231807177324003e-06,-0.019279981385850124,-8.542356944253566e-05,5.788384464239194e-05,-7.076688343290983e-05
1681917732.2804782,0.01928333689042016,6.819023204157496e-05,6.351689480320364e-06,-0.019258829195229813,-8.542356944253566e-05,5.788384464239194e-05,-7.088665665282795e-05
1681917732.282882,0.01928333689042016,6.819023204157496e-05,6.351689480320364e-06,-0.019258829195229813,-8.542356944253566e-05,5.788384464239194e-05,-7.088665665282795e-05
1681917732.2853808,0.01928333689042016,6.819023204157496e-05,6.351689480320364e-06,-0.019258829195229813,-8.542356944253566e-05,5.788384464239194e-05,-7.088665665282795e-05
1681917732.2878814,0.01928333689042016,6.819023204157496e-05,6.351689480320364e-06,-0.019258829195229813,-8.542356944253566e-05,5.788384464239194e-05,-7.088665665282795e-05
1681917732.2904112,0.019261106195405196,6.81303454316159e-05,6.231807177324003e-06,-0.019237916660132418,-8.532775086660117e-05,5.776396233939558e-05,-7.076688343290983e-05
1681917732.2928822,0.019261106195405196,6.81303454316159e-05,6.231807177324003e-06,-0.019237916660132418,-8.532775086660117e-05,5.776396233939558e-05,-7.076688343290983e-05
1681917732.295391,0.019261106195405196,6.81303454316159e-05,6.231807177324003e-06,-0.019237916660132418,-8.532775086660117e-05,5.776396233939558e-05,-7.076688343290983e-05
1681917732.297891,0.019261106195405196,6.81303454316159e-05,6.231807177324003e-06,-0.019237916660132418,-8.532775086660117e-05,5.776396233939558e-05,-7.076688343290983e-05
1681917732.3003912,0.01923773700030254,6.81303454316159e-05,6.411576090279419e-06,-0.01921826261650879,-8.532775086660117e-05,5.776396233939558e-05,-7.076688343290983e-05
1681917732.3029397,0.01923773700030254,6.81303454316159e-05,6.411576090279419e-06,-0.01921826261650879,-8.532775086660117e-05,5.776396233939558e-05,-7.076688343290983e-05
1681917732.3054528,0.01923773700030254,6.81303454316159e-05,6.411576090279419e-06,-0.01921826261650879,-8.532775086660117e-05,5.776396233939558e-05,-7.076688343290983e-05
1681917732.307993,0.01923773700030254,6.81303454316159e-05,6.411576090279419e-06,-0.01921826261650879,-8.532775086660117e-05,5.776396233939558e-05,-7.076688343290983e-05
1681917732.3104427,0.01921412804059389,6.831011434457132e-05,6.351689480320364e-06,-0.01919980685049973,-8.52317577577415e-05,5.800361786231005e-05,-7.064700112991347e-05
1681917732.312909,0.01921412804059389,6.831011434457132e-05,6.351689480320364e-06,-0.01919980685049973,-8.52317577577415e-05,5.800361786231005e-05,-7.064700112991347e-05
1681917732.3154526,0.01921412804059389,6.831011434457132e-05,6.351689480320364e-06,-0.01919980685049973,-8.52317577577415e-05,5.800361786231005e-05,-7.064700112991347e-05
1681917732.3179455,0.01921412804059389,6.831011434457132e-05,6.351689480320364e-06,-0.01919980685049973,-8.52317577577415e-05,5.800361786231005e-05,-7.064700112991347e-05
1681917732.3205388,0.019190339311972286,6.831011434457132e-05,6.351689480320364e-06,-0.019181171424660793,-8.532775086660117e-05,5.806361355534735e-05,-7.094665234586525e-05
1681917732.322954,0.019190339311972286,6.831011434457132e-05,6.351689480320364e-06,-0.019181171424660793,-8.532775086660117e-05,5.806361355534735e-05,-7.094665234586525e-05
1681917732.3254442,0.019190339311972286,6.831011434457132e-05,6.351689480320364e-06,-0.019181171424660793,-8.532775086660117e-05,5.806361355534735e-05,-7.094665234586525e-05
1681917732.3279686,0.019190339311972286,6.831011434457132e-05,6.351689480320364e-06,-0.019181171424660793,-8.532775086660117e-05,5.806361355534735e-05,-7.094665234586525e-05
1681917732.33044,0.019166850234566633,6.825011865153401e-05,6.411576090279419e-06,-0.019159240271778705,-8.532775086660117e-05,5.776396233939558e-05,-7.076688343290983e-05
1681917732.3329525,0.019166850234566633,6.825011865153401e-05,6.411576090279419e-06,-0.019159240271778705,-8.532775086660117e-05,5.776396233939558e-05,-7.076688343290983e-05
1681917732.3353853,0.019166850234566633,6.825011865153401e-05,6.411576090279419e-06,-0.019159240271778705,-8.532775086660117e-05,5.776396233939558e-05,-7.076688343290983e-05
1681917732.3379803,0.019166850234566633,6.825011865153401e-05,6.411576090279419e-06,-0.019159240271778705,-8.532775086660117e-05,5.776396233939558e-05,-7.076688343290983e-05
1681917732.3405197,0.01914414011942276,6.825011865153401e-05,6.231807177324003e-06,-0.019135751194373052,-8.52317577577415e-05,5.7704075729436524e-05,-7.064700112991347e-05
1681917732.342925,0.01914414011942276,6.825011865153401e-05,6.231807177324003e-06,-0.019135751194373052,-8.52317577577415e-05,5.7704075729436524e-05,-7.064700112991347e-05
1681917732.3454974,0.01914414011942276,6.825011865153401e-05,6.231807177324003e-06,-0.019135751194373052,-8.52317577577415e-05,5.7704075729436524e-05,-7.064700112991347e-05
1681917732.3479493,0.01914414011942276,6.825011865153401e-05,6.231807177324003e-06,-0.019135751194373052,-8.52317577577415e-05,5.7704075729436524e-05,-7.064700112991347e-05
1681917732.3504448,0.019122508617756624,6.819023204157496e-05,6.411576090279419e-06,-0.019110464427837842,-8.532775086660117e-05,5.776396233939558e-05,-7.088665665282795e-05
1681917732.352939,0.019122508617756624,6.819023204157496e-05,6.411576090279419e-06,-0.019110464427837842,-8.532775086660117e-05,5.776396233939558e-05,-7.088665665282795e-05
1681917732.355452,0.019122508617756624,6.819023204157496e-05,6.411576090279419e-06,-0.019110464427837842,-8.532775086660117e-05,5.776396233939558e-05,-7.088665665282795e-05
1681917732.3579504,0.019122508617756624,6.819023204157496e-05,6.411576090279419e-06,-0.019110464427837842,-8.532775086660117e-05,5.776396233939558e-05,-7.088665665282795e-05
1681917732.3604512,0.01910255492291704,6.825011865153401e-05,6.411576090279419e-06,-0.019084398808123935,-8.532775086660117e-05,5.800361786231005e-05,-7.070688773987252e-05
1681917732.3628917,0.01910255492291704,6.825011865153401e-05,6.411576090279419e-06,-0.019084398808123935,-8.532775086660117e-05,5.800361786231005e-05,-7.070688773987252e-05
1681917732.3653834,0.01910255492291704,6.825011865153401e-05,6.411576090279419e-06,-0.019084398808123935,-8.532775086660117e-05,5.800361786231005e-05,-7.070688773987252e-05
1681917732.3679624,0.01910255492291704,6.825011865153401e-05,6.411576090279419e-06,-0.019084398808123935,-8.532775086660117e-05,5.800361786231005e-05,-7.070688773987252e-05
1681917732.370464,0.019083499963559156,6.81303454316159e-05,6.351689480320364e-06,-0.019056835041413346,-8.52317577577415e-05,5.788384464239194e-05,-7.076688343290983e-05
1681917732.3729427,0.019083499963559156,6.81303454316159e-05,6.351689480320364e-06,-0.019056835041413346,-8.52317577577415e-05,5.788384464239194e-05,-7.076688343290983e-05
1681917732.3754785,0.019083499963559156,6.81303454316159e-05,6.351689480320364e-06,-0.019056835041413346,-8.52317577577415e-05,5.788384464239194e-05,-7.076688343290983e-05
1681917732.377963,0.019083499963559156,6.81303454316159e-05,6.351689480320364e-06,-0.019056835041413346,-8.52317577577415e-05,5.788384464239194e-05,-7.076688343290983e-05
1681917732.3804157,0.019066302579940787,6.81303454316159e-05,6.351689480320364e-06,-0.019026874501307453,-8.542356944253566e-05,5.7704075729436524e-05,-7.064700112991347e-05
1681917732.382954,0.019066302579940787,6.81303454316159e-05,6.351689480320364e-06,-0.019026874501307453,-8.542356944253566e-05,5.7704075729436524e-05,-7.064700112991347e-05
1681917732.3854392,0.019066302579940787,6.81303454316159e-05,6.351689480320364e-06,-0.019026874501307453,-8.542356944253566e-05,5.7704075729436524e-05,-7.064700112991347e-05
1681917732.387942,0.019066302579940787,6.81303454316159e-05,6.351689480320364e-06,-0.019026874501307453,-8.542356944253566e-05,5.7704075729436524e-05,-7.064700112991347e-05
1681917732.390441,0.019049824271974238,6.831011434457132e-05,6.411576090279419e-06,-0.018999969923638726,-8.542356944253566e-05,5.788384464239194e-05,-7.088665665282795e-05
1681917732.3929996,0.019049824271974238,6.831011434457132e-05,6.411576090279419e-06,-0.018999969923638726,-8.542356944253566e-05,5.788384464239194e-05,-7.088665665282795e-05
1681917732.3953674,0.019049824271974238,6.831011434457132e-05,6.411576090279419e-06,-0.018999969923638726,-8.542356944253566e-05,5.788384464239194e-05,-7.088665665282795e-05
1681917732.397979,0.019049824271974238,6.831011434457132e-05,6.411576090279419e-06,-0.018999969923638726,-8.542356944253566e-05,5.788384464239194e-05,-7.088665665282795e-05
1681917732.4004834,0.019032686884048907,6.81303454316159e-05,6.351689480320364e-06,-0.018978997501931372,-8.52317577577415e-05,5.788384464239194e-05,-7.076688343290983e-05
1681917732.402953,0.019032686884048907,6.81303454316159e-05,6.351689480320364e-06,-0.018978997501931372,-8.52317577577415e-05,5.788384464239194e-05,-7.076688343290983e-05
1681917732.4054666,0.019032686884048907,6.81303454316159e-05,6.351689480320364e-06,-0.018978997501931372,-8.52317577577415e-05,5.788384464239194e-05,-7.076688343290983e-05
1681917732.4079847,0.019032686884048907,6.81303454316159e-05,6.351689480320364e-06,-0.018978997501931372,-8.52317577577415e-05,5.788384464239194e-05,-7.076688343290983e-05
1681917732.4104571,0.019016508118215234,6.825011865153401e-05,6.411576090279419e-06,-0.018959762882743612,-8.532775086660117e-05,5.776396233939558e-05,-7.100653895582431e-05
1681917732.4129562,0.019016508118215234,6.825011865153401e-05,6.411576090279419e-06,-0.018959762882743612,-8.532775086660117e-05,5.776396233939558e-05,-7.100653895582431e-05
1681917732.4154406,0.019016508118215234,6.825011865153401e-05,6.411576090279419e-06,-0.018959762882743612,-8.532775086660117e-05,5.776396233939558e-05,-7.100653895582431e-05
1681917732.41795,0.019016508118215234,6.825011865153401e-05,6.411576090279419e-06,-0.018959762882743612,-8.532775086660117e-05,5.776396233939558e-05,-7.100653895582431e-05
1681917732.4205031,0.01899985004133573,6.81303454316159e-05,6.411576090279419e-06,-0.018942385730212286,-8.532775086660117e-05,5.788384464239194e-05,-7.088665665282795e-05
1681917732.4229574,0.01899985004133573,6.81303454316159e-05,6.411576090279419e-06,-0.018942385730212286,-8.532775086660117e-05,5.788384464239194e-05,-7.088665665282795e-05
1681917732.4254541,0.01899985004133573,6.81303454316159e-05,6.411576090279419e-06,-0.018942385730212286,-8.532775086660117e-05,5.788384464239194e-05,-7.088665665282795e-05
1681917732.4279482,0.01899985004133573,6.81303454316159e-05,6.411576090279419e-06,-0.018942385730212286,-8.532775086660117e-05,5.788384464239194e-05,-7.088665665282795e-05
1681917732.4304087,0.018977679232930724,6.80703497385786e-05,6.171920567364948e-06,-0.018923870077593268,-8.52317577577415e-05,5.788384464239194e-05,-7.076688343290983e-05
1681917732.432892,0.018977679232930724,6.80703497385786e-05,6.171920567364948e-06,-0.018923870077593268,-8.52317577577415e-05,5.788384464239194e-05,-7.076688343290983e-05
1681917732.4354532,0.018977679232930724,6.80703497385786e-05,6.171920567364948e-06,-0.018923870077593268,-8.52317577577415e-05,5.788384464239194e-05,-7.076688343290983e-05
1681917732.4378839,0.018977679232930724,6.80703497385786e-05,6.171920567364948e-06,-0.018923870077593268,-8.52317577577415e-05,5.788384464239194e-05,-7.076688343290983e-05
1681917732.4403894,0.01895508900008985,6.81303454316159e-05,5.9321559613722265e-06,-0.01890301753818891,-8.532775086660117e-05,5.788384464239194e-05,-7.076688343290983e-05
1681917732.4429388,0.01895508900008985,6.81303454316159e-05,5.9321559613722265e-06,-0.01890301753818891,-8.532775086660117e-05,5.788384464239194e-05,-7.076688343290983e-05
1681917732.445384,0.01895508900008985,6.81303454316159e-05,5.9321559613722265e-06,-0.01890301753818891,-8.532775086660117e-05,5.788384464239194e-05,-7.076688343290983e-05
1681917732.4479418,0.01895508900008985,6.81303454316159e-05,5.9321559613722265e-06,-0.01890301753818891,-8.532775086660117e-05,5.788384464239194e-05,-7.076688343290983e-05
1681917732.4503808,0.018932738422771888,6.81303454316159e-05,5.6925004384577555e-06,-0.018879588347393218,-8.532775086660117e-05,5.776396233939558e-05,-7.088665665282795e-05
1681917732.4529626,0.018932738422771888,6.81303454316159e-05,5.6925004384577555e-06,-0.018879588347393218,-8.532775086660117e-05,5.776396233939558e-05,-7.088665665282795e-05
1681917732.4554677,0.018932738422771888,6.81303454316159e-05,5.6925004384577555e-06,-0.018879588347393218,-8.532775086660117e-05,5.776396233939558e-05,-7.088665665282795e-05
1681917732.45788,0.018932738422771888,6.81303454316159e-05,5.6925004384577555e-06,-0.018879588347393218,-8.532775086660117e-05,5.776396233939558e-05,-7.088665665282795e-05
1681917732.4604611,0.01891062750097684,6.80703497385786e-05,5.6326138284987e-06,-0.018853762383202223,-8.52317577577415e-05,5.788384464239194e-05,-7.076688343290983e-05
1681917732.4628723,0.01891062750097684,6.80703497385786e-05,5.6326138284987e-06,-0.018853762383202223,-8.52317577577415e-05,5.788384464239194e-05,-7.076688343290983e-05
1681917732.465519,0.01891062750097684,6.80703497385786e-05,5.6326138284987e-06,-0.018853762383202223,-8.52317577577415e-05,5.788384464239194e-05,-7.076688343290983e-05
1681917732.4680073,0.01891062750097684,6.80703497385786e-05,5.6326138284987e-06,-0.018853762383202223,-8.52317577577415e-05,5.788384464239194e-05,-7.076688343290983e-05
1681917732.4704404,0.018888456692571835,6.825011865153401e-05,5.6925004384577555e-06,-0.018830812612535434,-8.542356944253566e-05,5.7584193426440165e-05,-7.070688773987252e-05
1681917732.4729402,0.018888456692571835,6.825011865153401e-05,5.6925004384577555e-06,-0.018830812612535434,-8.542356944253566e-05,5.7584193426440165e-05,-7.070688773987252e-05
1681917732.4754515,0.018888456692571835,6.825011865153401e-05,5.6925004384577555e-06,-0.018830812612535434,-8.542356944253566e-05,5.7584193426440165e-05,-7.070688773987252e-05
1681917732.477992,0.018888456692571835,6.825011865153401e-05,5.6925004384577555e-06,-0.018830812612535434,-8.542356944253566e-05,5.7584193426440165e-05,-7.070688773987252e-05
1681917732.4805238,0.018865626804208044,6.81303454316159e-05,5.6925004384577555e-06,-0.01881103857752573,-8.542356944253566e-05,5.7704075729436524e-05,-7.070688773987252e-05
1681917732.4829519,0.018865626804208044,6.81303454316159e-05,5.6925004384577555e-06,-0.01881103857752573,-8.542356944253566e-05,5.7704075729436524e-05,-7.070688773987252e-05
1681917732.4854727,0.018865626804208044,6.81303454316159e-05,5.6925004384577555e-06,-0.01881103857752573,-8.542356944253566e-05,5.7704075729436524e-05,-7.070688773987252e-05
1681917732.487982,0.018865626804208044,6.81303454316159e-05,5.6925004384577555e-06,-0.01881103857752573,-8.542356944253566e-05,5.7704075729436524e-05,-7.070688773987252e-05
1681917732.490465,0.01884147853776053,6.819023204157496e-05,5.9321559613722265e-06,-0.018793661534077483,-8.532775086660117e-05,5.788384464239194e-05,-7.070688773987252e-05
1681917732.4929395,0.01884147853776053,6.819023204157496e-05,5.9321559613722265e-06,-0.018793661534077483,-8.532775086660117e-05,5.788384464239194e-05,-7.070688773987252e-05
1681917732.4954293,0.01884147853776053,6.819023204157496e-05,5.9321559613722265e-06,-0.018793661534077483,-8.532775086660117e-05,5.788384464239194e-05,-7.070688773987252e-05
1681917732.4978857,0.01884147853776053,6.819023204157496e-05,5.9321559613722265e-06,-0.018793661534077483,-8.532775086660117e-05,5.788384464239194e-05,-7.070688773987252e-05
1681917732.5003939,0.01881631165352832,6.80703497385786e-05,5.9321559613722265e-06,-0.01877634426815612,-8.52317577577415e-05,5.7704075729436524e-05,-7.064700112991347e-05
1681917732.5029626,0.01881631165352832,6.80703497385786e-05,5.9321559613722265e-06,-0.01877634426815612,-8.52317577577415e-05,5.7704075729436524e-05,-7.064700112991347e-05
1681917732.505386,0.01881631165352832,6.80703497385786e-05,5.9321559613722265e-06,-0.01877634426815612,-8.52317577577415e-05,5.7704075729436524e-05,-7.064700112991347e-05
1681917732.5079782,0.01881631165352832,6.80703497385786e-05,5.9321559613722265e-06,-0.01877634426815612,-8.52317577577415e-05,5.7704075729436524e-05,-7.064700112991347e-05
1681917732.5104752,0.018789227306946637,6.80703497385786e-05,6.052038264368587e-06,-0.01875866757349192,-8.542356944253566e-05,5.7584193426440165e-05,-7.070688773987252e-05
1681917732.5129385,0.018789227306946637,6.80703497385786e-05,6.052038264368587e-06,-0.01875866757349192,-8.542356944253566e-05,5.7584193426440165e-05,-7.070688773987252e-05
1681917732.51546,0.018789227306946637,6.80703497385786e-05,6.052038264368587e-06,-0.01875866757349192,-8.542356944253566e-05,5.7584193426440165e-05,-7.070688773987252e-05
1681917732.5179486,0.018789227306946637,6.80703497385786e-05,6.052038264368587e-06,-0.01875866757349192,-8.542356944253566e-05,5.7584193426440165e-05,-7.070688773987252e-05
1681917732.5204563,0.018760944573667303,6.81303454316159e-05,5.9321559613722265e-06,-0.01874069122761177,-8.542356944253566e-05,5.7704075729436524e-05,-7.070688773987252e-05
1681917732.5229576,0.018760944573667303,6.81303454316159e-05,5.9321559613722265e-06,-0.01874069122761177,-8.542356944253566e-05,5.7704075729436524e-05,-7.070688773987252e-05
1681917732.525471,0.018760944573667303,6.81303454316159e-05,5.9321559613722265e-06,-0.01874069122761177,-8.542356944253566e-05,5.7704075729436524e-05,-7.070688773987252e-05
1681917732.5278943,0.018760944573667303,6.81303454316159e-05,5.9321559613722265e-06,-0.01874069122761177,-8.542356944253566e-05,5.7704075729436524e-05,-7.070688773987252e-05
1681917732.5304465,0.018731403457997283,6.81303454316159e-05,5.812382741454116e-06,-0.01872265499512166,-8.532775086660117e-05,5.7704075729436524e-05,-7.076688343290983e-05
1681917732.532961,0.018731403457997283,6.81303454316159e-05,5.812382741454116e-06,-0.01872265499512166,-8.532775086660117e-05,5.7704075729436524e-05,-7.076688343290983e-05
1681917732.5354457,0.018731403457997283,6.81303454316159e-05,5.812382741454116e-06,-0.01872265499512166,-8.532775086660117e-05,5.7704075729436524e-05,-7.076688343290983e-05
1681917732.5379899,0.018731403457997283,6.81303454316159e-05,5.812382741454116e-06,-0.01872265499512166,-8.532775086660117e-05,5.7704075729436524e-05,-7.076688343290983e-05
1681917732.5404978,0.018700903611152526,6.81303454316159e-05,5.572618135461395e-06,-0.01870545761150329,-8.52317577577415e-05,5.7704075729436524e-05,-7.088665665282795e-05
1681917732.5429456,0.018700903611152526,6.81303454316159e-05,5.572618135461395e-06,-0.01870545761150329,-8.52317577577415e-05,5.7704075729436524e-05,-7.088665665282795e-05
1681917732.5454407,0.018700903611152526,6.81303454316159e-05,5.572618135461395e-06,-0.01870545761150329,-8.52317577577415e-05,5.7704075729436524e-05,-7.088665665282795e-05
1681917732.547947,0.018700903611152526,6.81303454316159e-05,5.572618135461395e-06,-0.01870545761150329,-8.52317577577415e-05,5.7704075729436524e-05,-7.088665665282795e-05
1681917732.5504405,0.018670104113091814,6.81303454316159e-05,5.572618135461395e-06,-0.01868538403436071,-8.532775086660117e-05,5.776396233939558e-05,-7.088665665282795e-05
1681917732.552956,0.018670104113091814,6.81303454316159e-05,5.572618135461395e-06,-0.01868538403436071,-8.532775086660117e-05,5.776396233939558e-05,-7.088665665282795e-05
1681917732.555451,0.018670104113091814,6.81303454316159e-05,5.572618135461395e-06,-0.01868538403436071,-8.532775086660117e-05,5.776396233939558e-05,-7.088665665282795e-05
1681917732.5578704,0.018670104113091814,6.81303454316159e-05,5.572618135461395e-06,-0.01868538403436071,-8.532775086660117e-05,5.776396233939558e-05,-7.088665665282795e-05
1681917732.5604596,0.018639064959508192,6.819023204157496e-05,5.4528449155432845e-06,-0.018662134612477975,-8.542356944253566e-05,5.7584193426440165e-05,-7.064700112991347e-05
1681917732.562963,0.018639064959508192,6.819023204157496e-05,5.4528449155432845e-06,-0.018662134612477975,-8.542356944253566e-05,5.7584193426440165e-05,-7.064700112991347e-05
1681917732.5653927,0.018639064959508192,6.819023204157496e-05,5.4528449155432845e-06,-0.018662134612477975,-8.542356944253566e-05,5.7584193426440165e-05,-7.064700112991347e-05
1681917732.5679157,0.018639064959508192,6.819023204157496e-05,5.4528449155432845e-06,-0.018662134612477975,-8.542356944253566e-05,5.7584193426440165e-05,-7.064700112991347e-05
1681917732.5704055,0.018608085801617606,6.80703497385786e-05,5.4528449155432845e-06,-0.01863756692159459,-8.52317577577415e-05,5.788384464239194e-05,-7.076688343290983e-05
1681917732.5729795,0.018608085801617606,6.80703497385786e-05,5.4528449155432845e-06,-0.01863756692159459,-8.52317577577415e-05,5.788384464239194e-05,-7.076688343290983e-05
1681917732.5754778,0.018608085801617606,6.80703497385786e-05,5.4528449155432845e-06,-0.01863756692159459,-8.52317577577415e-05,5.788384464239194e-05,-7.076688343290983e-05
1681917732.577882,0.018608085801617606,6.80703497385786e-05,5.4528449155432845e-06,-0.01863756692159459,-8.52317577577415e-05,5.788384464239194e-05,-7.076688343290983e-05
1681917732.5804555,0.018574829534468557,6.80703497385786e-05,5.572618135461395e-06,-0.01861347865084011,-8.52317577577415e-05,5.7704075729436524e-05,-7.064700112991347e-05
1681917732.5829513,0.018574829534468557,6.80703497385786e-05,5.572618135461395e-06,-0.01861347865084011,-8.52317577577415e-05,5.7704075729436524e-05,-7.064700112991347e-05
1681917732.5854259,0.018574829534468557,6.80703497385786e-05,5.572618135461395e-06,-0.01861347865084011,-8.52317577577415e-05,5.7704075729436524e-05,-7.064700112991347e-05
1681917732.5878997,0.018574829534468557,6.80703497385786e-05,5.572618135461395e-06,-0.01861347865084011,-8.52317577577415e-05,5.7704075729436524e-05,-7.064700112991347e-05
1681917732.5904984,0.018538996725011254,6.81303454316159e-05,5.572618135461395e-06,-0.01859028922465041,-8.542356944253566e-05,5.7584193426440165e-05,-7.070688773987252e-05
1681917732.592962,0.018538996725011254,6.81303454316159e-05,5.572618135461395e-06,-0.01859028922465041,-8.542356944253566e-05,5.7584193426440165e-05,-7.070688773987252e-05
