lbr-stack/dynamic_parameter_identification/src/test/joint_states_velocities.csv
time,lbr_joint_1,lbr_joint_2,lbr_joint_3,lbr_joint_0,lbr_joint_4,lbr_joint_5,lbr_joint_6
674.15,2.2831666182612493,0.19190191724243005,0.046804010915188377,5.0838834219287714e-05,-1.2996857882752177e-05,0.0023082102142144567,5.446213688919954e-07
674.16,2.2831625407885388,0.19189736854123743,0.04680404926317139,5.086684320007761e-05,-1.306253894589604e-05,0.0023067229552313773,5.156900241276574e-07
674.17,2.2831666182612365,0.19190191724211653,0.046804010915127314,5.083883422193372e-05,-1.29968578833628e-05,0.0023082102140090655,5.446213681148393e-07
674.18,2.28217228004719,0.19212447140775352,0.04207996199735775,6.0348332961810615e-05,-1.9725539279757953e-06,0.0019081620765304397,9.508038927408258e-06
674.19,2.282867112131199,0.18826421069433605,0.04354277730901446,0.0010482758058278198,-8.321563154667366e-07,0.002263028887147689,1.2161248228892418e-05
674.2,2.2826543925723404,0.1863283487553726,0.04299815160033038,0.0025843460569255775,-1.0165544968021578e-06,0.0022592957705354078,1.2031340955065417e-05
674.21,2.2820599306939173,0.18527074801420262,0.04172677902793609,0.0035964628550499327,-1.0936598710542533e-06,0.0022676644270951396,1.197362801230728e-05
674.22,2.281282368693559,0.18441038495719714,0.04018650046914196,0.004387574926689944,-1.1458137665343315e-06,0.0022849472200705545,1.1935016158926004e-05
674.23,2.2803765377437815,0.18359136849552796,0.03855204161677439,0.005062642085247716,-1.1759407115286002e-06,0.0023070465096366455,1.1904607579049653e-05
674.24,2.2793727419707035,0.1827722078513946,0.03689750160747596,0.005675159884013482,-1.168574648491294e-06,0.0023439391979609425,1.1943698382865797e-05
674.25,2.2782784255751376,0.1819645401766399,0.03524958061361372,0.006216100318797544,-1.191065025107907e-06,0.0023687273750838678,1.1913928762763426e-05
674.26,2.277101697548768,0.18115706875638385,0.03362524453463234,0.006714289856630024,-1.2111101600487117e-06,0.0023932664603556475,1.1884071909440408e-05
674.27,2.275846047995753,0.18035004365569704,0.03203038543352599,0.007177338918756381,-1.2300074074822476e-06,0.002417208756534839,1.1853278117812671e-05
674.28,2.2745138924447397,0.17954342973532547,0.030467069549060977,0.007610542408470699,-1.2489942351479044e-06,0.0024403828811214723,1.1820825362107712e-05
674.29,2.273207247156028,0.17705913147894975,0.029150628216296548,0.00972534231726558,1.0546718242410158e-05,0.0020692186548547653,1.8054767971897867e-05
674.3,2.2717082210936272,0.17635464220034855,0.02761997005857486,0.010032937172485008,9.84291641820123e-06,0.002019746598573846,1.763264120413499e-05
674.31,2.270150491693178,0.1754399381826503,0.026174563959749042,0.010518276967923096,1.0507781135593586e-05,0.0021340838314369837,1.81342573014609e-05
674.32,2.268446709376896,0.1763132637558472,0.024518623631284875,0.009121828849931816,-1.3592146005936279e-06,0.0025100085565854524,1.1606320715951135e-05
674.33,2.2667583710978003,0.1754410205999172,0.023120304722792362,0.009503219642149455,-1.3901603485022562e-06,0.0025473829145843396,1.150769451263578e-05
674.34,2.265084577072202,0.1730072840289445,0.021935923610636676,0.011497477385767375,1.031426646325162e-05,0.0021933973507044513,1.7923919363171947e-05
674.35,2.2632680748211373,0.17229917968668154,0.020548702425245313,0.011681160245727976,9.498361755899687e-06,0.0021197378871298245,1.726380802979932e-05
674.36,2.2613820514048744,0.17148902409388336,0.0192134168799325,0.01196115188584812,9.427594881428192e-06,0.0021376886481034862,1.7184705423556323e-05
674.37,2.259434600150649,0.17067524576237628,0.01790383623362879,0.012234583437659175,9.357925773445519e-06,0.002155577243771578,1.7105759440139146e-05
674.38,2.2574260700922633,0.16986116768754564,0.01661797502106066,0.012494623344606373,9.288134609874987e-06,0.002172422879521907,1.7026207978165786e-05
674.39,2.2552570744082643,0.17068005290571953,0.015167158165787509,0.011058840556402084,-1.3882469602211067e-06,0.00266870180600276,1.136446494598431e-05
674.4,2.2531312048012557,0.16986186094696507,0.0139311902334327,0.011281375873095313,-1.429341067171741e-06,0.0026822352045439146,1.1285875673561208e-05
674.41,2.2509497997646606,0.1690443358897125,0.012716189807776557,0.011497903171953129,-1.4428432378865708e-06,0.002696472620911994,1.1243256849535754e-05
674.42,2.2487124714836053,0.16822685594669315,0.011520689681955965,0.011706066174456945,-1.4676098957777661e-06,0.0027101286840698346,1.1188865486677635e-05
674.43,2.2465214756648013,0.16577172997278192,0.010529953001546577,0.013584924320473604,8.909383538091564e-06,0.0022481585536788806,1.6589191748628274e-05
674.44,2.2440772486691625,0.16657565804050928,0.009188708633761644,0.012116298305240372,-1.4878722092714902e-06,0.00273735870404046,1.1104210192236508e-05
674.45,2.24168047704366,0.16578332608038177,0.008047931103425165,0.012268222992208002,-1.4626420427044096e-06,0.002748517262005201,1.1107048397462904e-05
674.46,2.2392342299724164,0.164963180265442,0.006931186579572257,0.012437081658249789,-1.4584002900885906e-06,0.002760098209064754,1.1075051442044348e-05
674.47,2.2367385305042546,0.16414260434804787,0.005832137263897197,0.012599313613926081,-1.48882911171766e-06,0.0027713361047732032,1.1008842584536715e-05
674.48,2.234194597868795,0.16332238619667955,0.0047505232377504925,0.012753490571705418,-1.526503620230546e-06,0.0027822478794701233,1.0932201684799026e-05
674.49,2.231697714761874,0.16084064031918277,0.0038676274358309115,0.014604359311809405,8.48527688623868e-06,0.0023243103824592826,1.605431559104087e-05
674.5,2.2289659216593196,0.16166032441341463,0.0026392301811317687,0.013066327321617513,-1.6359601977544713e-06,0.002803969004169904,1.0694993982207635e-05
674.51,2.2263771626025544,0.1591970297495437,0.0017854698773949185,0.014879657875587314,8.316447028422491e-06,0.0023462029404106577,1.575265546682747e-05
674.52,2.2235549069543965,0.1600425844237957,0.000584690414523914,0.013304589090905759,-3.358870572345296e-06,0.0027985614672747516,2.1342520341582905e-05
674.53,2.2210147826602578,0.157414025967252,0.00014299965261321823,0.015266002222493172,-2.0960609551146092e-05,0.0023835368945637203,2.021764166726392e-05
674.54,2.218461295382256,0.1580133455237439,0.0001552589727409348,0.014105384512277446,-3.1596662463106995e-05,0.003275960850646964,1.3349502783199796e-05
674.55,2.2159196773813936,0.1555051097432475,0.00013702660863623706,0.016077571444027192,-1.9143435080359872e-05,0.0024347520492085106,1.9585689682632967e-05
674.56,2.213274392934215,0.15619181571025836,0.00014778139562365844,0.01482556223563313,-2.9243760270747376e-05,0.003300250086182288,1.2689019688205683e-05
674.57,2.2106088486644166,0.15533477345938423,0.00014397421381384667,0.015102622384508144,-2.8032365779917523e-05,0.003307418683188512,1.23605246202807e-05
674.58,2.207893050421762,0.15449084394216556,0.00013980404446378714,0.015345340624781765,-2.67041920582467e-05,0.0033150394396304073,1.20016647434662e-05
674.59,2.205133641256244,0.15364868666022413,0.00013558192645368727,0.015558333349975629,-2.535485341398358e-05,0.003321683477941262,1.1635394425502099e-05
674.6,2.202329294118724,0.152816349823376,0.00013112346511512385,0.01574120489364749,-2.3921725594511223e-05,0.003327246251037641,1.124892625870011e-05
674.61,2.199477386848186,0.15199023484194255,0.00012616226295802946,0.015899430421106087,-2.2352342939346848e-05,0.0033332402078201095,1.0792013981686388e-05
674.62,2.1965862415642503,0.15116986535244936,0.00012085556322394275,0.016033921598285195,-2.0621044104773834e-05,0.0033368262931572357,1.0325496111796006e-05
674.63,2.193653293463633,0.15035430450314344,0.00011485031132218992,0.016148869433149696,-1.8632767563753205e-05,0.003338288978443016,9.788342836714037e-06
674.64,2.190709223822823,0.14793416068766788,0.00010893020896651784,0.01786780298419659,-1.0464630529061214e-05,0.0025436065796069496,1.6691047889261235e-05
674.65,2.1876639089648955,0.14873766372996616,9.898915763351113e-05,0.016333282584265897,-1.31814414867093e-05,0.0033422709014805374,8.304316145402169e-06
674.66,2.184648052578505,0.14628872546787502,9.814921790973763e-05,0.01803755991707233,-6.948594481692716e-06,0.002571935189570773,1.5695200214049798e-05
674.67,2.1815084049537856,0.14713944239632082,6.628977240330514e-05,0.016458174279383966,-4.962252207973972e-06,0.0033116823311092336,1.0154590757815996e-05
674.68,2.178405767707953,0.14468484972439843,6.672263256368716e-05,0.01815842576516495,4.486186098162648e-06,0.0027607132569453796,1.3100701123369696e-05
674.69,2.1750928415933655,0.1456033007370144,-0.0003661275617283799,0.016425672129425695,-1.5669757567060572e-06,0.003190335760524521,1.0037969305876082e-05
674.7,2.171847454920873,0.1444124887404794,-0.0005651763285805522,0.016763748146162293,-1.520573654767432e-07,0.0028615221653074396,1.0689667386876156e-05
674.71,2.1685068579240196,0.14408557895299143,-0.000891394214601382,0.016347043325012862,-1.5672685741985326e-06,0.0031413081977271773,1.0070628725711295e-05
674.72,2.165194824849362,0.14289149066849408,-0.0010942747288720245,0.016679915759395716,-1.670113641827342e-07,0.002816022216964198,1.0577525480670591e-05
674.73,2.1617887953681123,0.14257413584792464,-0.0014513849979198579,0.0162369512674965,-1.6645348162036555e-06,0.0030820770688655408,9.99078368441042e-06
674.74,2.158400943232692,0.13998982811727115,-0.0016856218582157467,0.01801177210725898,7.846663736543746e-06,0.002737823404822537,1.4757982804258774e-05
674.75,2.1549144838037884,0.13935983252470463,-0.002118735671575722,0.017809893859653134,7.165685837695612e-06,0.0026435870609848866,1.421779645494059e-05
674.76,2.151433422528987,0.13859058738811003,-0.002446175961128949,0.017756246267599113,7.100615592392501e-06,0.0026254432061030286,1.4121447055093217e-05
674.77,2.147891483043496,0.13908978506093506,-0.002877927622835008,0.016367034268221916,-1.9089881658773677e-07,0.0027288024831606528,1.0292725695193461e-05
674.78,2.14433290383668,0.13833431292628154,-0.003282233781416899,0.016280692165132185,-1.7730232737545037e-07,0.0027098072887892233,1.0117665393605257e-05
674.79,2.1407398635473185,0.1375743040853495,-0.003711170984187051,0.01619866982855447,-1.8309118718362605e-07,0.0026978316201262675,1.0057815884922938e-05
674.8,2.137097993187039,0.13681610970355307,-0.004219922583998947,0.0160980510546779,-1.8765107187568297e-07,0.002690275272341891,9.998319423720758e-06
674.81,2.1334212020707217,0.1360516198986573,-0.004767695645785164,0.015995537116680874,-1.927916279675923e-07,0.0026852405598793982,9.938102031759044e-06
674.82,2.1297163398561674,0.1352808464530338,-0.005334208203166657,0.015898751102504702,-1.9920089608382874e-07,0.002681561302681601,9.876881790327197e-06
674.83,2.125987042622597,0.13450551492856086,-0.005909330007005886,0.015810274018883064,-2.068846982339334e-07,0.0026785619994751375,9.81491880319707e-06
674.84,2.1222073050114996,0.13408326770474535,-0.006524756502201745,0.015440878284853889,-1.4091601722998615e-06,0.0029919638512496682,9.365773612213246e-06
674.85,2.118455790360389,0.13290604177560045,-0.007064059632787334,0.015712093591953653,-2.942799678384844e-07,0.00267083873184637,9.713877099970514e-06
674.86,2.114638580226885,0.13252603088476825,-0.007685306360031285,0.015304313217397928,-1.3981738202495375e-06,0.0029848645601393553,9.259128313954257e-06
674.87,2.110851241720123,0.1313445756068369,-0.008218472294730272,0.0155827989281763,-3.1894300972501455e-07,0.0026662280316362974,9.582739073532576e-06
674.88,2.1069999178053527,0.13096216527192384,-0.00883204724663278,0.015183595341351283,-1.3874373013811336e-06,0.002977930681722807,9.154339758288277e-06
674.89,2.103177769142925,0.12977905035048867,-0.009357809400816652,0.015469877831698228,-3.4368146453744863e-07,0.002661679579986087,9.451379360703172e-06
674.9,2.0992930009691992,0.12939830177568126,-0.009963001438172414,0.015076595552236102,-1.3776196372550231e-06,0.002970838538261855,9.048312476944709e-06
674.91,2.095438187903578,0.12821571471010232,-0.010480318125336341,0.015367276762355726,-3.6897007735237075e-07,0.0026568027216025136,9.31919388608149e-06
674.92,2.0915219180791773,0.12783778033527773,-0.011076095418326215,0.014976862722160231,-1.3678580179921074e-06,0.0029633497021857025,8.94158849168436e-06
674.93,2.087636516109311,0.12665657372703695,-0.011584030525209288,0.015269863746835517,-3.9475566132596285e-07,0.0026514763536633623,9.186571063690696e-06
674.94,2.0836928104330177,0.1262815231215126,-0.012169960338355601,0.01487204954288148,-1.3369982127808822e-06,0.0029502818357418636,8.715405774240015e-06
674.95,2.079849530267044,0.1236667930464086,-0.012544760700910818,0.016642245629952666,6.458470122538973e-06,0.0025882954559153237,1.2410452342792588e-05
674.96,2.075804821154706,0.12472248479369928,-0.013240950371263382,0.014786932297035612,-1.327938028927722e-06,0.0029393181353645215,8.61939730006922e-06
674.97,2.0718605474906844,0.12356237637755005,-0.013730820218492923,0.015069241967318759,-5.150633811401573e-07,0.002643453774900051,8.797174353147863e-06
674.98,2.067953066307106,0.12130538845110658,-0.01413077305148791,0.01655095961661507,6.255772310698182e-06,0.0025825646402903857,1.2147013209840019e-05
674.99,2.0638710589182736,0.12241621032112833,-0.014815442906161325,0.01464211892313425,-1.317144644685797e-06,0.002925051449488514,8.457922411497787e-06
675.0,2.0598896825805117,0.12126014213972083,-0.015288081046657798,0.014917521839245811,-5.493891741537027e-07,0.002632430772002481,8.602216554354225e-06
675.01,2.0559440754765475,0.11900259419693708,-0.01567366644444057,0.016398880632022217,6.034912526542424e-06,0.002571708489020219,1.1835211597643891e-05
675.02,2.0518277144927795,0.12012522448098924,-0.01633990579177258,0.014485957576757108,-1.3011507191684757e-06,0.002909207377169709,8.296823825915123e-06
675.03,2.047810794778797,0.11897493995121171,-0.016797458917210184,0.014758241450162645,-5.817088082615829e-07,0.002619828481656983,8.40843606403352e-06
675.04,2.0438291809963873,0.11671894423719278,-0.017170145591693498,0.01623864103214637,5.81685069889204e-06,0.0025592501515281363,1.1525560669745083e-05
675.05,2.0396811107201684,0.11785336318366163,-0.017818632136400225,0.014321661068919628,-1.28047143013732e-06,0.002891783790955005,8.1387482058215e-06
675.06,2.035631035659575,0.11670961176885858,-0.018261747311391963,0.014590203510159513,-6.089869246106439e-07,0.002605689238824649,8.218305411755722e-06
675.07,2.031530578835531,0.11635202852754459,-0.018778523821077364,0.014201051957177949,-1.2667598966453752e-06,0.0028791171050353004,8.033608103530376e-06
675.08,2.0274590909321515,0.11520957157223345,-0.019212636491912516,0.014472850957850855,-6.262714720428608e-07,0.002595356998031484,8.092067053766527e-06
675.09,2.0234224991727046,0.11295825960579396,-0.019565858916751333,0.015951861549822918,5.458345662512354e-06,0.002534992478725906,1.1013583588681541e-05
675.1,2.019227477922072,0.11411307940616333,-0.020186006390298994,0.014027072528636685,-1.2560537136496741e-06,0.00286037924763316,7.863679449771066e-06
675.11,2.015123307787913,0.11296619808454655,-0.020605790235287857,0.014311163171477232,-6.03435138274433e-07,0.0025804724447471283,7.992284883961975e-06
675.12,2.0110621144696332,0.1107349640467962,-0.020947971866425386,0.015761022843604207,5.241023038116133e-06,0.00251493236285083,1.0695391480908256e-05
675.13,2.0068322549443667,0.1119064165217343,-0.021553165134969854,0.01383216555251032,-1.2503821976150853e-06,0.002841173085251558,7.679354680434347e-06
675.14,2.0027136220207757,0.11076622642252326,-0.021958220596813405,0.014104372319493073,-6.684785399113657e-07,0.002556170664797852,7.724852456481024e-06
675.15,1.9986177990228569,0.10853031370825793,-0.02228977738514093,0.015567785147302645,5.031858375248444e-06,0.00249687376293517,1.039304236022387e-05
675.16,1.994363296854404,0.10971276399489797,-0.022879397699447246,0.01363813345031464,-1.2116720005672654e-06,0.0028169910432678247,7.5396555018203415e-06
675.17,1.9901899276003985,0.10898182322440389,-0.023314250058719344,0.013579727572468725,-1.2027704496542224e-06,0.002809278551080263,7.489137903993193e-06
675.18,1.9860084277392243,0.10826005503996183,-0.023745076418707045,0.013511941597722293,-1.1929931671428307e-06,0.002801168016595579,7.438936394543738e-06
675.19,1.9818193556430868,0.10754002828998992,-0.0241710057269362,0.013442719612769884,-1.1830409331337055e-06,0.0027928535670347365,7.3888612059369585e-06
675.2,1.977622721560802,0.10682204865775763,-0.02459254618455531,0.013372817247001527,-1.172917201114343e-06,0.0027843679204138105,7.3389221136310745e-06
675.21,1.9734185964123776,0.10610646814766253,-0.02501000188731961,0.01330227559124458,-1.1626245536855428e-06,0.0027757183060781454,7.2891223739657285e-06
675.22,1.969207111724632,0.10539340862078991,-0.02542352379579338,0.01323108004589217,-1.152163417866836e-06,0.0027669093820406054,7.239464571873189e-06
675.23,1.964988419760311,0.1046829099019662,-0.025833200932138922,0.013159225435948047,-1.1415370938516745e-06,0.0027579438828111424,7.189949952413066e-06
675.24,1.9607629156715947,0.103974842430053,-0.026238974115859515,0.013086393432960076,-1.1303435969445275e-06,0.0027488635542638473,7.14079743241447e-06
675.25,1.956530297288413,0.10326950273003488,-0.026641138573796574,0.013013254993251379,-1.119424829693072e-06,0.0027395922939419393,7.091558445859736e-06
675.26,1.9522909180917767,0.10256677811057383,-0.027039639417336003,0.01293948208886475,-1.1083314193638394e-06,0.0027301658682261642,7.042478896823745e-06
675.27,1.9480449473299222,0.1018666516335468,-0.02743451631978089,0.012865093970526877,-1.0970750243255445e-06,0.0027205877697074055,6.993556387557831e-06
675.28,1.9437925323064609,0.10116913508038952,-0.027825817529694152,0.012790109278238792,-1.0856573583184481e-06,0.0027108591330471388,6.944788980167704e-06
675.29,1.9395338154628599,0.10047423806475904,-0.028213589983129506,0.012714545570122006,-1.074081890345413e-06,0.002700980818841625,6.896177483339816e-06
675.3,1.935268936380124,0.09978196705295414,-0.028597879104426127,0.012638421173318003,-1.062349743174984e-06,0.002690953775253968,6.84772377007592e-06
675.31,1.9309980305709593,0.09909232808883398,-0.028978729526112357,0.012561753960363242,-1.0504589573745449e-06,0.002680778780730808,6.7994332688114945e-06
675.32,1.9267212302996437,0.09840532734672194,-0.0293561851745483,0.012484561059199824,-1.0384112308359228e-06,0.002670456669781718,6.751307948360541e-06
675.33,1.9224394062791088,0.09772323940833809,-0.029730247863472004,0.012403942216591593,-1.0353539338925355e-06,0.0026608733656197092,6.693664633961038e-06
675.34,1.918150142477307,0.09705360743101321,-0.030102196771936596,0.012307184441301737,-1.0607147788721516e-06,0.002648126976490861,6.521630532496658e-06
675.35,1.9138563863298534,0.0963748314232887,-0.030469891872440646,0.012228611451891056,-1.047896732941922e-06,0.0026373521840090675,6.473852875443775e-06
675.36,1.9096373152894186,0.09372769452680119,-0.03069857632362538,0.0140493327495696,3.668567019499136e-06,0.002330710027832472,8.367947173237855e-06
675.37,1.905330982536272,0.09307380167096155,-0.031063371284625774,0.01395077845083281,3.6099635507547134e-06,0.002320517008796097,8.276109558835731e-06
675.38,1.9009692284683548,0.09388271656475958,-0.031510595316761814,0.012398374946127002,-7.128912287435174e-07,0.0023652572417238726,6.420925571737346e-06
675.39,1.8966304112659236,0.09363493784042809,-0.031904889590246066,0.01196180217070956,-1.0404241338468623e-06,0.002593430021864629,6.2631441871130455e-06
675.4,1.8923851509542877,0.09105067964994183,-0.03213214557306188,0.013726956402978186,3.4306711163556436e-06,0.002291717306194929,8.002163738307644e-06
675.41,1.8880095103305112,0.0918891288045107,-0.032568880872179795,0.012154119602784286,-7.153464146592015e-07,0.002334556805944965,6.251973954818357e-06
675.42,1.8836899098957898,0.09102878671954144,-0.03289187756997647,0.012257110950352422,-2.3110192132191898e-07,0.00237548314024405,6.454544415168684e-06
675.43,1.8793218564546266,0.09099157790862544,-0.033297747642387465,0.011638820915522142,-9.89869270717758e-07,0.0025468624906013204,6.072986453886653e-06
675.44,1.875006304367594,0.08991527793893611,-0.033601675639783,0.011915454589931805,-7.159086289343364e-07,0.002302853471192634,6.085684816137249e-06
675.45,1.870673852322294,0.08906682090124898,-0.03391420861322203,0.01200740775284056,-2.433932825007812e-07,0.00234217951085669,6.28010701164694e-06
675.46,1.8662935679590786,0.08903632169956562,-0.034308970534895344,0.011388984159917766,-9.499404692858704e-07,0.0025103673997444176,5.932733911306887e-06
675.47,1.8619650162219838,0.08796778598876422,-0.034604131205414834,0.011663193710535463,-7.132305016033236e-07,0.002269525237375447,5.921816711773609e-06
675.48,1.857619673338316,0.0871257393066506,-0.03490826306351269,0.011755381659612495,-2.53265142802217e-07,0.002307557482733591,6.108229946011345e-06
675.49,1.8532272259056817,0.08710420492946415,-0.0352939132449166,0.011137392974158252,-9.081471541438901e-07,0.0024726510219863496,5.795836998667703e-06
675.5,1.8488862593382778,0.08604424116589594,-0.035581198805181735,0.011409053221207143,-7.081270235187453e-07,0.0022349723982770797,5.760543024035947e-06
675.51,1.8445178806008435,0.08540715285936201,-0.035903291669834525,0.011329737553196636,-7.062862620588195e-07,0.002223376243762454,5.707513636488137e-06
675.52,1.8401460456750869,0.08477587389102198,-0.0362219935901853,0.011244125289473437,-7.037844176327468e-07,0.0022115041347747777,5.6547181872534935e-06
675.53,1.8357494958167295,0.08453678353289407,-0.03656995891496573,0.01083336683928886,-8.595686957213466e-07,0.002420850185526291,5.611829837715021e-06
675.54,1.83137074196802,0.08391216571254981,-0.0368822896754355,0.010743886775487913,-8.452095825173256e-07,0.0024074290132962695,5.5649507966215594e-06
675.55,1.827060595600428,0.0813034847692512,-0.03707106460203913,0.012531139503432705,2.552289244839301e-06,0.002131217500545457,6.662693419978716e-06
675.56,1.8226374571693813,0.0820070806719556,-0.037435579264701646,0.011133697729564705,-2.9134946083475555e-07,0.002214524821197328,5.6507286109175325e-06
675.57,1.8182478679732892,0.08139131764598345,-0.03774063451671683,0.011042822952452298,-2.906526829216105e-07,0.0022015793690273178,5.597079060670751e-06
675.58,1.8138511417208025,0.0808135712345242,-0.03804990137021491,0.010927930696490359,-2.719088516567325e-07,0.002184440155049483,5.554019435971558e-06
675.59,1.8094230889707663,0.08081325275770654,-0.03840796662236268,0.01032271895920006,-7.726791567685964e-07,0.0023389926788894844,5.3357113186103255e-06
675.6,1.8050588904917835,0.0795425381164273,-0.03864132250281638,0.010791858381945043,-2.8908737451094346e-07,0.002162543732953992,5.437588399104243e-06
675.61,1.8006435197029425,0.07916786863289613,-0.038965041202098094,0.010504805273439534,-6.701440540268777e-07,0.002099605198165877,5.193875525999481e-06
675.62,1.7962496796533705,0.07832695212379057,-0.039230625533481334,0.010623236261888004,-2.87517298191986e-07,0.0021358878451522845,5.332898070697922e-06
675.63,1.7918421702850034,0.0777006552536356,-0.0395185834885603,0.010556478618753733,-3.1416781606785626e-07,0.002122889344272627,5.267966451116823e-06
675.64,1.7873957804234637,0.07774941171174009,-0.03986829671212444,0.009925760599172093,-6.994754102873646e-07,0.002267953625738617,5.120648055190191e-06
675.65,1.7830015465794546,0.0767584890043242,-0.04012313974532766,0.010164254371059344,-6.471424930376557e-07,0.002046457012887526,4.997368368508948e-06
675.66,1.7785836296570459,0.07616264600163039,-0.040406926132316556,0.010079890347856979,-6.405333209391628e-07,0.002032881279440568,4.9490868408441635e-06
675.67,1.7741631833455582,0.07557178024615716,-0.04068780218335588,0.009991162979272635,-6.338772797209735e-07,0.0020190796055439275,4.9010769643254015e-06
675.68,1.7697195137972077,0.0753678902870103,-0.04099671481194078,0.009589388415205076,-6.491697093213844e-07,0.0022086004670756054,4.950056463393082e-06
675.69,1.765360749415826,0.0727882443578895,-0.04116198903245061,0.011353116746389452,1.9036424413754194e-06,0.0019505728533550926,5.556895105729431e-06
675.7,1.760902607485539,0.07349804719892865,-0.04147854810128293,0.009993492483792464,-3.000607542158473e-07,0.002024979489906764,4.913215460200515e-06
675.71,1.7564689043563995,0.07291480366348446,-0.04175583583992171,0.009920084902469876,-3.0205039948383305e-07,0.002010751101377606,4.859961835357307e-06
675.72,1.7520354393997066,0.07235502445402643,-0.042023996614093395,0.009805107016656755,-2.962754178936766e-07,0.001995899612776686,4.807285591768018e-06
675.73,1.7475986944939905,0.07176717997723431,-0.04229282522665434,0.009734333924886892,-2.9211875300638734e-07,0.0019814590767697204,4.7590977846345695e-06
675.74,1.743162116881154,0.07118746310578312,-0.04255409663512788,0.009645746458122965,-2.461376105988844e-07,0.0019658633930219604,4.762958545678764e-06
675.75,1.7387196434678767,0.07062288137138044,-0.04281925438409595,0.009555550369566531,-2.817620729789194e-07,0.0019514120042827265,4.66336363308395e-06
675.76,1.734276280428161,0.0700427296041592,-0.04308104195242701,0.009484466857715802,-2.414466812039606e-07,0.0019360804135888365,4.663585979114426e-06
675.77,1.7298305617174148,0.06947892634418111,-0.04333971691910521,0.009394261048885261,-2.3584142133659114e-07,0.001920767383965627,4.616331285567377e-06
675.78,1.725382826867866,0.0689166815834453,-0.04359562355166946,0.009304292497628762,-2.2983375926044491e-07,0.0019053122665479982,4.569480051952457e-06
675.79,1.7209329662539958,0.06835673861486707,-0.043849177909403236,0.009214502418987098,-2.234357821401245e-07,0.0018897299132696332,4.523022465896531e-06
675.8,1.7164809106234444,0.0677993708506234,-0.044100633766683384,0.009125007619417837,-2.1682743099604718e-07,0.00187402879028431,4.476905643147067e-06
675.81,1.712025821342303,0.06726314166708838,-0.0443508338021108,0.009015353691170567,-2.4781628409076273e-07,0.0018584674521060496,4.382007766201568e-06
675.82,1.7075694838597582,0.06671108615648538,-0.04459820266686876,0.008926126206291737,-2.4042169920190926e-07,0.0018425582400509732,4.336901477414168e-06
675.83,1.7031119712668183,0.06614332673867947,-0.04484275419780048,0.008856986368944681,-1.9588033342565758e-07,0.0018262385934790792,4.3402203207532075e-06
675.84,1.6986515638368571,0.06559666173321185,-0.045086048031793835,0.008767674468674715,-1.884947116170821e-07,0.0018100800937992378,4.295198066606165e-06
675.85,1.6941891645172802,0.0650526633399015,-0.04532732650740057,0.008678396684340702,-1.8090655486135976e-07,0.0017938075870354009,4.250449410714285e-06
675.86,1.6897248171248955,0.06451133553292471,-0.04556659561145615,0.008589132166483304,-1.7312926997581357e-07,0.0017774213563594987,4.205961330855379e-06
675.87,1.6852585604619872,0.0639726774924773,-0.04580386340252396,0.008499877941213142,-1.652119992201495e-07,0.0017609211088904786,4.161740891656107e-06
675.88,1.6807904281785673,0.06343668415359839,-0.04603913993335795,0.008410632735847785,-1.5715322621012717e-07,0.0017443078287815439,4.117778032330932e-06
675.89,1.6763204673463172,0.06290334799324418,-0.046272435378382104,0.008321414504172037,-1.4890820979052144e-07,0.0017275818422113343,4.0740773702696575e-06
675.9,1.6718486694232153,0.06237271194119816,-0.046503817973521766,0.008232306745833577,-1.404741933608289e-07,0.0017107446480641997,4.03064061466063e-06
675.91,1.667375117026945,0.06184474463075239,-0.04673321435301836,0.008143099305207336,-1.3187029929140337e-07,0.0016937939298899973,3.987446718367593e-06
675.92,1.6628998346053647,0.061319401618182834,-0.0469606454841105,0.008053915546141006,-1.2301904905864802e-07,0.0016767310142355996,3.944499199465268e-06
675.93,1.65842284786418,0.060796700842626394,-0.04718613601769439,0.007964764585937003,-1.1400894076030177e-07,0.0016595563064787378,3.9018055960071685e-06
675.94,1.653944186968662,0.06027664246829035,-0.047409699674503036,0.007875648829727766,-1.0494518042081236e-07,0.0016422693750610673,3.859283680518466e-06
675.95,1.6494638726112711,0.05975922690305812,-0.047631351975296665,0.007786565496250666,-9.565459196947401e-08,0.0016248723148697408,3.8173302087107785e-06
675.96,1.6449819598296036,0.059244419598574606,-0.04785109760043871,0.007697545994162367,-8.612014028297477e-08,0.001607365308104125,3.774491378477629e-06
675.97,1.6404984641565603,0.05873225943219292,-0.04806895506229214,0.007608577325597924,-7.635407511807912e-08,0.0015897457344040689,3.73540217771251e-06
675.98,1.6360133800700343,0.0582227470047287,-0.048284942037772005,0.007519615454127222,-6.760083924584048e-08,0.0015720147494686643,3.6927264229769108e-06
675.99,1.6315267993351024,0.05771577605416196,-0.048499037645510334,0.007430781693850486,-5.4785617958907906e-08,0.0015541750925340825,3.6516455714230567e-06
676.0,1.6270386825111272,0.05721152997637742,-0.04871129531320051,0.0073419252062935465,-4.5911004706300496e-08,0.0015362270070400363,3.6106673203251116e-06
676.01,1.6225482158589615,0.056725071990166534,-0.04892224054623906,0.007237233389779421,-6.175242703299055e-08,0.001518952924507655,3.532904163577877e-06
676.02,1.6180571087919868,0.05622625131602927,-0.04913082992031326,0.00714833049454454,-5.111975039107097e-08,0.0015008400910032638,3.4927504790616126e-06
676.03,1.6135646129518146,0.055729835143254594,-0.049337562732771456,0.007059679057484698,-4.036854950317803e-08,0.0014825920945726878,3.452891827182558e-06
676.04,1.6090716285711055,0.055220641844934665,-0.04954200772690753,0.006987373759552444,-4.8208971537011536e-09,0.0014633490771895907,3.449049557624484e-06
676.05,1.6045763631063623,0.05472945977447562,-0.04974516906192683,0.006898939535020446,5.776294692561024e-09,0.001444861151401966,3.4092162305154883e-06
676.06,1.600079738350234,0.05424093466796244,-0.04994652036779379,0.006810414167420352,1.647622210887434e-08,0.0014262621545437781,3.369584646695234e-06
676.07,1.5955808637766185,0.053769682545760346,-0.05014653703954686,0.0067067885801471005,3.8104436828056976e-09,0.0014086175624097308,3.2959347208427747e-06
676.08,1.5910815782324956,0.053286279993699996,-0.050344292217540776,0.006618488017981251,1.5051027923984606e-08,0.0013898281455353434,3.2571680930459923e-06
676.09,1.5865821370724185,0.05278779044826225,-0.05053962151966851,0.006548278907852047,5.189057909749106e-08,0.0013699796920176865,3.2542096752297134e-06
676.1,1.5820803140714268,0.0523095397313708,-0.05073388423311176,0.00646025699724144,6.30792519329404e-08,0.001350961202376988,3.215573259884863e-06
676.11,1.5775772470129965,0.051833883631250355,-0.05092637684098977,0.006372225657027307,7.41363721523669e-08,0.0013318361234424536,3.177083106598033e-06
676.12,1.5730722670102952,0.051374292275066,-0.05111743814452363,0.006270260003359501,6.255350801231963e-08,0.0013127027335684271,3.1087305463750603e-06
676.13,1.5685667416841371,0.050903763481795906,-0.051306435670309236,0.0061824085452775665,7.437494153883506e-08,0.0012933711703833062,3.071156737421976e-06
676.14,1.5640595195013791,0.050439674308918846,-0.05149406917601618,0.006091383998765355,8.520612496121238e-08,0.0012748722198043794,3.030010772120395e-06
676.15,1.5595516386788475,0.04997423947255661,-0.051679670708865366,0.0060039216781658826,9.721721219713153e-08,0.0012553462095585832,2.992867271789379e-06
676.16,1.5550426123005006,0.04951139122039147,-0.05186354180973929,0.005916441580647483,1.090784197549377e-07,0.0012357152530912963,2.9558286833708536e-06
676.17,1.55053377015162,0.049032887410279266,-0.05204497130057617,0.005847076769186368,1.4191677011332615e-07,0.0012149896660813564,2.950170173016131e-06
676.18,1.5460225309409743,0.04857506704094931,-0.05222541233263933,0.005759770441371485,1.533231346745323e-07,0.0011951322330125969,2.912835271012826e-06
676.19,1.5415096173578042,0.04813073977694826,-0.052404308081269946,0.005661061809489535,1.4857756273911615e-07,0.0011754836043427197,2.8512841648287157e-06
676.2,1.5369961810569446,0.047678062532205794,-0.052581432413473905,0.005574053257359414,1.6071269408335365e-07,0.0011554266334061758,2.8149482277917137e-06
676.21,1.5324816840270628,0.04722784936573731,-0.0527568647586234,0.005487140729546181,1.7277179537034115e-07,0.0011352688544001843,2.778740905873267e-06
676.22,1.5279661095049013,0.04678009310127321,-0.05293065012168574,0.005400436727010067,1.8484339600610689e-07,0.0011150112110760446,2.742702148006426e-06
676.23,1.5234495330130031,0.0463349088464424,-0.053102767597285494,0.00531378346063112,1.9699815984042246e-07,0.0010946493054477813,2.706841948668659e-06
676.24,1.5189319442537443,0.045892223041240715,-0.0532732315050084,0.005227253581471358,2.091675163490292e-07,0.0010741850029263311,2.6711312693106226e-06
676.25,1.514413377553986,0.04545208096105194,-0.05344208764368519,0.00514092614903544,2.2107697283946237e-07,0.0010536189835053111,2.6354535515304978e-06
676.26,1.50989380544857,0.04501435029090875,-0.05360929428996064,0.00505472633001527,2.3295647041954304e-07,0.0010329540968614381,2.5999148325350774e-06
676.27,1.505373265165944,0.04457915665048106,-0.053774871552836334,0.004968613025824786,2.4488218296203623e-07,0.0010121867049652788,2.564539472171834e-06
676.28,1.500851772753911,0.044146430320807395,-0.05393882221765378,0.004882646474014672,2.568524344326306e-07,0.0009913181019061135,2.5291858314346882e-06
676.29,1.49632934417733,0.043716175830991105,-0.05410115892301026,0.00479682421946018,2.6864471289189673e-07,0.0009703492162145277,2.492899284084471e-06
676.3,1.4918059881244763,0.043288381772849056,-0.054261902126775396,0.004711148437736436,2.805707792485901e-07,0.0009492812703164599,2.4568891431042683e-06
676.31,1.4872817209366975,0.042863054077855095,-0.054421047756449736,0.0046256267635886835,2.924842181090126e-07,0.000928113511488915,2.4210211269082293e-06
676.32,1.4827565527788393,0.042440187887662496,-0.05457860437660589,0.004540259725697803,3.0441378127965546e-07,0.0009068461714474285,2.3855416743656654e-06
676.33,1.478230505961437,0.042019780655968814,-0.05473456665011289,0.004455046339814729,3.1613658015017254e-07,0.0008854784422620554,2.350997213323991e-06
676.34,1.4737035851193199,0.04160182009674732,-0.054888953384605976,0.004369989769788744,3.278473046930408e-07,0.0008640117935241332,2.316571786703525e-06
676.35,1.469175802213861,0.041186295489105816,-0.055041771840779186,0.004285094076368239,3.395662496324947e-07,0.00084244667526856,2.282271507364486e-06
676.36,1.4646470799675344,0.040773235469424615,-0.05519300825090756,0.004200280623145839,3.50927850653604e-07,0.0008207849640786691,2.245726349298094e-06
676.37,1.4601175024237751,0.040362612269946856,-0.055342674350534526,0.004115615210514264,3.6206236779523504e-07,0.0007990251339859977,2.206213466249274e-06
676.38,1.4555870921552734,0.039954441702495215,-0.0554907837439087,0.004031086168753658,3.732291621039163e-07,0.0007771676371084446,2.1668969620580736e-06
676.39,1.4510559867177621,0.03954859159888898,-0.05563735510020362,0.003946874407626517,3.844431072652643e-07,0.0007552087588056366,2.127839121374153e-06
676.4,1.446524089999148,0.03914514509373922,-0.05578240847013127,0.0038628586678906853,3.981858854307241e-07,0.0007331537870252092,2.0929166587024817e-06
676.41,1.4419913879290798,0.03874391917980379,-0.05592598855077768,0.0037793455206115677,4.1242254460172045e-07,0.0007110111643959804,2.058942606880665e-06
676.42,1.437457900505803,0.0383453316466194,-0.056068045706263225,0.0036956965403367715,4.2639808472966223e-07,0.0006887674360291918,2.0249248867121317e-06
676.43,1.4329236551329212,0.03794913319978783,-0.05620855259149393,0.00361217023269913,4.390742931598135e-07,0.0006664254990058627,1.987132072472919e-06
676.44,1.4283886471978695,0.03755530803667569,-0.05634754157868316,0.003528786204194416,4.477571457633944e-07,0.0006439865386527188,1.9418208221377853e-06
676.45,1.423852881058388,0.0371632896266056,-0.05648505728427433,0.0034462119929099208,4.57636459880173e-07,0.0006214650853317849,1.897855449434216e-06
676.46,1.4193163598602123,0.036774276352227964,-0.05662110539250853,0.0033632248641050065,4.671897688990345e-07,0.0005988408350565688,1.8530834132168827e-06
676.47,1.4147791212543286,0.03638699624003136,-0.05675562135072143,0.0032810580786093485,4.888687107629242e-07,0.0005761439846165839,1.8120860061365818e-06
676.48,1.4102415874754992,0.035999085234009257,-0.056888419481995633,0.0032017433747122564,5.118183279001487e-07,0.0005539509418304167,1.7718484938977763e-06
676.49,1.4057038729022782,0.03561134653825613,-0.057019461667158655,0.003123835696484261,5.298099655243194e-07,0.0005286178725920632,1.7379563019837008e-06
676.5,1.4011615945243807,0.035249249823569265,-0.05715010699267187,0.003025163613469956,6.794099508336537e-07,0.0005089480306950112,1.8833576934940144e-06
676.51,1.3966238031069949,0.03485546684783783,-0.057278798412967014,0.0029582440874665115,4.943175859126181e-07,0.000482705257808691,1.7871711583128391e-06
676.52,1.3920808747258953,0.034495965787218766,-0.057405722948986826,0.0028626974344685054,7.092625073853998e-07,0.00046270900025757733,1.8209095443699752e-06
676.53,1.3875395290056673,0.03412408419246712,-0.05753139484140979,0.002780514815194081,7.242863295300883e-07,0.0004393517856402518,1.7907668092564943e-06
676.54,1.3829978241156498,0.03375416678751916,-0.0576556253404108,0.0026990249941726135,7.39254696680014e-07,0.00041589209966752527,1.7607601508484727e-06
676.55,1.3784557507057669,0.03336504658711366,-0.05777812566804186,0.0026339865747064635,5.209525165000839e-07,0.0003900148585358476,1.7293037679888545e-06
676.56,1.373912941801728,0.03301312062041717,-0.05789941492351858,0.002541917548250224,7.665081920710248e-07,0.00036729066096397034,1.697628605412671e-06
676.57,1.3693689282356827,0.03264988943366848,-0.058019584472586594,0.0024610290430995977,7.811279156277884e-07,0.00034365459393570497,1.66730771336554e-06
676.58,1.3648243920285998,0.03228898294249866,-0.05813817660042786,0.002380157710673141,7.95657092503288e-07,0.00031990949822269243,1.6370712109664565e-06
676.59,1.3602793330235796,0.031930565305656716,-0.0582550392088419,0.002299400433116745,8.101731813411894e-07,0.00029606155793904243,1.6072762587110434e-06
676.6,1.3557333494430746,0.03157436326620164,-0.0583704274108261,0.0022187757212451128,8.235951201515657e-07,0.00027212140858279277,1.5776085632024373e-06
676.61,1.3511868390818205,0.031220209762246973,-0.05848455532614727,0.0021384550716726813,8.306650287615014e-07,0.00024808053947822373,1.5478307589522622e-06
676.62,1.3466401664538354,0.03086909776116562,-0.05859749381895596,0.002058492576551632,8.513070650639776e-07,0.00022393912642071356,1.5180469749714876e-06
676.63,1.342092434894501,0.030519871284865024,-0.058709014531790116,0.0019784113502602273,8.833018510095991e-07,0.00019975005604910834,1.4883215594257981e-06
676.64,1.33754401834062,0.030172512551782556,-0.0588190908239985,0.0018988436279583451,9.088304575577411e-07,0.00017546872168194838,1.459152772873007e-06
676.65,1.3329949805665635,0.029827331853925703,-0.058927747865917146,0.0018195474665086183,9.307846765213568e-07,0.00015109364628451694,1.4305101311146151e-06
676.66,1.3284453710997883,0.029484425885629315,-0.059034984499857224,0.0017403874861250223,9.476422932822026e-07,0.00012662318090828073,1.4018096060885998e-06
676.67,1.3238953879230362,0.029147547766367052,-0.05914109480470087,0.0016590641451810562,1.007963905376441e-06,0.00010204195849405906,1.4160710794242082e-06
676.68,1.3193446554948955,0.02881720929774133,-0.05924586395071629,0.0015742017487482163,1.1253363967622665e-06,7.734597312802904e-05,1.4822974294392832e-06
676.69,1.3147933272631187,0.028492216665076387,-0.05934940499933017,0.0014872004293799246,1.2847252708128587e-06,5.253136359462118e-05,1.5890491509990001e-06
676.7,1.3102414242436264,0.028172591686505048,-0.05945171917068248,0.0013981493457538713,1.4904240802013358e-06,2.759135759111686e-05,1.739442924031387e-06
676.71,1.3056890182560532,0.027858079242386632,-0.05955296731552284,0.0013071033060969195,1.7468586783059292e-06,2.5637059579697308e-06,1.93800454652282e-06
676.72,1.3011361700860689,0.027548417604542578,-0.05965251322312115,0.0012140166861569848,1.5434056381269379e-06,-1.4965921420584394e-05,2.3275974022768375e-06
676.73,1.2965829402931615,0.027244055849183938,-0.05974981283575631,0.001118932978438987,1.9541729493338655e-06,-1.4578196009251698e-05,2.661214900528952e-06
676.74,1.2920291923697504,0.026944791071237886,-0.05984582197215271,0.0010217540871849096,2.409116193639871e-06,-1.4412116213780024e-05,3.0995478418477385e-06
676.75,1.2874749439410043,0.026650208719359372,-0.05994048102594163,0.0009229491768358119,2.8910139906190846e-06,-1.4679451934229704e-05,3.834534350183327e-06
676.76,1.2829203084435348,0.026361042162490793,-0.06003364684036949,0.0008215764698207866,3.3816418192680886e-06,-1.5831193058701842e-05,4.526278859023902e-06
676.77,1.2783652736131073,0.026075842545063448,-0.060125311115706515,0.00071864149955892,3.889687391997465e-06,-1.771905274239316e-05,4.760038198270422e-06
676.78,1.273809751016593,0.02579410885660243,-0.06021603321582791,0.000613892910773351,6.2360722708279526e-06,-1.9304509814244142e-05,4.037377694429689e-06
676.79,1.2692542945048888,0.02551934054387305,-0.06030340752964891,0.0005076531759599177,3.1391995430549158e-06,-1.9313611445914702e-05,4.082441088473776e-06
676.8,1.2646973743389511,0.025243788672069712,-0.06039466174679031,0.000396080642357795,4.949268837609044e-06,-1.8665375628446057e-05,3.805979454360453e-06
676.81,1.2601355175420288,0.024983745197048428,-0.06046999339591386,0.0002995141442602773,4.7015968604458e-06,-1.802977962728214e-05,3.540403696350447e-06
676.82,1.2555334084625736,0.024677694815377682,-0.06054872352991869,3.5895428722740334e-05,4.463817061706177e-06,-1.7412487059553783e-05,3.2843450621378167e-06
676.83,1.2509611256419162,0.024306403130139046,-0.06062686934611117,-5.3172214715502605e-05,4.2469146816215275e-06,-1.6828665798218623e-05,3.0483192806074477e-06
676.84,1.2464046261023154,0.023937233943546157,-0.06070301954494295,-5.2520422771707594e-05,4.04515231908209e-06,-1.6270919602545675e-05,2.827329393856326e-06
676.85,1.2418485544865128,0.02357762339468678,-0.06077675118075576,-5.156386804284025e-05,3.857719465386045e-06,-1.5747971705781794e-05,2.620710194578546e-06
676.86,1.237291534033673,0.023224383241675913,-0.06085190484390268,-5.1056602087210215e-05,3.705834848086176e-06,-1.5257384554656639e-05,2.4445590261212846e-06
676.87,1.232733448251407,0.022839854052438095,-0.06092585117488203,-5.044861295685793e-05,3.50581660372995e-06,-1.4703789117387345e-05,2.225458320126439e-06
676.88,1.2281843447898917,0.022559926342326925,-0.06100136264159173,-5.03547539807825e-05,3.570044461290167e-06,-1.4519412818270183e-05,2.2509076956778173e-06
676.89,1.223625766907616,0.022230521491492,-0.061074118766963004,-4.968594575151765e-05,3.4051693621681145e-06,-1.4005743909306645e-05,2.0651177978642243e-06
676.9,1.2190658382273134,0.02190183755154511,-0.061142544144774824,-4.9037001991593276e-05,3.246175057661227e-06,-1.3507535487677913e-05,1.885507891652427e-06
676.91,1.2145048624233403,0.021577030853882462,-0.06121074969048079,-4.850567923331656e-05,3.1079842676071112e-06,-1.3046623693613313e-05,1.7260840158433988e-06
676.92,1.209943042003614,0.021255342009401164,-0.061277663628437784,-4.803467179987054e-05,2.978869759168168e-06,-1.2602087331892164e-05,1.5748774900986584e-06
676.93,1.2053809007519907,0.020939180181197486,-0.06134592170278963,-4.760006318881049e-05,2.858092922865263e-06,-1.2172874807703238e-05,1.4315924713043104e-06
676.94,1.200818470038785,0.020617504789745045,-0.061413439644659285,-4.715277891251162e-05,2.733420295927824e-06,-1.1739004256883234e-05,1.2852832018683813e-06
676.95,1.196259609544465,0.02031097731381329,-0.06148078091452924,-4.696407392502548e-05,2.6678425182335985e-06,-1.1408202601037587e-05,1.1938128154920236e-06
676.96,1.191700360718826,0.020022120078732924,-0.06154768589543225,-4.655647098711553e-05,2.6013243080436066e-06,-1.1081214078556556e-05,1.1021082451795339e-06
676.97,1.187137127920337,0.01971849409207358,-0.06161060964054954,-4.581158364295454e-05,2.472072031411976e-06,-1.065323668836271e-05,9.494369061224806e-07
676.98,1.1825727420800445,0.01942938493305307,-0.06166956269760493,-4.5413254193287e-05,2.3507096266195404e-06,-1.0234121906149696e-05,8.060251985159139e-07
676.99,1.1780075317781302,0.01913769332629686,-0.061729263348277996,-4.504818338088215e-05,2.2474197063013235e-06,-9.846794639223333e-06,6.799774949772797e-07
677.0,1.173441476217672,0.018847586718404544,-0.06178905127165901,-4.469745173692356e-05,2.145546456423786e-06,-9.460470266287047e-06,5.549952024341831e-07
677.01,1.1688749003481556,0.018559185058246337,-0.061847304169525774,-4.436201744618254e-05,2.0460663705673676e-06,-9.079034239967143e-06,4.3199533172888493e-07
677.02,1.164308085149423,0.018273826891881756,-0.061905625642107776,-4.404008863037682e-05,1.948773507925994e-06,-8.703973903623208e-06,3.1174924007559834e-07
677.03,1.1597410812819975,0.017990509229848045,-0.061963685338068286,-4.3727508381305345e-05,1.8521171647398194e-06,-8.332890067741516e-06,1.9279317216291947e-07
677.04,1.1551737793974135,0.017701143398486514,-0.06201900601313759,-4.341103635614239e-05,1.7459639940209382e-06,-7.949660377315482e-06,6.511760611283002e-08
677.05,1.1506084433502792,0.017424319679812394,-0.06207578804262104,-4.3143917190577546e-05,1.6837363771213254e-06,-7.638003657328696e-06,-2.0340086337444774e-08
677.06,1.1460442575026213,0.017154163201243643,-0.0621327726534997,-4.279463427308759e-05,1.6267235746145192e-06,-7.336929713108731e-06,-9.994036707927645e-08
677.07,1.141476351671302,0.016886111282438186,-0.062183601437873826,-4.227183314511233e-05,1.5116366754858168e-06,-6.946537350893678e-06,-2.3301421661625632e-07
677.08,1.1369077258868283,0.016620752313108212,-0.06223257166319862,-4.187092127767477e-05,1.4224032318793656e-06,-6.598771172816598e-06,-3.42086096435934e-07
677.09,1.132338231439535,0.016357111198566802,-0.06228165318142387,-4.151911551561053e-05,1.340349508570371e-06,-6.264146574119778e-06,-4.4432061929722266e-07
677.1,1.1277680889417767,0.01609527912887172,-0.06233035477374149,-4.119453414114513e-05,1.2598245593270496e-06,-5.933861735751833e-06,-5.448282012487926e-07
677.11,1.1231974641827835,0.015835141682732354,-0.06237834514502527,-4.091777070603993e-05,1.1801939989314336e-06,-5.60716781161652e-06,-6.44124316703798e-07
677.12,1.1186263860045265,0.015576367700198138,-0.062425568172043366,-4.069383928353909e-05,1.1018131561915667e-06,-5.285034994972904e-06,-7.417683418192711e-07
677.13,1.1140549393147954,0.015319361302936351,-0.06247167943321208,-4.045721396462123e-05,1.0246624804026438e-06,-4.966993033761469e-06,-8.379577658770843e-07
677.14,1.109483523695956,0.015041064546885734,-0.06251924586199631,-4.015691306311096e-05,9.56012412380025e-07,-4.666163954114566e-06,-9.260526526028157e-07
677.15,1.1049111352603382,0.014811344048797085,-0.0625606590804415,-3.986336389126241e-05,8.63346724375158e-07,-4.324961199397848e-06,-1.0362378848188802e-06
677.16,1.100339036470405,0.014560001603717737,-0.06260359788437442,-3.960375291661421e-05,7.957581670339775e-07,-4.027731154154779e-06,-1.1226101606920391e-06
677.17,1.0957663996717764,0.014307986639335446,-0.06264553070414869,-3.9337900624550184e-05,7.19611562730732e-07,-3.719741057395254e-06,-1.216562084148387e-06
677.18,1.0911933924507589,0.014057572423031751,-0.06268617292679313,-3.903512983487546e-05,6.431658032685084e-07,-3.4141018128153178e-06,-1.3104245856210284e-06
677.19,1.0866224932797037,0.013810273936217176,-0.0627294575066284,-3.870377236539647e-05,5.925902390666038e-07,-3.1490708587433858e-06,-1.3800426693216794e-06
677.2,1.0820514818929043,0.013566016138792153,-0.06277032707110441,-3.8229242486467865e-05,5.210555955870166e-07,-2.8534389202583554e-06,-1.468808062107807e-06
677.21,1.0774785940148528,0.013338072832867797,-0.06280413326324075,-3.778762597069525e-05,4.4948163592170576e-07,-2.5599388511210464e-06,-1.5570883870816288e-06
677.22,1.0729043009110506,0.013101541078591235,-0.06283955855222834,-3.752587721148438e-05,3.890315017976431e-07,-2.2862890725061646e-06,-1.6347469365615708e-06
677.23,1.06832925923848,0.012867285494463043,-0.06287496274596838,-3.726955518587316e-05,3.254372119045057e-07,-2.0088672159079835e-06,-1.7149672876665134e-06
677.24,1.0637532342129277,0.012639616865755335,-0.06290872415324134,-3.7211780158925174e-05,2.6543618719676587e-07,-1.739932114830367e-06,-1.791214022488219e-06
677.25,1.059177350272299,0.012408354970199414,-0.06294244506849167,-3.704327946349848e-05,2.0548500934830516e-07,-1.472765345233995e-06,-1.8672069604930286e-06
677.26,1.0546011861374476,0.012179221388546919,-0.06297510427624387,-3.6846892761099353e-05,1.4321776221210003e-07,-1.2038991614726768e-06,-1.945041794237934e-06
677.27,1.0500247375422607,0.011951608597414315,-0.06300634628113766,-3.6640558172204164e-05,8.238774817231898e-08,-9.38751623991152e-07,-2.0214526286754797e-06
677.28,1.0454479762534363,0.011725560978547822,-0.06303660245598852,-3.6427991964467106e-05,2.2468345552140168e-08,-6.769680547247248e-07,-2.0966954029574825e-06
677.29,1.0408711264418584,0.011501864128143207,-0.06306643629324071,-3.621673984844179e-05,-3.716449356594431e-08,-4.1991567245602823e-07,-2.17133276714937e-06
677.3,1.0362940561342178,0.011280056287804536,-0.06309503574534348,-3.60153207914591e-05,-9.286778090630832e-08,-1.7144951924841223e-07,-2.2419823772074077e-06
677.31,1.0317166825992334,0.011059078222133574,-0.06312174126580183,-3.58431978006761e-05,-1.455942717568104e-07,7.036233484747356e-08,-2.3095260543795626e-06
677.32,1.0271388102803705,0.010839527760840234,-0.06314783642466648,-3.5692969065347434e-05,-1.9524542718696303e-07,3.05654082266571e-07,-2.373894986806846e-06
677.33,1.0225621762646802,0.010617573278774696,-0.06317613638178399,-3.546387157453947e-05,-2.404867167210556e-07,5.332316137529602e-07,-2.433891770937946e-06
677.34,1.0179858663644883,0.010397480632273087,-0.0632026533122636,-3.514683642782394e-05,-2.97998200893268e-07,7.773568482249971e-07,-2.5049455023157252e-06
677.35,1.0134078342109043,0.010188168531918819,-0.06322379585117599,-3.4856847292298077e-05,-3.566908469282426e-07,1.0203310731871085e-06,-2.576489363692591e-06
677.36,1.0088290530193442,0.009978885763927837,-0.0632445122929125,-3.464140885447297e-05,-3.9783092231973627e-07,1.2346546196528863e-06,-2.63089080326101e-06
677.37,1.00424956745761,0.00977094897842299,-0.06326524779278309,-3.444543605475729e-05,-4.372425004284253e-07,1.4442799174396725e-06,-2.6831342476232867e-06
677.38,0.99966964693538,0.009564723550452256,-0.06328534151765408,-3.425952218730839e-05,-4.764084461580942e-07,1.651790033752043e-06,-2.734761699707544e-06
677.39,0.9950893749406008,0.009359979587112023,-0.0633046066714168,-3.408138881947232e-05,-5.150098935577385e-07,1.8566012744969385e-06,-2.7854650739705944e-06
677.4,0.9905087966636862,0.009156634994994762,-0.06332301208273838,-3.3896558462743066e-05,-5.5310116912205e-07,2.05878201853249e-06,-2.835346163382324e-06
677.41,0.985927925805994,0.008954874970435796,-0.06334046247842606,-3.370417545087176e-05,-5.905198690175917e-07,2.2580820149276093e-06,-2.8842946158957883e-06
677.42,0.9813467242570924,0.008754532805597967,-0.06335689919143117,-3.350811570447859e-05,-6.271192038755091e-07,2.454362994286363e-06,-2.932214964578017e-06
677.43,0.9769392806130381,0.008582690055243349,-0.0632614304122745,-4.9924989616303284e-05,4.1494507950490256e-07,1.7584317058005894e-06,-2.1181224863220383e-06
677.44,0.9722148436077882,0.008374948159232606,-0.06338040108916443,-4.9043214995415715e-05,-2.6508352487381037e-07,2.602645639671053e-06,-2.755349651266392e-06
677.45,0.9676076832247503,0.008175807753547138,-0.06340218048947888,-4.879508689671828e-05,-2.5275663795287784e-07,2.6837749923513954e-06,-2.7758269037711503e-06
677.46,0.9630300841984915,0.008042464806096323,-0.06339734104424088,-4.674245255870012e-05,-2.7194709053407484e-07,2.835371197940084e-06,-2.8030238300100208e-06
677.47,0.958396875870431,0.007815473230997991,-0.06344707163257446,-4.726854710676662e-05,-2.562137786897567e-07,2.9038062677733123e-06,-2.7971234432058734e-06
677.48,0.9538676808497609,0.0076132801638684544,-0.06342985893734887,-4.5603468450345284e-05,-3.616331249178817e-07,3.1783602937318634e-06,-2.880008252617583e-06
677.49,0.9492828795470593,0.007398717986520424,-0.06344042497710134,-4.542164527337715e-05,-3.9394606712525593e-07,3.336050042657135e-06,-2.941337813151812e-06
677.5,0.9446120574836052,0.007250384138514896,-0.0634920996025703,-4.7970996491888534e-05,-2.595442801026082e-07,3.171832050785639e-06,-2.8460269683103223e-06
677.51,0.9400691966008464,0.007048295636821158,-0.06348320443685174,-4.606965763803811e-05,-4.360560311479633e-07,3.589385001223633e-06,-2.9956331794936397e-06
677.52,0.9355430545415525,0.006866075094608209,-0.06344973377806973,-4.34075193771564e-05,-4.864427286532802e-07,3.773918884730776e-06,-3.049521496281682e-06
677.53,0.930948527397753,0.006681603212554016,-0.06347231377107698,-4.228068697620918e-05,-5.078143726043594e-07,3.988235385832262e-06,-3.0622034164554113e-06
677.54,0.9263697461141431,0.00647785603146414,-0.06347118912283634,-4.2534729762746674e-05,-5.323054626422963e-07,4.0414194723004115e-06,-3.1057196609104998e-06
677.55,0.921694490082207,0.00633305626696233,-0.06352156848664892,-4.5263208875693106e-05,-3.5598999120409203e-07,3.8017723474892406e-06,-2.968533163290321e-06
677.56,0.9171470116309524,0.0061498883716543315,-0.06350682585449052,-4.345957215988008e-05,-5.16394271728865e-07,4.187464798244278e-06,-3.1033230033263026e-06
677.57,0.9126141665314879,0.005985642233118771,-0.06347235014300012,-4.202688342294179e-05,-5.421039333264321e-07,4.337007548427252e-06,-3.1332741176996748e-06
677.58,0.9079363424990903,0.005802441885169696,-0.06353206625116181,-4.476335746004334e-05,-3.851093885627599e-07,4.122486465307773e-06,-3.012318226271876e-06
677.59,0.9033884241464243,0.005630284498821726,-0.0635134867160394,-4.282364137252093e-05,-5.597221162945143e-07,4.529005074194181e-06,-3.160474179270817e-06
677.6,0.8988553009039124,0.005471210081876924,-0.06347533577778586,-4.143544423558046e-05,-5.821715576385944e-07,4.668363207671611e-06,-3.186522089655003e-06
677.61,0.894176785774352,0.005292035930820059,-0.06353281894364071,-4.41974406765986e-05,-4.2757568659637646e-07,4.452140183519582e-06,-3.0657416891823053e-06
677.62,0.8896287114673384,0.005123425778677237,-0.06351204587894599,-4.221642765073269e-05,-5.982771067378212e-07,4.85475958567072e-06,-3.2108362355634523e-06
677.63,0.8850960310650002,0.004968234855000307,-0.06346976576562957,-4.091447441413328e-05,-6.16170298197577e-07,4.982633798222835e-06,-3.2316950318092563e-06
677.64,0.8804169567915285,0.004783785974299057,-0.06352816089616342,-4.357780321910837e-05,-4.871884264623372e-07,4.7990257595609265e-06,-3.1326964598961393e-06
677.65,0.8758689870100235,0.004625614931702756,-0.06350183983223323,-4.1631824827237756e-05,-6.449692169299692e-07,5.182826410821129e-06,-3.2663205959508612e-06
677.66,0.8713409151316993,0.00446174700999303,-0.06345752778320357,-3.94721574018347e-05,-6.937643847043651e-07,5.348543482663892e-06,-3.3147373046486794e-06
677.67,0.8667412804719639,0.004302422139422842,-0.06346628062870308,-3.8460406450915426e-05,-6.839105344512431e-07,5.506248679232328e-06,-3.2993863286513714e-06
677.68,0.8621580074940954,0.004155849057815328,-0.0634442375802774,-3.906073400681755e-05,-6.817046716602049e-07,5.494631848845799e-06,-3.309966598405434e-06
677.69,0.8574769431654082,0.003989475471534632,-0.06349560136789123,-4.187100627121979e-05,-5.249004479124242e-07,5.253211283196002e-06,-3.1815016574843202e-06
677.7,0.8529289993024982,0.0038278847811550514,-0.06346868562249908,-3.9879101818791675e-05,-6.853053524605995e-07,5.64112339984657e-06,-3.318504907156433e-06
677.71,0.8483934086367622,0.0036919412720904233,-0.06341609213749566,-3.882969930072141e-05,-6.92682659241689e-07,5.745899548048605e-06,-3.3275759065108657e-06
677.72,0.8437221632115794,0.0035224433842753053,-0.06345804118283627,-3.823266995017045e-05,-7.178612228368741e-07,5.745549005231609e-06,-3.35823901763746e-06
677.73,0.8391612320166865,0.003376676991456508,-0.06343625963822208,-3.949658495066313e-05,-6.92649914178084e-07,5.8806226107543935e-06,-3.3312199586819913e-06
677.74,0.8346305972368003,0.0032378401083536564,-0.06338095285961287,-3.7659809644568315e-05,-7.198784134181124e-07,6.0088101010435935e-06,-3.357676073192928e-06
677.75,0.8299405490968308,0.0030818306326482513,-0.06342945853779147,-4.055495924230782e-05,-5.595869601183329e-07,5.7409596914137495e-06,-3.2213866141272973e-06
677.76,0.8253890546881755,0.002936836361076327,-0.06339637569448575,-3.85585557228322e-05,-6.869315535597276e-07,6.086033007668412e-06,-3.3293362367153856e-06
677.77,0.8208539501364436,0.0027902167125378077,-0.06334495660271999,-3.677687591131175e-05,-7.115257331900826e-07,6.20676889373506e-06,-3.3526394568536566e-06
677.78,0.8161660860238947,0.0026521825490282026,-0.06338667023465716,-3.961754440436103e-05,-5.674469136743993e-07,5.955385966482929e-06,-3.2289503888935367e-06
677.79,0.8116147376273929,0.0025098352236969323,-0.06335042692666226,-3.770024415275583e-05,-6.827946371652099e-07,6.288690068467773e-06,-3.326791623670805e-06
677.8,0.8070836757117696,0.0023794197457721834,-0.06329076505078368,-3.608824506313492e-05,-7.094587801612096e-07,6.406250401269631e-06,-3.3510102485749538e-06
677.81,0.8023910700829455,0.0022312220633935132,-0.06333513019438164,-3.905942908198484e-05,-5.608149141883567e-07,6.125079511587472e-06,-3.2185067318814264e-06
677.82,0.7978959911615935,0.0020857634078180454,-0.0632687236137216,-3.523645805289481e-05,-6.806479687718192e-07,6.568982347521235e-06,-3.3181077974779594e-06
677.83,0.7932991039708779,0.0019543055535371804,-0.06324378526804408,-3.543183057807664e-05,-7.026035374526479e-07,6.588300728860297e-06,-3.3427678224201562e-06
677.84,0.7886294996751615,0.0018241738981633372,-0.06326513144887691,-3.792321006660916e-05,-6.864720197025803e-07,6.417001016556512e-06,-3.320781892929975e-06
677.85,0.7840714140949798,0.0016897451431846517,-0.06322964680479126,-3.607100527917398e-05,-7.028630233871236e-07,6.7057579418161595e-06,-3.3397856764108558e-06
677.86,0.779523266153519,0.0015588203319034273,-0.06317748145325186,-3.472049934573935e-05,-6.874579280384541e-07,6.749151278739873e-06,-3.3245418404014015e-06
677.87,0.7748436332092511,0.0014268017099450972,-0.06320287492425214,-3.469573169974162e-05,-6.903103001547339e-07,6.616734267606006e-06,-3.3192096707893026e-06
677.88,0.7702416360727133,0.0012995272896149197,-0.06318637759234313,-3.7900530380426345e-05,-5.459655246335682e-07,6.514009790237196e-06,-3.192668350707195e-06
677.89,0.7657404482221678,0.0011685067472353582,-0.06311607162579624,-3.419879885505757e-05,-5.936675712241157e-07,6.898898772034201e-06,-3.232210918219236e-06
677.9,0.76114768193172,0.0010424908262197873,-0.06308254214248632,-3.43211867603645e-05,-6.664586334019507e-07,6.939978974607186e-06,-3.2956442207396353e-06
677.91,0.7564826339364038,0.0009263590672744417,-0.0630948302778811,-3.651169851164282e-05,-6.897824455110585e-07,6.797459275675877e-06,-3.3044159978810883e-06
677.92,0.7518632226110642,0.0008190240743026648,-0.0630871707998053,-3.7445453680304294e-05,-5.430719774088266e-07,6.713716398820679e-06,-3.176093940016056e-06
677.93,0.7473697508329623,0.0007114525714120848,-0.06300984747005423,-3.3496972159956315e-05,-5.836917993367469e-07,7.091542132520168e-06,-3.21135216922383e-06
677.94,0.7427634091855455,0.0006171159262495774,-0.06298185519984734,-3.370324060395313e-05,-6.631121976467119e-07,7.1464409706623044e-06,-3.279206726904821e-06
677.95,0.7381550713175508,0.0005314072331594539,-0.06296419299263112,-3.3683081537083166e-05,-6.81763003622729e-07,7.220446163858085e-06,-3.2922595324478415e-06
677.96,0.7335254325890702,0.00043940609605003033,-0.06295647278010708,-3.433686008066359e-05,-6.05743606290135e-07,7.150203478412109e-06,-3.2185341449185445e-06
677.97,0.7289824576244841,0.0003788939969214062,-0.06288804423115502,-3.28266650355705e-05,-6.635651810475013e-07,7.297555711383019e-06,-3.266894508939175e-06
677.98,0.7243656903850132,0.0002854594445985792,-0.06287571400239222,-3.286628029285739e-05,-6.676781354169464e-07,7.3418931655355735e-06,-3.265728675767854e-06
677.99,0.7197346762781798,0.0002169567163754838,-0.06286587753052564,-3.349781086508529e-05,-5.99211584821277e-07,7.279746704669243e-06,-3.1981478449145256e-06
678.0,0.7151913316927796,0.00016729441575671604,-0.06279485269779861,-3.209686976684602e-05,-6.485579394539809e-07,7.411279748459343e-06,-3.2380206998940814e-06
678.01,0.7105471383269596,0.00011106480343826197,-0.06278863011189595,-3.131013692181048e-05,-7.379411208676551e-07,7.413184808346962e-06,-3.3015821319995475e-06
678.02,0.7059889092430127,6.815634127798663e-05,-0.06274392561143327,-3.121864386073286e-05,-6.396736957469534e-07,6.982532861021795e-06,-2.9983323245694887e-06
678.03,0.7013880861656587,4.138162606016339e-06,-0.0627033001400722,-3.5106324347450935e-05,4.593359273215997e-06,-1.243886037283204e-06,6.943895120448823e-07
678.04,0.6967857690302285,3.277156481875149e-06,-0.06267309600096271,-3.468449092306702e-05,4.235004051160451e-06,-2.1060489530100313e-07,2.7485119822277804e-07
678.05,0.6921426065249887,2.3397704811377792e-06,-0.0626649580264157,-3.498453060450106e-05,3.877883299420806e-06,8.297191983475116e-07,-1.3278539673713952e-07
678.06,0.6875992676241511,2.5924359988883515e-07,-0.06259747359087953,-3.298351891303471e-05,3.090110746431854e-06,2.745778502788454e-06,-8.511995176416209e-07
678.07,0.682994056981614,9.461861443503346e-07,-0.06255440355342334,-3.3501550298208196e-05,3.277273156687688e-06,2.5602005722102916e-06,-8.317599073312532e-07
678.08,0.6782943217146901,1.4195561319538982e-06,-0.06257584346328993,-3.6545777956671735e-05,3.488096110677852e-06,2.2986837544536343e-06,-7.383664966473941e-07
678.09,0.673782260591943,-3.4614751176313945e-07,-0.06248670789691568,-3.330339932109464e-05,2.734961200543534e-06,4.10436232434197e-06,-1.4499134034715033e-06
678.1,0.6692059760679859,-9.722119997681062e-07,-0.06242975515121607,-3.201355841096265e-05,2.4760899695348143e-06,4.862412774087055e-06,-1.7438949643216323e-06
678.11,0.664591688617535,-1.59897559130145e-06,-0.06240323198667619,-3.1698915785489434e-05,2.2117510869472043e-06,5.605998114499577e-06,-2.04319321289205e-06
678.12,0.6598937282468978,-9.59647090694337e-07,-0.06241632757623228,-3.482170089217284e-05,2.4750364155364316e-06,5.174227808435461e-06,-1.8879981655318956e-06
678.13,0.6554063402860555,-2.582260736003951e-06,-0.06230714490221101,-3.136780362847501e-05,1.7846404683713804e-06,6.804954786887585e-06,-2.5224729519350217e-06
678.14,0.6507846103204092,-4.0502828319993e-06,-0.06228262376151239,-3.0249179089565366e-05,1.2055501591749437e-06,8.208825279965026e-06,-3.0739731904259535e-06
678.15,0.6461957948447644,-3.8004878177054307e-06,-0.06222737546425672,-3.0355349134719833e-05,1.2784290944088325e-06,8.231438450412298e-06,-3.083191874535436e-06
678.16,0.641595179836952,-5.7067586080488585e-06,-0.062193117617937554,-2.884847604382606e-05,5.82656603091182e-07,9.916042428392835e-06,-3.6828505404233255e-06
678.17,0.6369845022250673,-5.574096515694218e-06,-0.06215008564828739,-2.9360369072530038e-05,5.462797224532398e-07,1.0043151860261723e-05,-3.800606764942961e-06
678.18,0.6324002218738722,-5.247494287032575e-06,-0.06208838847934839,-2.937924771487736e-05,6.510021193376417e-07,9.963854441963349e-06,-3.77014306048723e-06
678.19,0.6277920609742593,-7.136393052173288e-06,-0.06205791239158798,-2.792168353191302e-05,-3.601532243182465e-08,1.1631243415521908e-05,-4.358932360176357e-06
678.2,0.6231732853552696,-6.943630052114354e-06,-0.062017396398501234,-2.8442385100206267e-05,-5.508342328010979e-08,1.1698603955556663e-05,-4.4557979851367335e-06
678.21,0.6185897455193908,-6.601135024655478e-06,-0.06195373997593567,-2.8474801449270375e-05,5.6408583046750616e-08,1.157597831447088e-05,-4.412031932343567e-06
678.22,0.6139696279116731,-6.984050710101096e-06,-0.061920598317332876,-2.8373261423702748e-05,-1.2056733607757747e-07,1.2044017290047115e-05,-4.6002423500762085e-06
678.23,0.6093934844567214,-8.882837397042503e-06,-0.06186392818004871,-2.6636092030690398e-05,-8.071998626266869e-07,1.3701513452368808e-05,-5.183849282931925e-06
678.24,0.6047794084686214,-8.64849404550219e-06,-0.06181721005377783,-2.7161587023174488e-05,-8.046847940704899e-07,1.3699503223385534e-05,-5.2521080701941475e-06
678.25,0.6001829430002739,-8.272411602640526e-06,-0.061759907016573856,-2.7188191152741173e-05,-6.894547680191473e-07,1.3555155789934936e-05,-5.20320305999987e-06
678.26,0.5954774112809905,-7.026818712282597e-06,-0.06176725350511725,-3.1029846541995666e-05,-1.8742170744892594e-07,1.2460379692491586e-05,-4.79734663950699e-06
678.27,0.5909903023108565,-8.893715838045718e-06,-0.061651474701326814,-2.6720370753701694e-05,-9.88396673189465e-07,1.43137072363686e-05,-5.511697686580962e-06
678.28,0.5863627142520268,-1.017369651338426e-05,-0.06162165325684832,-2.554728573485066e-05,-1.49672980986372e-06,1.5508711357803406e-05,-5.972269734449975e-06
678.29,0.5817752834551243,-9.752259842445999e-06,-0.06155456672555171,-2.5593480149819715e-05,-1.3677150623005521e-06,1.5304178896502485e-05,-5.903983402015013e-06
678.3,0.5771463527412368,-1.008062216266416e-05,-0.06152082549008697,-2.550429428812672e-05,-1.5268585231448945e-06,1.5701187024985686e-05,-6.066346847725772e-06
678.31,0.5725529150053684,-1.1290875448954346e-05,-0.06146500619900763,-2.4313990992515996e-05,-2.0148076448926397e-06,1.6833749384659313e-05,-6.505382653354715e-06
678.32,0.567991270019747,-1.0562847741113051e-05,-0.06137509740940639,-2.406494804270365e-05,-1.8217609801486276e-06,1.6440564019060133e-05,-6.3792038035607665e-06
678.33,0.5632540398838431,-9.485513021272648e-06,-0.06140105386233574,-2.8265857049092124e-05,-1.3401623518791844e-06,1.53549042387624e-05,-5.976397367874267e-06
678.34,0.5587341837861176,-1.1432981045580278e-05,-0.0613033167012349,-2.42096274630271e-05,-2.15976106992654e-06,1.7269220708882038e-05,-6.700048312984798e-06
678.35,0.5541425939204666,-1.259628136075851e-05,-0.06124404187036814,-2.2874841084475716e-05,-2.6257703562475657e-06,1.8340114017578735e-05,-7.111913488888448e-06
678.36,0.5495463979474534,-1.210434053325864e-05,-0.06117784737034615,-2.3066751504161186e-05,-2.478183344268789e-06,1.8050425172111417e-05,-7.017350788745061e-06
678.37,0.5448486078083324,-1.0598649901159126e-05,-0.06117066831501561,-2.7014527563324653e-05,-1.9257793342332755e-06,1.6662785556231796e-05,-6.557505496618439e-06
678.38,0.5403601148327688,-1.2539223933945798e-05,-0.06105013137799764,-2.2148494299866628e-05,-2.7571389735231606e-06,1.8710948897715518e-05,-7.303038262476691e-06
678.39,0.535680575617313,-1.1491815666659519e-05,-0.061033691355719455,-2.5247231989256555e-05,-2.341490503306263e-06,1.769564631359799e-05,-6.9479970819536635e-06
678.4,0.5310177887627345,-1.1964396424565503e-05,-0.061014544712806984,-2.553866332562396e-05,-2.541622053570114e-06,1.818715190371467e-05,-7.143623760791969e-06
678.41,0.5264947976438253,-1.2182198192163022e-05,-0.06089955466231001,-2.159524708577008e-05,-2.684690461285128e-06,1.8531906727070613e-05,-7.285555127782822e-06
678.42,0.521820146081445,-1.2476612838900399e-05,-0.0608877169626566,-2.4213387060062068e-05,-2.8136570191950733e-06,1.8804476036526907e-05,-7.400334494139706e-06
678.43,0.5172970074022979,-1.4975558214711452e-05,-0.06078784065778542,-1.9673770899284146e-05,-3.7912762582636116e-06,2.1087730892266343e-05,-8.233741475164105e-06
678.44,0.512718152473517,-1.4373783359720498e-05,-0.060703945699157824,-1.9899938994504622e-05,-3.6098844150502137e-06,2.066546197565522e-05,-8.096895166954856e-06
678.45,0.5080654904685066,-1.3303045334768554e-05,-0.060668836348558686,-2.0330752593824093e-05,-3.2472732525833797e-06,1.9792702815935037e-05,-7.809412859815894e-06
678.46,0.5034082555090709,-1.3471546123456232e-05,-0.06063976112832803,-2.252182474131874e-05,-3.333755950973589e-06,1.993476066342037e-05,-7.881548984305878e-06
678.47,0.49884521837136125,-1.5415202572203837e-05,-0.060558514185856505,-1.911985373781156e-05,-4.120713661623105e-06,2.1757299083713377e-05,-8.56504561896074e-06
678.48,0.494250565605766,-1.408867604625199e-05,-0.06047923315228998,-1.897635833556531e-05,-3.6442179944672255e-06,2.0693948630690073e-05,-8.181776125083806e-06
678.49,0.4896251288589834,-1.422225164947328e-05,-0.06043171780957696,-1.9964304507656812e-05,-3.737380191073253e-06,2.081982365464974e-05,-8.247586657544881e-06
678.5,0.4849953213455153,-1.4460585684974424e-05,-0.06038341724968804,-2.0603650550762595e-05,-3.854498381093523e-06,2.1037813798585603e-05,-8.348957874519756e-06
678.51,0.48038799706049423,-1.4362818614012611e-05,-0.06031678961099185,-1.8895463972878978e-05,-3.87341109366621e-06,2.105570726318451e-05,-8.39616788738751e-06
678.52,0.475783183212822,-1.497452141801336e-05,-0.06025389595598846,-2.007944112055146e-05,-4.120523731806439e-06,2.1592905263712048e-05,-8.584511062415326e-06
678.53,0.47119867849597225,-1.6922244521390455e-05,-0.06018451359889443,-1.649144502072113e-05,-4.903470686698497e-06,2.3413777836767125e-05,-9.259791234154761e-06
678.54,0.46660144337001247,-1.552738293529019e-05,-0.06010324767835479,-1.6915840706264197e-05,-4.407906158892605e-06,2.226045742559357e-05,-8.84439611227453e-06
678.55,0.4619796893418869,-1.5643882272373987e-05,-0.06004886378470298,-1.750605254246926e-05,-4.493811502252927e-06,2.2383422227600924e-05,-8.907879561257e-06
678.56,0.4573437186356958,-1.5875739766324664e-05,-0.060001022626997025,-1.819613695482394e-05,-4.612128596025297e-06,2.2570559927048706e-05,-9.00421843773422e-06
678.57,0.4527180603310997,-1.6122759455200563e-05,-0.05994445621342864,-1.8337761703697828e-05,-4.740776516206626e-06,2.28270147984988e-05,-9.112924671126699e-06
678.58,0.44816287145373457,-1.8057954920126703e-05,-0.05985308645271853,-1.4545713816445277e-05,-5.516066701562357e-06,2.4631815329745343e-05,-9.776698497316596e-06
678.59,0.44355450883960007,-1.6590468887032305e-05,-0.059776485196990414,-1.5532709039725573e-05,-4.998659912041226e-06,2.340096541897374e-05,-9.334348536893956e-06
678.6,0.43890274608608437,-1.673749789803133e-05,-0.05973869216201416,-1.6806052428049347e-05,-5.092615866668588e-06,2.348728496759378e-05,-9.40237225122262e-06
678.61,0.43430323169051155,-1.6945441042476613e-05,-0.05966304923097343,-1.6624406556245116e-05,-5.207585069854238e-06,2.369769373167241e-05,-9.493123197479737e-06
678.62,0.42971278205927577,-1.8872584665323068e-05,-0.05959303519303266,-1.3093062277043114e-05,-5.976609814093087e-06,2.5493643454777004e-05,-1.0146718300544418e-05
678.63,0.4251119309286935,-1.7332006308075528e-05,-0.05950802032013325,-1.465364002699492e-05,-5.431409771110675e-06,2.4170859603822592e-05,-9.673157688004988e-06
678.64,0.42049146723638675,-1.7456276120704802e-05,-0.05944847584702817,-1.4922352864195138e-05,-5.527911084720434e-06,2.4250351924548497e-05,-9.738564421628163e-06
678.65,0.41587039784455415,-1.7652961905041926e-05,-0.059387229184242385,-1.471541542405455e-05,-5.627376741243039e-06,2.4412929729045185e-05,-9.806429339564993e-06
678.66,0.4112849697344646,-1.9322939036566396e-05,-0.05931196990417875,-1.1287385856406094e-05,-6.277549995227375e-06,2.596542836114102e-05,-1.033618546866788e-05
678.67,0.4066626100146053,-1.779148684939633e-05,-0.05923594142395072,-1.363732536234407e-05,-5.758910688449153e-06,2.4565642732177206e-05,-9.873510330205048e-06
678.68,0.40204629481292925,-1.79419478052653e-05,-0.059172328887546366,-1.3345912336914255e-05,-5.843687044606053e-06,2.46629993317371e-05,-9.914223156447287e-06
678.69,0.3974234678273557,-1.8047751714713654e-05,-0.05911014625760347,-1.3077018389418794e-05,-5.91772033672216e-06,2.4747574956907048e-05,-9.950108611257898e-06
678.7,0.3928373739804278,-1.971566353775716e-05,-0.05903315172532708,-9.650089078439358e-06,-6.565557321374206e-06,2.6295671813614252e-05,-1.0474676712491715e-05
678.71,0.388209886956179,-1.9988506688167673e-05,-0.058970233835240526,-9.38884245554707e-06,-6.716399441015672e-06,2.6517821820726262e-05,-1.0579847637310854e-05
678.72,0.3836038360216705,-1.8350041580968424e-05,-0.05888301715514316,-1.226150024784955e-05,-6.139611718429007e-06,2.4996531324150695e-05,-1.0058562951944681e-05
678.73,0.37897504717454683,-1.8453461136331453e-05,-0.05882524926005339,-1.1951151661139477e-05,-6.215459818719078e-06,2.5079933906491103e-05,-1.0095747822420095e-05
678.74,0.374367363799695,-1.856452052919423e-05,-0.05875030627744077,-1.1505638922290525e-05,-6.293068446770701e-06,2.5167635388012588e-05,-1.0134400516374808e-05
678.75,0.36977350937335585,-2.0236579913962724e-05,-0.058676828037079354,-8.01002896921295e-06,-6.941028238889309e-06,2.6718214053589318e-05,-1.0656413336314666e-05
678.76,0.36514427425047946,-2.0525296713286767e-05,-0.05861246043304552,-7.735968652140513e-06,-7.097873289720015e-06,2.6954893384445455e-05,-1.0768929769040488e-05
678.77,0.3605398241790758,-1.8883751479442213e-05,-0.0585217341542682,-1.0713480471287143e-05,-6.524299046162339e-06,2.5421534412206626e-05,-1.0248071152255665e-05
678.78,0.3559074266571041,-1.8992301175290684e-05,-0.058464086845366414,-1.0396490106610117e-05,-6.60304501281649e-06,2.5506332447411406e-05,-1.0286809243180255e-05
678.79,0.3512754948639287,-1.9109769200319517e-05,-0.058402280412121144,-1.0251050985387833e-05,-6.684793638525523e-06,2.559880004326942e-05,-1.0328565507266001e-05
678.8,0.34669083773466464,-2.0974108821857896e-05,-0.05831926810783977,-6.56461871862726e-06,-7.414927909092195e-06,2.731290926943908e-05,-1.0926765080109804e-05
678.81,0.3420832337783738,-1.9329079667637925e-05,-0.05822824305571894,-9.395105208680442e-06,-6.8423908468554905e-06,2.5766432687313046e-05,-1.0405370498554043e-05
678.82,0.3374616259192063,-1.937733588507271e-05,-0.05816114002758327,-8.931719188704976e-06,-6.907712959060394e-06,2.5805459050509683e-05,-1.043123553247919e-05
678.83,0.3328480924691562,-1.9560543824730374e-05,-0.05808741015542612,-8.385470801464873e-06,-7.005217730427632e-06,2.594051215198956e-05,-1.0485822219491946e-05
678.84,0.32823117390385625,-1.9675987478023536e-05,-0.058014800401255784,-7.83706711810354e-06,-7.08654696654666e-06,2.602579785815351e-05,-1.052547412063381e-05
678.85,0.323595089491287,-1.979308505818763e-05,-0.057952283922776515,-7.679240777718668e-06,-7.169721442209804e-06,2.6114847422042953e-05,-1.0567090507030699e-05
678.86,0.31899220006941115,-2.1015195188198962e-05,-0.05787423238084599,-5.126504631117631e-06,-7.66709226522746e-06,2.72248621051574e-05,-1.0963508848626927e-05
678.87,0.3143912448556312,-2.000962186231591e-05,-0.057781908131727566,-6.825109249184668e-06,-7.328222279083508e-06,2.6270602550337863e-05,-1.0640614786911503e-05
678.88,0.3097533258259429,-1.963353721337664e-05,-0.05771984030337557,-6.21567531598665e-06,-7.229541490449737e-06,2.5976358228152474e-05,-1.0529102519608749e-05
678.89,0.30515562708680044,-2.0230705429699885e-05,-0.057634650723173864,-5.808798613527684e-06,-7.4885290770161325e-06,2.6424595371943305e-05,-1.0713905133827024e-05
678.9,0.3005111348487852,-2.034351323532028e-05,-0.05757656545521378,-5.67410519075102e-06,-7.569828623170535e-06,2.6503551368073364e-05,-1.0751213279897249e-05
678.91,0.29591765326455854,-2.2215679450578543e-05,-0.05749439867063444,-1.8219697394293734e-06,-8.29984412337875e-06,2.8227561374105647e-05,-1.1346887036673493e-05
678.92,0.2913105868832657,-2.0569555349519852e-05,-0.05739766899282478,-5.180082914489374e-06,-7.734024248836003e-06,2.6663810715976677e-05,-1.0828287971387864e-05
678.93,0.2866637031122586,-2.0684796879399473e-05,-0.05734285682254259,-4.97945911996584e-06,-7.816338278631379e-06,2.674247398276597e-05,-1.0865715479699235e-05
678.94,0.28204471726328917,-2.0805372447753606e-05,-0.05726564156980912,-4.8502492749168306e-06,-7.90077591975743e-06,2.6826306687710577e-05,-1.090549798132064e-05
678.95,0.2774487312800001,-2.2680847343836233e-05,-0.057185146398183395,-9.772678004187164e-07,-8.631253989032056e-06,2.8555354674997258e-05,-1.1502024674692993e-05
678.96,0.27282446034389185,-2.0446603283286056e-05,-0.057094637560013095,-4.90881900914822e-06,-7.850256679635257e-06,2.649573577923059e-05,-1.0798985377905886e-05
678.97,0.26819402538649917,-2.0668572565827828e-05,-0.05702899399466754,-4.973567303326006e-06,-7.970718358530802e-06,2.6614198162910885e-05,-1.0864994118077201e-05
678.98,0.26356634973140963,-2.1334202185615868e-05,-0.05696231166260507,-3.629358482535633e-06,-8.26171606240644e-06,2.722102662605641e-05,-1.1089963101867763e-05
678.99,0.2589791892277926,-2.312900771014828e-05,-0.05687327711503881,3.326305465610764e-07,-8.957221661356482e-06,2.885187719281479e-05,-1.1644779070167508e-05
679.0,0.25435686504111493,-2.091949103565032e-05,-0.05678080222925813,-3.1856025442931293e-06,-8.186858825729682e-06,2.6837595456630225e-05,-1.0950739558438187e-05
679.01,0.24972685649889884,-2.1573744241493146e-05,-0.0567154030666375,-2.7079910605262136e-06,-8.467064110045152e-06,2.732116257286865e-05,-1.1148675059691593e-05
679.02,0.245096040502963,-2.1188388097142857e-05,-0.05664061688396846,-3.4092695552107836e-06,-8.365141083427281e-06,2.693232386452582e-05,-1.1024033652708727e-05
679.03,0.24045016975702072,-2.1395007302358697e-05,-0.05658026271938668,-3.122929364372784e-06,-8.491209522809798e-06,2.7130383112250467e-05,-1.111081260763169e-05
679.04,0.2359569384078955,-2.4522218142499137e-05,-0.05643950213348037,6.470048520690487e-06,-9.631788927482834e-06,2.995430699970214e-05,-1.1943098253204879e-05
679.05,0.23119147259984743,-2.1220518867577854e-05,-0.05643500367647489,-3.0552578346571264e-06,-8.48236102315752e-06,2.6790019591771408e-05,-1.096622679025861e-05
679.06,0.2266348336450459,-2.119157594199345e-05,-0.05631058410792658,-2.3652595411447127e-06,-8.505949551962749e-06,2.6695920435915177e-05,-1.0928863710556314e-05
679.07,0.22201901680850705,-2.1692157237004885e-05,-0.05623499438012425,-8.721787897715725e-07,-8.723651669302496e-06,2.7094862599441605e-05,-1.1057784915028616e-05
679.08,0.21738072236897898,-2.162250362714788e-05,-0.05616643626453233,-7.525679900621179e-07,-8.729094327638362e-06,2.695186601353594e-05,-1.0995657830078786e-05
679.09,0.21279062270582344,-2.2703455886649133e-05,-0.05607279472964019,2.1009677485402285e-06,-9.156929982396693e-06,2.7878808922743303e-05,-1.1295931345229866e-05
679.1,0.20815919207270034,-2.102703571260504e-05,-0.05599075242297008,-5.962140219125383e-07,-8.593754116861991e-06,2.6313575404113276e-05,-1.0758192405491998e-05
679.11,0.2035143876314655,-2.1033195469634877e-05,-0.055927958554672974,-4.980117197900721e-07,-8.610997785091696e-06,2.6203169952276895e-05,-1.0709631496861136e-05
679.12,0.19888610234319268,-2.0991072973805285e-05,-0.055851654933993716,-2.3264986102605254e-07,-8.627829638913715e-06,2.6091579187981218e-05,-1.0660192289606926e-05
679.13,0.19426089763395638,-2.1373987125323566e-05,-0.05577752923368473,1.0579584736031852e-06,-8.796457068795195e-06,2.63469175810771e-05,-1.0728350236818205e-05
679.14,0.1896659412825837,-2.2510544348009735e-05,-0.05568457159115414,3.8589382906618125e-06,-9.247603545665256e-06,2.7339064023856885e-05,-1.1056648918857126e-05
679.15,0.18505008006110513,-2.0862863823235877e-05,-0.05558920550360541,6.641420643291599e-07,-8.67838989872059e-06,2.5751663598444496e-05,-1.051216569706771e-05
679.16,0.18040734395954122,-2.0825580672644443e-05,-0.055524522160030676,1.0300133869232188e-06,-8.697442796748962e-06,2.5644650377437683e-05,-1.046487076437523e-05
679.17,0.17575347879740158,-2.073042087356227e-05,-0.05546559277431587,1.198735076215175e-06,-8.691682134105684e-06,2.5470125653154208e-05,-1.0385939496376684e-05
679.18,0.17116647236876065,-2.120090236447088e-05,-0.05536228717457309,2.625059305433275e-06,-8.897167457539093e-06,2.5818043410702485e-05,-1.0500648487054563e-05
679.19,0.1665547589747237,-2.0554546641875862e-05,-0.05526815722318723,1.6628311604510562e-06,-8.688456801871396e-06,2.5123973769719532e-05,-1.0246773250565113e-05
679.2,0.1619159309566647,-2.066498389373237e-05,-0.05520093925283562,2.10932305797317e-06,-8.76957630862429e-06,2.5199569794687182e-05,-1.0270373535074083e-05
679.21,0.1572942775697737,-2.1129069708586838e-05,-0.055122944747677705,3.50391056405037e-06,-8.971014059922425e-06,2.5540327435985555e-05,-1.037605613474574e-05
679.22,0.1526478943663734,-2.0064604730647675e-05,-0.0550487173314603,1.6773655373183426e-06,-8.614037728600269e-06,2.4495474550662033e-05,-1.0006385822288445e-05
679.23,0.14805226267767238,-2.1098506607754086e-05,-0.05495670399242597,4.180355285733753e-06,-9.027888399771981e-06,2.5366760219358575e-05,-1.030608777652536e-05
679.24,0.14337940209611139,-1.98251878569742e-05,-0.05489504910651749,5.496604999231814e-06,-8.629148516410851e-06,2.4327213136360326e-05,-9.985027713173021e-06
679.25,0.13879980277565798,-2.0693241840107154e-05,-0.054793922836885056,3.627012187599111e-06,-8.956224684261173e-06,2.489309651160232e-05,-1.0149195723410065e-05
679.26,0.1342823863539315,-2.379735246172623e-05,-0.05466624967548683,1.3045200468730637e-05,-1.0103922150515678e-05,2.7929430836237668e-05,-1.1009732008441457e-05
679.27,0.12955894908814802,-2.1292972494852685e-05,-0.05463062858926654,5.576079536276772e-06,-9.25096751775351e-06,2.5323671268867587e-05,-1.0299029715942947e-05
679.28,0.12503384942948306,-2.3808467975008086e-05,-0.05450036272229854,1.4272601359707309e-05,-1.0196902687472482e-05,2.7748042517011795e-05,-1.0996336698468322e-05
679.29,0.12030966209658034,-2.139316714957729e-05,-0.05446702359016953,6.2398573016576755e-06,-9.364091190275343e-06,2.5306782079792534e-05,-1.0297072620640356e-05
679.3,0.11562864643677831,-2.00686817185709e-05,-0.054409306340942626,6.9959031215699185e-06,-8.942498702082238e-06,2.4220643344230464e-05,-9.952762879368823e-06
679.31,0.11102835882986471,-2.046593282727709e-05,-0.05431732382185568,4.57083402437007e-06,-9.101435912479171e-06,2.4367386116885825e-05,-9.976504679792724e-06
679.32,0.10642135607320581,-2.1500595558004362e-05,-0.05423264414575622,7.140667130306675e-06,-9.51460505974563e-06,2.5230186888325346e-05,-1.0268668211844532e-05
679.33,0.1018865898947683,-2.3652156956596063e-05,-0.054104336550619025,1.290312337374833e-05,-1.035312619199117e-05,2.7220139699968282e-05,-1.0906096317797444e-05
679.34,0.09713950747712793,-2.106474675370257e-05,-0.05408410789464886,6.369628901688584e-06,-9.431754241186073e-06,2.4734999336500918e-05,-1.009872863021305e-05
679.35,0.0925675241011779,-2.117344197251926e-05,-0.053965912553065626,6.7837330823187956e-06,-9.5136253820149e-06,2.4795737678245944e-05,-1.0130400471377271e-05
679.36,0.08793120862498723,-2.1756260247407876e-05,-0.05389628505843726,8.288564674297448e-06,-9.762754159200576e-06,2.5255557082215496e-05,-1.0292265862898502e-05
679.37,0.08327039114417892,-2.1325578931698665e-05,-0.053835922252487706,7.644773089793942e-06,-9.647017209747602e-06,2.4845490298242012e-05,-1.0149927799436516e-05
679.38,0.07866233769238204,-2.201779621545536e-05,-0.053743671524995554,9.165884750255112e-06,-9.943319528771087e-06,2.5435669798290483e-05,-1.0369966059025834e-05
679.39,0.0739785751857737,-2.0771982115516027e-05,-0.05369251906151572,6.892341771135286e-06,-9.510975644824793e-06,2.420583284346023e-05,-9.915734581686992e-06
679.4,0.06935509815706456,-2.0402629544603512e-05,-0.0536000693067821,1.1399240862814635e-05,-9.419052809735737e-06,2.385749021646677e-05,-9.83766371442473e-06
679.41,0.06473400926348113,-2.0889292042152078e-05,-0.053524844639785005,7.562073168616236e-06,-9.63494145527675e-06,2.4229119291271917e-05,-9.928304257842469e-06
679.42,0.06025003863151672,-2.405341183242364e-05,-0.05336856236664764,1.5540371069450158e-05,-1.0845680296373097e-05,2.708905948639595e-05,-1.0897765524368906e-05
679.43,0.05553662864986152,-2.2082275282268456e-05,-0.05332858348361164,1.053237702729188e-05,-1.0142373056250224e-05,2.5163942980022114e-05,-1.0265749852927781e-05
679.44,0.050899641637978464,-2.1005831994610677e-05,-0.05324459521556938,8.453799749033157e-06,-9.780822376467601e-06,2.4139957351398955e-05,-9.901462686324616e-06
679.45,0.046281724995222706,-2.2198524940325183e-05,-0.05316771324436719,1.1162070615091082e-05,-1.0263748392407006e-05,2.5178032796890903e-05,-1.0274009893996277e-05
679.46,0.04173811852573123,-2.4227684404083703e-05,-0.053044453215053355,1.6928855779132445e-05,-1.1072111342254927e-05,2.7086866451947467e-05,-1.1012829449192099e-05
679.47,0.036995422658367666,-2.1959832193385374e-05,-0.05302014816497697,1.0788130687380352e-05,-1.0253930056626947e-05,2.491371557297728e-05,-1.019275057592376e-05
679.48,0.032360802850122536,-2.2222711257919357e-05,-0.052945426405948535,1.1783324226427921e-05,-1.0367915810545797e-05,2.5046512159440648e-05,-1.0211654846422321e-05
679.49,0.02778702461689925,-2.2354310588497605e-05,-0.05283026085563535,1.2508472289480512e-05,-1.046339086374206e-05,2.508951426063999e-05,-1.0239659949626253e-05
679.5,0.02305756296350458,-2.0814245868711774e-05,-0.052806617078632004,9.820466279208203e-06,-9.943056154243286e-06,2.3739462332028616e-05,-9.750594269820114e-06
679.51,0.01847831904004991,-2.2146175029070757e-05,-0.05269807526478845,1.2223844189663427e-05,-1.0464274936442272e-05,2.4865386872199857e-05,-1.017200782128117e-05
679.52,0.013830700158071172,-2.1695345478632093e-05,-0.052624992638885225,1.148473977963605e-05,-1.0337935658317683e-05,2.4447705845434542e-05,-1.0021874821244611e-05
679.53,0.00919332555740102,-2.126498414003696e-05,-0.0525466925831604,1.1062639015179301e-05,-1.022267690778421e-05,2.4057057626411527e-05,-9.883482706767427e-06
679.54,0.0046913951252736084,-2.3924087392788203e-05,-0.05240330112596029,1.906833762806707e-05,-1.1231397080195996e-05,2.627378827022714e-05,-1.0612089268225027e-05
679.55,0.00012301072462529686,-3.3452099216033166e-05,-0.05199459358772878,1.3083641164106132e-05,-1.1556601673769898e-05,1.9092403324982854e-06,-9.018275510979876e-06
679.56,-0.002814289763637556,-2.085712444855455e-05,-0.04866421377359447,1.3299395775226447e-05,-1.006150806218283e-05,2.2894867377824812e-05,-9.381503183277648e-06
679.57,-0.006472360695682011,-2.1617547686285985e-05,-0.047205477566921866,1.5104795904732133e-05,-1.0411064763974991e-05,2.3630051175019262e-05,-9.663933219408473e-06
679.58,-0.010529897276454378,-2.0665425226379935e-05,-0.046625341583068025,1.3078558299802554e-05,-1.0102078486585957e-05,2.280565516576266e-05,-9.365232861256708e-06
679.59,-0.01459213774927485,-2.2946660147761705e-05,-0.046343963075486605,1.8856313690651675e-05,-1.09696414807868e-05,2.4767255220208007e-05,-1.0048312173252928e-05
679.6,-0.018801759578682818,-2.202048404245809e-05,-0.046256293415197124,1.591769919866163e-05,-1.0675444183288934e-05,2.3913859942353843e-05,-9.776526999509972e-06
679.61,-0.023063256490406192,-2.2086981939400743e-05,-0.04625766160179528,1.6502074489304538e-05,-1.0734457169075135e-05,2.3931569712903195e-05,-9.780538768902414e-06
679.62,-0.02737548904171822,-2.111818420248577e-05,-0.0463025717551094,1.4747124672771065e-05,-1.0411603798210004e-05,2.3078912146624886e-05,-9.470478054696648e-06
679.63,-0.03172631446222599,-2.0103758251352122e-05,-0.046378106625284354,1.3485859781168597e-05,-1.009981077555337e-05,2.2229624275641943e-05,-9.167437539361976e-06
679.64,-0.035912720158178334,-2.2329627875589854e-05,-0.046359084695793175,1.8385633766531603e-05,-1.0929071093300832e-05,2.4034438332853555e-05,-9.813607405764922e-06
679.65,-0.040260810812063334,-2.1360618084813347e-05,-0.04642128224331442,1.642819894976165e-05,-1.06046217423008e-05,2.319053749608689e-05,-9.503108114568303e-06
679.66,-0.04457956701010575,-2.1898538298625336e-05,-0.0464694998575448,1.8053273662707805e-05,-1.0833066373027743e-05,2.3581601408128976e-05,-9.636312030570897e-06
679.67,-0.04885690157425099,-2.2063476004647013e-05,-0.04647626072744429,1.7725630381248266e-05,-1.0919672186600796e-05,2.367583279004864e-05,-9.67289093295771e-06
679.68,-0.05328471752443609,-2.046023670952961e-05,-0.046569683934098105,1.5514336835507058e-05,-1.0407955699472262e-05,2.2418440899693234e-05,-9.212757291790141e-06
679.69,-0.05760555652439057,-2.0932909816745013e-05,-0.04659143636540442,1.6506058477120987e-05,-1.0613115067751309e-05,2.2841702605419165e-05,-9.382707846752701e-06
679.7,-0.061856084424674676,-2.278834548813773e-05,-0.04657553831703083,2.074368675305404e-05,-1.129772671810839e-05,2.4207204517691025e-05,-9.858707132792411e-06
679.71,-0.06620110590592453,-2.2868932881335706e-05,-0.04660068301499473,2.1260107113266973e-05,-1.1356625448700715e-05,2.423444883409634e-05,-9.863040322745709e-06
679.72,-0.0705197750723269,-2.45094234591042e-05,-0.046613225119141184,2.626237353486766e-05,-1.207036167047052e-05,2.554416514401886e-05,-1.0403920466226259e-05
679.73,-0.07494962972534006,-2.193715840426296e-05,-0.04666109259252746,1.873823069578924e-05,-1.1061354601959187e-05,2.336285233307117e-05,-9.52413142669151e-06
679.74,-0.07929256906010958,-2.3078625707757893e-05,-0.04667470528643163,2.1704996318457556e-05,-1.1529571450299059e-05,2.4305056127875424e-05,-9.875359357458514e-06
679.75,-0.08371194383653303,-2.2088831991638696e-05,-0.04671641361393665,1.985595764404766e-05,-1.118877160055892e-05,2.3460037822338464e-05,-9.551146918902991e-06
679.76,-0.08815979782849505,-2.1003812207179102e-05,-0.046772831751299176,1.8409246385985608e-05,-1.0837765765730372e-05,2.2587926563996663e-05,-9.211545378977131e-06
679.77,-0.09234716224141273,-2.5311100702787267e-05,-0.04668554192970712,2.9279292087005606e-05,-1.2434354668804765e-05,2.6486613827113314e-05,-1.0461304884534008e-05
679.78,-0.09673951640327111,-2.5229838776856668e-05,-0.046698370723797546,3.106002489819328e-05,-1.2494341393211761e-05,2.6439847815154516e-05,-1.0466567067056578e-05
679.79,-0.10115528410314692,-2.5033229021354475e-05,-0.04671995062697565,3.306579306698327e-05,-1.2419672673781806e-05,2.6333963594749044e-05,-1.0361275220515477e-05
679.8,-0.10556004237612307,-2.5079438404625646e-05,-0.04673002396431193,3.362816520177837e-05,-1.2465411655976366e-05,2.6340621699191824e-05,-1.0353086312679335e-05
679.81,-0.10997113653461525,-2.5115624564682883e-05,-0.04673907686026586,3.412143349223008e-05,-1.2505724557576158e-05,2.6341245913032163e-05,-1.0333277113364168e-05
679.82,-0.11456963771943837,-2.132355691928965e-05,-0.04683928424721545,2.0949363601474828e-05,-1.1121553511607321e-05,2.2660351325948236e-05,-9.177482456562518e-06
679.83,-0.1189377994630781,-2.2852906845223162e-05,-0.046815434617275054,2.3596152135838486e-05,-1.169146347325227e-05,2.387490740643483e-05,-9.640255684943157e-06
679.84,-0.12333782666957628,-2.2538011405951833e-05,-0.046801123216747856,2.2913375040254887e-05,-1.1588766347840531e-05,2.3464038686082933e-05,-9.458212276383866e-06
679.85,-0.12773701903659318,-2.3559857361804662e-05,-0.04679056029799643,2.5939225187642462e-05,-1.2012402092605244e-05,2.4254085126643177e-05,-9.753642960581355e-06
679.86,-0.13217152333786097,-2.4675690096196506e-05,-0.04679702632405053,2.9304803002371278e-05,-1.2517465751241369e-05,2.502390908255825e-05,-1.013056275932971e-05
679.87,-0.13666983660902038,-2.1818670908746443e-05,-0.04681348519301119,2.2219296415519363e-05,-1.1383639777058923e-05,2.2675590529624978e-05,-9.099884144754197e-06
679.88,-0.14101841230921963,-2.4829200563165277e-05,-0.046771016643476285,3.1193113965132454e-05,-1.2578516261559829e-05,2.5664327213792415e-05,-1.004175285893163e-05
679.89,-0.145529728709172,-2.2912528510498962e-05,-0.0467932800622816,2.5332678012054097e-05,-1.1846692812950382e-05,2.3465621275586823e-05,-9.37762696927736e-06
679.9,-0.15001436888980915,-2.282271659741832e-05,-0.04681046644871685,2.5755493612675294e-05,-1.1839297284672824e-05,2.3327541882375846e-05,-9.308398957885797e-06
679.91,-0.15447864973017858,-2.335839987801931e-05,-0.04680922583532317,2.6902523949135767e-05,-1.2028150992004897e-05,2.3720451975614565e-05,-9.412242912283588e-06
679.92,-0.1588138788219339,-2.4545368823123108e-05,-0.04673281411838996,3.419961063851248e-05,-1.2748863686039172e-05,2.5379783126347477e-05,-9.926809180462056e-06
679.93,-0.16349208280118924,-2.0407492641710123e-05,-0.04683293499901296,2.2298081124547823e-05,-1.1042626132556996e-05,2.1361382688864228e-05,-8.485765815410785e-06
679.94,-0.16782125395066672,-2.4435437783904105e-05,-0.04675205471741391,3.078967589640112e-05,-1.2634229384011651e-05,2.4190762106218733e-05,-9.76210768950398e-06
679.95,-0.17240922034436093,-2.096821723464919e-05,-0.04678924386347069,2.3504745967040276e-05,-1.129148649413542e-05,2.166503898594352e-05,-8.599903159501807e-06
679.96,-0.17684125337796516,-2.22395621152088e-05,-0.04675924057258288,2.5466811943449056e-05,-1.1748697085102325e-05,2.2606930110080636e-05,-8.911151895725825e-06
679.97,-0.1812116094099963,-2.4377708892792134e-05,-0.046687674661118894,3.253118628231824e-05,-1.2629617667509049e-05,2.4199643446964902e-05,-9.511887306600398e-06
679.98,-0.18583661939510016,-2.183437020216824e-05,-0.04674796769434922,2.599106700906574e-05,-1.1617268451861442e-05,2.2028254804157266e-05,-8.641218423581618e-06
679.99,-0.19035179686790252,-2.0665533574797572e-05,-0.046736597824106135,2.408285570032505e-05,-1.1225267562196915e-05,2.1277949411452335e-05,-8.33007715871179e-06
680.0,-0.19483057442271545,-2.091037225129074e-05,-0.046716481935463045,2.4609156709596327e-05,-1.1339849993646182e-05,2.1419975930081492e-05,-8.3485412126045e-06
680.01,-0.19927893732301385,-2.1743969094681925e-05,-0.04667378149726989,2.6762008996288573e-05,-1.1629711397320589e-05,2.1789367552121908e-05,-8.478150237646673e-06
680.02,-0.20375725179495113,-2.3418755856947868e-05,-0.04665160040008581,3.0903826083028526e-05,-1.2275547914429282e-05,2.3083105064769516e-05,-8.965004138319563e-06
680.03,-0.20829543268270573,-2.1067038576656416e-05,-0.046639878559115194,2.573889398224955e-05,-1.1399259071188375e-05,2.114412793222109e-05,-8.16638121375413e-06
680.04,-0.2128196102079572,-2.09675278427244e-05,-0.04663287643533648,2.6279893651128836e-05,-1.1393614665303415e-05,2.1039655280857827e-05,-8.108407398940915e-06
680.05,-0.21727068977541486,-2.2536827972324365e-05,-0.04658384025325846,3.0241733265910164e-05,-1.2004690200148908e-05,2.211361009302193e-05,-8.54125423401875e-06
680.06,-0.2218436339630738,-2.0833597350355936e-05,-0.04659195832190102,2.7202660697783462e-05,-1.1372176297283357e-05,2.0817268736456063e-05,-7.971558956431767e-06
680.07,-0.22631214465022878,-2.2878713605854726e-05,-0.046552780766533186,3.252514797033767e-05,-1.2142769599089677e-05,2.2248510101241514e-05,-8.525270967760278e-06
680.08,-0.2308520041979716,-2.1279143210018508e-05,-0.046532557028649835,2.81081011897602e-05,-1.1550779073892566e-05,2.0952826489811782e-05,-7.988194658702357e-06
680.09,-0.23544618214783467,-2.0491015222894882e-05,-0.04655385302381029,2.7395687589356635e-05,-1.127985754524781e-05,2.0298350946967858e-05,-7.697461911730739e-06
680.1,-0.23989315755614182,-2.1064972359129334e-05,-0.04647702400543646,2.835837650062077e-05,-1.2101086536335428e-05,2.1923233189224955e-05,-8.53143959943345e-06
680.11,-0.24435463824143008,-2.3055301501682685e-05,-0.046430505176691006,3.768783328322957e-05,-1.2296536347831347e-05,2.2861151278169567e-05,-8.437960958629972e-06
680.12,-0.24897611129454322,-2.0929194838789724e-05,-0.046446420981682474,2.9180835085523086e-05,-1.148055639153562e-05,2.04354402943141e-05,-7.692047448195445e-06
680.13,-0.2535475228959422,-2.078102706624678e-05,-0.04644665549113833,2.941811481029325e-05,-1.1431250642313442e-05,2.0205208527940277e-05,-7.580512855842733e-06
680.14,-0.25801849693605544,-2.2516395578052414e-05,-0.0463851475710729,3.366586846419271e-05,-1.2106390618982481e-05,2.1552063450946957e-05,-8.100395735658036e-06
680.15,-0.26262235089064745,-1.94366297500935e-05,-0.04638371118316248,2.7545222772024824e-05,-1.0956302308728297e-05,1.9139978344129283e-05,-7.077508077090247e-06
680.16,-0.26715517627779983,-1.999458674882248e-05,-0.04635730730210516,2.8923092376368976e-05,-1.117722317505853e-05,1.950654889251724e-05,-7.207137359595446e-06
680.17,-0.27161270012577476,-2.2416841720688094e-05,-0.046289196632434665,3.574697796557379e-05,-1.2155229727449108e-05,2.123847073615126e-05,-7.929533559349316e-06
680.18,-0.2761974139229839,-2.023165190153785e-05,-0.0462698155997352,3.001380493110259e-05,-1.1921623360895695e-05,2.0812310592227545e-05,-7.915121462630584e-06
680.19,-0.28082489461018256,-1.93818468941986e-05,-0.04629224292109463,2.8775360136476476e-05,-1.0997843623151808e-05,1.9016447726977193e-05,-6.922906366194689e-06
680.2,-0.2853863676044625,-1.9268307406631162e-05,-0.04626991697808672,2.9150673072351797e-05,-1.0963149651585513e-05,1.886785349122788e-05,-6.832729058992883e-06
680.21,-0.2898583791060727,-2.1690089287054317e-05,-0.04620341214951196,3.4944264033244246e-05,-1.1893803248229882e-05,2.0219081320604904e-05,-7.483005821480853e-06
680.22,-0.2945080737393632,-1.8643179028374998e-05,-0.04621495914816559,2.8572308400149755e-05,-1.0742746045607019e-05,1.8381820433177598e-05,-6.56017361962179e-06
680.23,-0.29896989303533034,-2.1818066118089648e-05,-0.0461444580152377,3.4977957389235334e-05,-1.1980551150113372e-05,2.0347850205881812e-05,-7.489896621508656e-06
680.24,-0.3035986146212601,-2.0604249790231205e-05,-0.04615224385178368,3.2224271024254216e-05,-1.142903267840759e-05,1.94797896780341e-05,-6.979021203218708e-06
680.25,-0.3081205270789696,-2.0257285057071737e-05,-0.046093017835518224,3.1410955712939214e-05,-1.1349588393627999e-05,1.9213143916840814e-05,-6.8878494627667465e-06
680.26,-0.31268198974594713,-2.090124502702617e-05,-0.04606461223886521,3.318185198271756e-05,-1.1624528145819622e-05,1.9689216400109455e-05,-7.092294903835502e-06
680.27,-0.31719535933246995,-2.340843367145718e-05,-0.04600804209746884,3.830332739925002e-05,-1.2215321733001234e-05,2.1475242212909418e-05,-7.582131873707168e-06
680.28,-0.3218595588664956,-2.1111682579415592e-05,-0.04603233992776634,3.35812533767606e-05,-1.1674525197031844e-05,1.996734582215831e-05,-7.100303440375159e-06
680.29,-0.3263362347341302,-2.2636693101218598e-05,-0.04594993800223873,3.867761515468158e-05,-1.2350130980493326e-05,2.1763837336929992e-05,-7.655594549945376e-06
680.3,-0.3309453684602535,-2.2693059349458346e-05,-0.04593890872445544,3.682192578264095e-05,-1.2443267909949436e-05,2.0953914037502575e-05,-7.708429916630875e-06
680.31,-0.3356233854569823,-1.9653317395965128e-05,-0.04595786941957153,3.0366083330207094e-05,-1.1196218882993103e-05,1.930439628794467e-05,-6.711787374753895e-06
680.32,-0.3401372879046987,-2.132609261758741e-05,-0.04589766696616587,3.320411804652001e-05,-1.1821308305877756e-05,2.0223387257933823e-05,-7.155184063054737e-06
680.33,-0.3446682810923917,-2.301505979520669e-05,-0.0458452288149645,3.752728790037846e-05,-1.2496988199748454e-05,2.150103123949032e-05,-7.69130856852554e-06
680.34,-0.34944571677877245,-2.0172431348931206e-05,-0.045918570562243355,2.928542470481073e-05,-1.1028886906877533e-05,1.8554621398270132e-05,-6.305276399561077e-06
680.35,-0.35392174330834564,-2.081193003392452e-05,-0.04583071235971947,3.245099094105689e-05,-1.167520575778673e-05,2.0239727287485465e-05,-7.037032556202194e-06
680.36,-0.35850550511464946,-2.181050772619843e-05,-0.04580610932963691,3.4034432805788014e-05,-1.1999171599275972e-05,2.0915839475221798e-05,-7.2711575133544565e-06
680.37,-0.3630938020210919,-2.12355847040608e-05,-0.045773017088678536,3.269338644029762e-05,-1.1848483363129103e-05,2.067543958739204e-05,-7.169057221779844e-06
