lbr-stack/dynamic_parameter_identification/src/test/joint_states_velocities.csv
time,lbr_joint_1,lbr_joint_2,lbr_joint_3,lbr_joint_0,lbr_joint_4,lbr_joint_5,lbr_joint_6
1681917731.1628947,-1.1988241732661926e-05,5.988666707143111e-06,1.1977333414286222e-05,-2.9954241853797167e-05,0.0,2.3976483465028406e-05,1.1988241732514203e-05
1681917731.165356,-1.1988241732661926e-05,5.988666707143111e-06,1.1977333414286222e-05,-2.9954241853797167e-05,0.0,2.3976483465028406e-05,1.1988241732514203e-05
1681917731.167881,-5.988666707160729e-06,0.0,5.999575025371092e-06,1.1977333414321458e-05,9.581866731428706e-06,-1.7976908439657312e-05,-1.7976908439657312e-05
1681917731.1704447,-5.988666707160729e-06,0.0,5.999575025371092e-06,1.1977333414321458e-05,9.581866731428706e-06,-1.7976908439657312e-05,-1.7976908439657312e-05
1681917731.1728983,-5.988666707160729e-06,0.0,5.999575025371092e-06,1.1977333414321458e-05,9.581866731428706e-06,-1.7976908439657312e-05,-1.7976908439657312e-05
1681917731.1754045,-5.988666707160729e-06,0.0,5.999575025371092e-06,1.1977333414321458e-05,9.581866731428706e-06,-1.7976908439657312e-05,-1.7976908439657312e-05
1681917731.1778991,-5.988666707160729e-06,0.0,5.999575025371092e-06,1.1977333414321458e-05,9.581866731428706e-06,-1.7976908439657312e-05,-1.7976908439657312e-05
1681917731.180454,1.1988241732661926e-05,0.0,-5.999575025371092e-06,0.0,0.0,0.0,1.7976908439657312e-05
1681917731.1829512,1.1988241732661926e-05,0.0,-5.999575025371092e-06,0.0,0.0,0.0,1.7976908439657312e-05
1681917731.1854513,1.1988241732661926e-05,0.0,-5.999575025371092e-06,0.0,0.0,0.0,1.7976908439657312e-05
1681917731.1878712,1.1988241732661926e-05,0.0,-5.999575025371092e-06,0.0,0.0,0.0,1.7976908439657312e-05
1681917731.190462,0.0,1.1988241732514203e-05,0.0,0.0,-9.581866731428706e-06,0.0,-2.3976483465028406e-05
1681917731.192952,0.0,1.1988241732514203e-05,0.0,0.0,-9.581866731428706e-06,0.0,-2.3976483465028406e-05
1681917731.1954496,0.0,1.1988241732514203e-05,0.0,0.0,-9.581866731428706e-06,0.0,-2.3976483465028406e-05
1681917731.1978915,0.0,1.1988241732514203e-05,0.0,0.0,-9.581866731428706e-06,0.0,-2.3976483465028406e-05
1681917731.2004666,-5.993030034427527e-05,0.0,-5.393072531897228e-05,1.797690843947571e-05,9.581866731428706e-06,-1.7976908439657312e-05,1.1988241732514203e-05
1681917731.2029462,-5.993030034427527e-05,0.0,-5.393072531897228e-05,1.797690843947571e-05,9.581866731428706e-06,-1.7976908439657312e-05,1.1988241732514203e-05
1681917731.2054517,-5.993030034427527e-05,0.0,-5.393072531897228e-05,1.797690843947571e-05,9.581866731428706e-06,-1.7976908439657312e-05,1.1988241732514203e-05
1681917731.207926,-5.993030034427527e-05,0.0,-5.393072531897228e-05,1.797690843947571e-05,9.581866731428706e-06,-1.7976908439657312e-05,1.1988241732514203e-05
1681917731.2103853,-0.0009287778472006162,-1.1988241732514203e-05,0.00019774599283623216,0.00011983878405221656,0.0,2.9954241853943534e-05,0.0
1681917731.212883,-0.0009287778472006162,-1.1988241732514203e-05,0.00019774599283623216,0.00011983878405221656,0.0,2.9954241853943534e-05,0.0
1681917731.2154639,-0.0009287778472006162,-1.1988241732514203e-05,0.00019774599283623216,0.00011983878405221656,0.0,2.9954241853943534e-05,0.0
1681917731.217952,-0.0009287778472006162,-1.1988241732514203e-05,0.00019774599283623216,0.00011983878405221656,0.0,2.9954241853943534e-05,0.0
1681917731.2204528,-0.00016178126763867565,0.0,-0.0007550083378291576,0.0008748580301998356,-9.581866731428706e-06,-2.9954241853943534e-05,1.1988241732514203e-05
1681917731.2229626,-0.00016178126763867565,0.0,-0.0007550083378291576,0.0008748580301998356,-9.581866731428706e-06,-2.9954241853943534e-05,1.1988241732514203e-05
1681917731.2254562,-0.00016178126763867565,0.0,-0.0007550083378291576,0.0008748580301998356,-9.581866731428706e-06,-2.9954241853943534e-05,1.1988241732514203e-05
1681917731.2279203,-0.00016178126763867565,0.0,-0.0007550083378291576,0.0008748580301998356,-9.581866731428706e-06,-2.9954241853943534e-05,1.1988241732514203e-05
1681917731.230457,-0.00017376950937099061,0.0,-0.0002636540515694908,0.001569936067684492,9.581866731428706e-06,1.7976908439657312e-05,-2.3976483465028406e-05
1681917731.2329407,-0.00017376950937099061,0.0,-0.0002636540515694908,0.001569936067684492,9.581866731428706e-06,1.7976908439657312e-05,-2.3976483465028406e-05
1681917731.2354722,-0.00017376950937099061,0.0,-0.0002636540515694908,0.001569936067684492,9.581866731428706e-06,1.7976908439657312e-05,-2.3976483465028406e-05
1681917731.237964,-0.00017376950937099061,0.0,-0.0002636540515694908,0.001569936067684492,9.581866731428706e-06,1.7976908439657312e-05,-2.3976483465028406e-05
1681917731.2404819,-7.789630046575746e-05,5.988666707143111e-06,0.00014980393422440297,0.002486725673152099,-1.9163733462858767e-05,-1.7976908439657312e-05,1.1988241732514203e-05
1681917731.2428858,-7.789630046575746e-05,5.988666707143111e-06,0.00014980393422440297,0.002486725673152099,-1.9163733462858767e-05,-1.7976908439657312e-05,1.1988241732514203e-05
1681917731.24539,-7.789630046575746e-05,5.988666707143111e-06,0.00014980393422440297,0.002486725673152099,-1.9163733462858767e-05,-1.7976908439657312e-05,1.1988241732514203e-05
1681917731.2479453,-7.789630046575746e-05,5.988666707143111e-06,0.00014980393422440297,0.002486725673152099,-1.9163733462858767e-05,-1.7976908439657312e-05,1.1988241732514203e-05
1681917731.2504616,-0.0002277002346904586,0.0,-0.00011983878405223113,0.003325618978154296,9.581866731430061e-06,1.7976908439657312e-05,1.1988241732514203e-05
1681917731.2529173,-0.0002277002346904586,0.0,-0.00011983878405223113,0.003325618978154296,9.581866731430061e-06,1.7976908439657312e-05,1.1988241732514203e-05
1681917731.2554488,-0.0002277002346904586,0.0,-0.00011983878405223113,0.003325618978154296,9.581866731430061e-06,1.7976908439657312e-05,1.1988241732514203e-05
1681917731.2579331,-0.0002277002346904586,0.0,-0.00011983878405223113,0.003325618978154296,9.581866731430061e-06,1.7976908439657312e-05,1.1988241732514203e-05
1681917731.2604806,-0.0009048122720532859,-5.988666707143111e-06,0.0,0.003475433820696991,-9.581866731430061e-06,-1.7976908439657312e-05,1.7976908439658668e-05
1681917731.2629473,-0.0009048122720532859,-5.988666707143111e-06,0.0,0.003475433820696991,-9.581866731430061e-06,-1.7976908439657312e-05,1.7976908439658668e-05
1681917731.2654717,-0.0009048122720532859,-5.988666707143111e-06,0.0,0.003475433820696991,-9.581866731430061e-06,-1.7976908439657312e-05,1.7976908439658668e-05
1681917731.2679415,-0.0009048122720532859,-5.988666707143111e-06,0.0,0.003475433820696991,-9.581866731430061e-06,-1.7976908439657312e-05,1.7976908439658668e-05
1681917731.270382,-0.0012403739573816396,5.988666707143111e-06,-0.0001258383590776022,0.003403526186938394,0.0,1.7976908439657312e-05,0.0
1681917731.2728875,-0.0012403739573816396,5.988666707143111e-06,-0.0001258383590776022,0.003403526186938394,0.0,1.7976908439657312e-05,0.0
1681917731.2753735,-0.0012403739573816396,5.988666707143111e-06,-0.0001258383590776022,0.003403526186938394,0.0,1.7976908439657312e-05,0.0
1681917731.2778919,-0.0012403739573816396,5.988666707143111e-06,-0.0001258383590776022,0.003403526186938394,0.0,1.7976908439657312e-05,0.0
1681917731.280391,-0.0012883051076756063,-5.988666707143111e-06,-7.190763375862993e-05,0.003061964926584886,9.581866731430061e-06,-1.7976908439657312e-05,-1.7976908439658668e-05
1681917731.282885,-0.0012883051076756063,-5.988666707143111e-06,-7.190763375862993e-05,0.003061964926584886,9.581866731430061e-06,-1.7976908439657312e-05,-1.7976908439658668e-05
1681917731.2853951,-0.0012883051076756063,-5.988666707143111e-06,-7.190763375862993e-05,0.003061964926584886,9.581866731430061e-06,-1.7976908439657312e-05,-1.7976908439658668e-05
1681917731.2878838,-0.0012883051076756063,-5.988666707143111e-06,-7.190763375862993e-05,0.003061964926584886,9.581866731430061e-06,-1.7976908439657312e-05,-1.7976908439658668e-05
1681917731.290393,-0.0014860401921932334,1.1988241732514203e-05,-0.00014380435919903172,0.002414828947711843,0.0,1.1977333414286222e-05,5.988666707143111e-06
1681917731.2928882,-0.0014860401921932334,1.1988241732514203e-05,-0.00014380435919903172,0.002414828947711843,0.0,1.1977333414286222e-05,5.988666707143111e-06
1681917731.2953813,-0.0014860401921932334,1.1988241732514203e-05,-0.00014380435919903172,0.002414828947711843,0.0,1.1977333414286222e-05,5.988666707143111e-06
1681917731.297896,-0.0014860401921932334,1.1988241732514203e-05,-0.00014380435919903172,0.002414828947711843,0.0,1.1977333414286222e-05,5.988666707143111e-06
1681917731.3003905,-0.0017077110451332656,-1.1987955917100019e-05,-2.3975911834200207e-05,0.002085206213853321,0.0,-1.1977047858940658e-05,-1.7976479846570348e-05
1681917731.302929,-0.0017077110451332656,-1.1987955917100019e-05,-2.3975911834200207e-05,0.002085206213853321,0.0,-1.1977047858940658e-05,-1.7976479846570348e-05
1681917731.3054023,-0.0017077110451332656,-1.1987955917100019e-05,-2.3975911834200207e-05,0.002085206213853321,0.0,-1.1977047858940658e-05,-1.7976479846570348e-05
1681917731.3079019,-0.0017077110451332656,-1.1987955917100019e-05,-2.3975911834200207e-05,0.002085206213853321,0.0,-1.1977047858940658e-05,-1.7976479846570348e-05
1681917731.310389,-0.0020852668374089904,0.0,-5.9886667071431956e-06,0.0019414406615734566,-9.581866731430061e-06,1.7976908439657312e-05,0.0
1681917731.3128877,-0.0020852668374089904,0.0,-5.9886667071431956e-06,0.0019414406615734566,-9.581866731430061e-06,1.7976908439657312e-05,0.0
1681917731.3153682,-0.0020852668374089904,0.0,-5.9886667071431956e-06,0.0019414406615734566,-9.581866731430061e-06,1.7976908439657312e-05,0.0
1681917731.3178816,-0.0020852668374089904,0.0,-5.9886667071431956e-06,0.0019414406615734566,-9.581866731430061e-06,1.7976908439657312e-05,0.0
1681917731.3203893,-0.002510691248299083,0.0,1.7976908439657482e-05,0.0020313361120902164,9.581866731430061e-06,0.0,-5.988666707143111e-06
1681917731.3228838,-0.002510691248299083,0.0,1.7976908439657482e-05,0.0020313361120902164,9.581866731430061e-06,0.0,-5.988666707143111e-06
1681917731.3253834,-0.002510691248299083,0.0,1.7976908439657482e-05,0.0020313361120902164,9.581866731430061e-06,0.0,-5.988666707143111e-06
1681917731.327891,-0.002510691248299083,0.0,1.7976908439657482e-05,0.0020313361120902164,9.581866731430061e-06,0.0,-5.988666707143111e-06
1681917731.3304,-0.0028582411753597515,-5.988666707143111e-06,0.0,0.002115210170944794,9.581866731428706e-06,-1.1988241732514203e-05,5.988666707143111e-06
1681917731.3328822,-0.0028582411753597515,-5.988666707143111e-06,0.0,0.002115210170944794,9.581866731428706e-06,-1.1988241732514203e-05,5.988666707143111e-06
1681917731.3353865,-0.0028582411753597515,-5.988666707143111e-06,0.0,0.002115210170944794,9.581866731428706e-06,-1.1988241732514203e-05,5.988666707143111e-06
1681917731.3378565,-0.0028582411753597515,-5.988666707143111e-06,0.0,0.002115210170944794,9.581866731428706e-06,-1.1988241732514203e-05,5.988666707143111e-06
1681917731.3403802,-0.0030200333513167674,5.988666707143111e-06,0.0,0.0023009788303667874,0.0,4.194248358645841e-05,0.0
1681917731.3428829,-0.0030200333513167674,5.988666707143111e-06,0.0,0.0023009788303667874,0.0,4.194248358645841e-05,0.0
1681917731.3453848,-0.0030200333513167674,5.988666707143111e-06,0.0,0.0023009788303667874,0.0,4.194248358645841e-05,0.0
1681917731.3478997,-0.0030200333513167674,5.988666707143111e-06,0.0,0.0023009788303667874,0.0,4.194248358645841e-05,0.0
1681917731.3503838,-0.0032537113443956993,0.0,0.0,0.0022770023469018104,-1.9163733462858767e-05,-1.797690843965799e-05,0.0
1681917731.3528905,-0.0032537113443956993,0.0,0.0,0.0022770023469018104,-1.9163733462858767e-05,-1.797690843965799e-05,0.0
1681917731.3553808,-0.0032537113443956993,0.0,0.0,0.0022770023469018104,-1.9163733462858767e-05,-1.797690843965799e-05,0.0
1681917731.3578818,-0.0032537113443956993,0.0,0.0,0.0022770023469018104,-1.9163733462858767e-05,-1.797690843965799e-05,0.0
1681917731.3603942,-0.003247733586006879,-5.988666707143111e-06,1.7976908439657397e-05,0.002199106046436053,1.9163733462858767e-05,-1.7976908439657312e-05,-5.988666707143111e-06
1681917731.3628874,-0.003247733586006879,-5.988666707143111e-06,1.7976908439657397e-05,0.002199106046436053,1.9163733462858767e-05,-1.7976908439657312e-05,-5.988666707143111e-06
1681917731.365391,-0.003247733586006879,-5.988666707143111e-06,1.7976908439657397e-05,0.002199106046436053,1.9163733462858767e-05,-1.7976908439657312e-05,-5.988666707143111e-06
1681917731.3678932,-0.00325372225271404,5.988666707143111e-06,1.1988241732514288e-05,0.0021331979877026105,0.0,-5.988666707143111e-06,0.0
1681917731.3703856,-0.00325372225271404,5.988666707143111e-06,1.1988241732514288e-05,0.0021331979877026105,0.0,-5.988666707143111e-06,0.0
1681917731.372881,-0.00325372225271404,5.988666707143111e-06,1.1988241732514288e-05,0.0021331979877026105,0.0,-5.988666707143111e-06,0.0
1681917731.375381,-0.00325372225271404,5.988666707143111e-06,1.1988241732514288e-05,0.0021331979877026105,0.0,-5.988666707143111e-06,0.0
1681917731.3787642,-0.00325372225271404,5.988666707143111e-06,1.1988241732514288e-05,0.0021331979877026105,0.0,-5.988666707143111e-06,0.0
1681917731.380382,-0.0031638377105156204,-5.988666707143111e-06,3.594290856108707e-05,0.0019953713868925776,0.0,1.1988241732514203e-05,1.7976908439657312e-05
1681917731.382881,-0.0031638377105156204,-5.988666707143111e-06,3.594290856108707e-05,0.0019953713868925776,0.0,1.1988241732514203e-05,1.7976908439657312e-05
1681917731.3853877,-0.0031638377105156204,-5.988666707143111e-06,3.594290856108707e-05,0.0019953713868925776,0.0,1.1988241732514203e-05,1.7976908439657312e-05
1681917731.3878794,-0.0031638377105156204,-5.988666707143111e-06,3.594290856108707e-05,0.0019953713868925776,0.0,1.1988241732514203e-05,1.7976908439657312e-05
1681917731.3904042,-0.0031458608020757976,0.0,0.0,0.0018695439361332005,-1.9163733462858767e-05,2.9954241853944212e-05,1.1977333414287577e-05
1681917731.3928816,-0.0031458608020757976,0.0,0.0,0.0018695439361332005,-1.9163733462858767e-05,2.9954241853944212e-05,1.1977333414287577e-05
1681917731.3953931,-0.0031458608020757976,0.0,0.0,0.0018695439361332005,-1.9163733462858767e-05,2.9954241853944212e-05,1.1977333414287577e-05
1681917731.3978822,-0.0031458608020757976,0.0,0.0,0.0018695439361332005,-1.9163733462858767e-05,2.9954241853944212e-05,1.1977333414287577e-05
1681917731.4003954,-0.003121895226929161,5.988666707143111e-06,0.0,0.0018515670276937246,9.581866731430061e-06,-2.39655751468011e-05,-2.995424185394489e-05
1681917731.402898,-0.003121895226929161,5.988666707143111e-06,0.0,0.0018515670276937246,9.581866731430061e-06,-2.39655751468011e-05,-2.995424185394489e-05
1681917731.4053812,-0.003121895226929161,5.988666707143111e-06,0.0,0.0018515670276937246,9.581866731430061e-06,-2.39655751468011e-05,-2.995424185394489e-05
1681917731.4078693,-0.003121895226929161,5.988666707143111e-06,0.0,0.0018515670276937246,9.581866731430061e-06,-2.39655751468011e-05,-2.995424185394489e-05
1681917731.4103856,-0.0029601030509724922,-5.988666707143111e-06,-2.3965575146800677e-05,0.001989382720185417,0.0,-1.1988241732514203e-05,5.988666707143111e-06
1681917731.412887,-0.0029601030509724922,-5.988666707143111e-06,-2.3965575146800677e-05,0.001989382720185417,0.0,-1.1988241732514203e-05,5.988666707143111e-06
1681917731.4154115,-0.0029601030509724922,-5.988666707143111e-06,-2.3965575146800677e-05,0.001989382720185417,0.0,-1.1988241732514203e-05,5.988666707143111e-06
1681917731.4178817,-0.0029601030509724922,-5.988666707143111e-06,-2.3965575146800677e-05,0.001989382720185417,0.0,-1.1988241732514203e-05,5.988666707143111e-06
1681917731.420377,-0.0029840795344371223,5.988666707143111e-06,0.0,0.0020013709619180788,0.0,-1.1977333414286222e-05,1.1988241732514203e-05
1681917731.4228816,-0.0029840795344371223,5.988666707143111e-06,0.0,0.0020013709619180788,0.0,-1.1977333414286222e-05,1.1988241732514203e-05
1681917731.4253821,-0.0029840795344371223,5.988666707143111e-06,0.0,0.0020013709619180788,0.0,-1.1977333414286222e-05,1.1988241732514203e-05
1681917731.427893,-0.0029840795344371223,5.988666707143111e-06,0.0,0.0020013709619180788,0.0,-1.1977333414286222e-05,1.1988241732514203e-05
1681917731.4303966,-0.002744380149696355,-5.988666707143111e-06,-1.1977333414286391e-05,0.002175129562971076,9.581866731428706e-06,1.7976908439657312e-05,-1.1988241732514203e-05
1681917731.4328873,-0.002744380149696355,-5.988666707143111e-06,-1.1977333414286391e-05,0.002175129562971076,9.581866731428706e-06,1.7976908439657312e-05,-1.1988241732514203e-05
1681917731.4353802,-0.002744380149696355,-5.988666707143111e-06,-1.1977333414286391e-05,0.002175129562971076,9.581866731428706e-06,1.7976908439657312e-05,-1.1988241732514203e-05
1681917731.4378836,-0.002744380149696355,-5.988666707143111e-06,-1.1977333414286391e-05,0.002175129562971076,9.581866731428706e-06,1.7976908439657312e-05,-1.1988241732514203e-05
1681917731.4403813,-0.002624552273962479,-5.999575025371092e-06,2.3965575146800677e-05,0.002318955738806263,-9.581866731428706e-06,-1.1988241732514203e-05,-1.1988241732514203e-05
1681917731.4428883,-0.002624552273962479,-5.999575025371092e-06,2.3965575146800677e-05,0.002318955738806263,-9.581866731428706e-06,-1.1988241732514203e-05,-1.1988241732514203e-05
1681917731.4453826,-0.002624552273962479,-5.999575025371092e-06,2.3965575146800677e-05,0.002318955738806263,-9.581866731428706e-06,-1.1988241732514203e-05,-1.1988241732514203e-05
1681917731.4478805,-0.002624552273962479,-5.999575025371092e-06,2.3965575146800677e-05,0.002318955738806263,-9.581866731428706e-06,-1.1988241732514203e-05,-1.1988241732514203e-05
1681917731.4503639,-0.0024927252481776003,5.999575025371092e-06,-1.1988241732514288e-05,0.0024687487647126237,0.0,-5.988666707143111e-06,1.1988241732514203e-05
1681917731.4528801,-0.0024927252481776003,5.999575025371092e-06,-1.1988241732514288e-05,0.0024687487647126237,0.0,-5.988666707143111e-06,1.1988241732514203e-05
1681917731.455386,-0.0024927252481776003,5.999575025371092e-06,-1.1988241732514288e-05,0.0024687487647126237,0.0,-5.988666707143111e-06,1.1988241732514203e-05
1681917731.4579005,-0.0024927252481776003,5.999575025371092e-06,-1.1988241732514288e-05,0.0024687487647126237,0.0,-5.988666707143111e-06,1.1988241732514203e-05
1681917731.460384,-0.0024687487647126237,-1.1988241732514203e-05,0.0,0.0022590254384619876,0.0,1.7976908439657312e-05,1.1988241732514203e-05
1681917731.4628844,-0.0024687487647126237,-1.1988241732514203e-05,0.0,0.0022590254384619876,0.0,1.7976908439657312e-05,1.1988241732514203e-05
1681917731.4653888,-0.0024687487647126237,-1.1988241732514203e-05,0.0,0.0022590254384619876,0.0,1.7976908439657312e-05,1.1988241732514203e-05
1681917731.4678893,-0.0024687487647126237,-1.1988241732514203e-05,0.0,0.0022590254384619876,0.0,1.7976908439657312e-05,1.1988241732514203e-05
1681917731.4703932,-0.002324944405513771,5.988666707143111e-06,0.0,0.0020612903539443607,0.0,-1.7976908439657312e-05,5.988666707143111e-06
1681917731.4728916,-0.002324944405513771,5.988666707143111e-06,0.0,0.0020612903539443607,0.0,-1.7976908439657312e-05,5.988666707143111e-06
1681917731.475381,-0.002324944405513771,5.988666707143111e-06,0.0,0.0020612903539443607,0.0,-1.7976908439657312e-05,5.988666707143111e-06
1681917731.4778864,-0.002324944405513771,5.988666707143111e-06,0.0,0.0020612903539443607,0.0,-1.7976908439657312e-05,5.988666707143111e-06
1681917731.480396,-0.0022949792553412863,0.0,-1.1977333414286391e-05,0.0019114864197196594,-9.581866731430061e-06,-1.1988241732514203e-05,-5.988666707143111e-06
1681917731.482881,-0.0022949792553412863,0.0,-1.1977333414286391e-05,0.0019114864197196594,-9.581866731430061e-06,-1.1988241732514203e-05,-5.988666707143111e-06
1681917731.485381,-0.0022949792553412863,0.0,-1.1977333414286391e-05,0.0019114864197196594,-9.581866731430061e-06,-1.1988241732514203e-05,-5.988666707143111e-06
1681917731.4878893,-0.0022949792553412863,0.0,-1.1977333414286391e-05,0.0019114864197196594,-9.581866731430061e-06,-1.1988241732514203e-05,-5.988666707143111e-06
1681917731.4903972,-0.002390852464246866,5.999575025371092e-06,1.1977333414286391e-05,0.0018395787859610626,9.581866731430061e-06,2.9965150172171517e-05,0.0
1681917731.4928849,-0.002390852464246866,5.999575025371092e-06,1.1977333414286391e-05,0.0018395787859610626,9.581866731430061e-06,2.9965150172171517e-05,0.0
1681917731.4953883,-0.002390852464246866,5.999575025371092e-06,1.1977333414286391e-05,0.0018395787859610626,9.581866731430061e-06,2.9965150172171517e-05,0.0
1681917731.4978867,-0.002390852464246866,5.999575025371092e-06,1.1977333414286391e-05,0.0018395787859610626,9.581866731430061e-06,2.9965150172171517e-05,0.0
1681917731.5003831,-0.0025346677317640595,-5.999575025371092e-06,-1.7976908439657482e-05,0.0018156132108140793,9.581866731428706e-06,0.0,1.1977333414287577e-05
1681917731.502885,-0.0025346677317640595,-5.999575025371092e-06,-1.7976908439657482e-05,0.0018156132108140793,9.581866731428706e-06,0.0,1.1977333414287577e-05
1681917731.505468,-0.0025346677317640595,-5.999575025371092e-06,-1.7976908439657482e-05,0.0018156132108140793,9.581866731428706e-06,0.0,1.1977333414287577e-05
1681917731.5079901,-0.0025346677317640595,-5.999575025371092e-06,-1.7976908439657482e-05,0.0018156132108140793,9.581866731428706e-06,0.0,1.1977333414287577e-05
1681917731.5103827,-0.0027623679664545184,5.999575025371092e-06,5.999575025371092e-06,0.0017197400019088461,-1.9163733462858767e-05,-1.1988241732514203e-05,-2.396557514680178e-05
1681917731.5128806,-0.0027623679664545184,5.999575025371092e-06,5.999575025371092e-06,0.0017197400019088461,-1.9163733462858767e-05,-1.1988241732514203e-05,-2.396557514680178e-05
1681917731.5154517,-0.0027623679664545184,5.999575025371092e-06,5.999575025371092e-06,0.0017197400019088461,-1.9163733462858767e-05,-1.1988241732514203e-05,-2.396557514680178e-05
1681917731.5178735,-0.0027623679664545184,5.999575025371092e-06,5.999575025371092e-06,0.0017197400019088461,-1.9163733462858767e-05,-1.1988241732514203e-05,-2.396557514680178e-05
1681917731.5203836,-0.002768356633161332,5.988666707143111e-06,-2.9965150172171687e-05,0.0017077517601765313,0.0,5.988666707143111e-06,0.0
1681917731.5228837,-0.002768356633161332,5.988666707143111e-06,-2.9965150172171687e-05,0.0017077517601765313,0.0,5.988666707143111e-06,0.0
1681917731.5253918,-0.002768356633161332,5.988666707143111e-06,-2.9965150172171687e-05,0.0017077517601765313,0.0,5.988666707143111e-06,0.0
1681917731.5278842,-0.002768356633161332,5.988666707143111e-06,-2.9965150172171687e-05,0.0017077517601765313,0.0,5.988666707143111e-06,0.0
1681917731.5303874,-0.002774356208186833,-5.988666707143111e-06,2.9965150172171687e-05,0.0017676820605204595,1.9163733462858767e-05,-5.988666707143111e-06,1.1988241732514203e-05
1681917731.532881,-0.002774356208186833,-5.988666707143111e-06,2.9965150172171687e-05,0.0017676820605204595,1.9163733462858767e-05,-5.988666707143111e-06,1.1988241732514203e-05
1681917731.5353813,-0.002774356208186833,-5.988666707143111e-06,2.9965150172171687e-05,0.0017676820605204595,1.9163733462858767e-05,-5.988666707143111e-06,1.1988241732514203e-05
1681917731.5378864,-0.0027204145745493716,0.0,-1.7976908439657397e-05,0.0018695330278152068,-9.581866731428706e-06,-1.7976908439657312e-05,-1.1988241732514203e-05
1681917731.5403957,-0.0027204145745493716,0.0,-1.7976908439657397e-05,0.0018695330278152068,-9.581866731428706e-06,-1.7976908439657312e-05,-1.1988241732514203e-05
1681917731.5428805,-0.0027204145745493716,0.0,-1.7976908439657397e-05,0.0018695330278152068,-9.581866731428706e-06,-1.7976908439657312e-05,-1.1988241732514203e-05
1681917731.5453823,-0.0027204145745493716,0.0,-1.7976908439657397e-05,0.0018695330278152068,-9.581866731428706e-06,-1.7976908439657312e-05,-1.1988241732514203e-05
1681917731.547887,-0.0027204145745493716,0.0,-1.7976908439657397e-05,0.0018695330278152068,-9.581866731428706e-06,-1.7976908439657312e-05,-1.1988241732514203e-05
1681917731.5503953,-0.0028222200714463483,-5.99943198762969e-06,0.0,0.002336876931705192,-9.58163828715361e-06,1.1987955917100019e-05,1.1987955917100019e-05
1681917731.5528827,-0.0028222200714463483,-5.99943198762969e-06,0.0,0.002336876931705192,-9.58163828715361e-06,1.1987955917100019e-05,1.1987955917100019e-05
1681917731.555383,-0.0028222200714463483,-5.99943198762969e-06,0.0,0.002336876931705192,-9.58163828715361e-06,1.1987955917100019e-05,1.1987955917100019e-05
1681917731.557881,-0.0028222200714463483,-5.99943198762969e-06,0.0,0.002336876931705192,-9.58163828715361e-06,1.1987955917100019e-05,1.1987955917100019e-05
1681917731.560397,-0.002930148809118348,5.999575025371092e-06,1.1977333414286306e-05,0.002558633306910696,1.9163733462858767e-05,1.7976908439657312e-05,0.0
1681917731.5628877,-0.002930148809118348,5.999575025371092e-06,1.1977333414286306e-05,0.002558633306910696,1.9163733462858767e-05,1.7976908439657312e-05,0.0
1681917731.5654128,-0.002930148809118348,5.999575025371092e-06,1.1977333414286306e-05,0.002558633306910696,1.9163733462858767e-05,1.7976908439657312e-05,0.0
1681917731.567881,-0.002930148809118348,5.999575025371092e-06,1.1977333414286306e-05,0.002558633306910696,1.9163733462858767e-05,1.7976908439657312e-05,0.0
1681917731.5704427,-0.0031458608020761445,0.0,-5.9886667071431956e-06,0.002570621548643358,-1.9163733462858767e-05,-2.9965150172171517e-05,1.1977333414287577e-05
1681917731.5729396,-0.0031458608020761445,0.0,-5.9886667071431956e-06,0.002570621548643358,-1.9163733462858767e-05,-2.9965150172171517e-05,1.1977333414287577e-05
1681917731.5753868,-0.0031458608020761445,0.0,-5.9886667071431956e-06,0.002570621548643358,-1.9163733462858767e-05,-2.9965150172171517e-05,1.1977333414287577e-05
1681917731.5778878,-0.0030619758349028797,-5.999575025371092e-06,5.9886667071431956e-06,0.0024208067061010103,1.9163733462858767e-05,2.9965150172171517e-05,-2.995424185394489e-05
1681917731.5803807,-0.0030619758349028797,-5.999575025371092e-06,5.9886667071431956e-06,0.0024208067061010103,1.9163733462858767e-05,2.9965150172171517e-05,-2.995424185394489e-05
1681917731.5828474,-0.0030619758349028797,-5.999575025371092e-06,5.9886667071431956e-06,0.0024208067061010103,1.9163733462858767e-05,2.9965150172171517e-05,-2.995424185394489e-05
1681917731.5853813,-0.0030619758349028797,-5.999575025371092e-06,5.9886667071431956e-06,0.0024208067061010103,1.9163733462858767e-05,2.9965150172171517e-05,-2.995424185394489e-05
1681917731.5878723,-0.0030619758349028797,-5.999575025371092e-06,5.9886667071431956e-06,0.0024208067061010103,1.9163733462858767e-05,2.9965150172171517e-05,-2.995424185394489e-05
1681917731.5904136,-0.0020013600535997386,0.0,4.194248358645816e-05,0.002151174896142433,-9.581866731428706e-06,-1.7976908439657312e-05,1.7976908439657312e-05
1681917731.592897,-0.0020013600535997386,0.0,4.194248358645816e-05,0.002151174896142433,-9.581866731428706e-06,-1.7976908439657312e-05,1.7976908439657312e-05
1681917731.5953813,-0.0020013600535997386,0.0,4.194248358645816e-05,0.002151174896142433,-9.581866731428706e-06,-1.7976908439657312e-05,1.7976908439657312e-05
1681917731.5978804,-0.0020013600535997386,0.0,4.194248358645816e-05,0.002151174896142433,-9.581866731428706e-06,-1.7976908439657312e-05,1.7976908439657312e-05
1681917731.600382,-0.0017616824854953053,1.1988241732514203e-05,2.9965150172171687e-05,0.0019654171450384336,0.0,0.0,0.0
1681917731.6028833,-0.0017616824854953053,1.1988241732514203e-05,2.9965150172171687e-05,0.0019654171450384336,0.0,0.0,0.0
1681917731.6053898,-0.0017616824854953053,1.1988241732514203e-05,2.9965150172171687e-05,0.0019654171450384336,0.0,0.0,0.0
1681917731.6078389,-0.0017616824854953053,1.1988241732514203e-05,2.9965150172171687e-05,0.0019654171450384336,0.0,0.0,0.0
1681917731.6103897,-0.0018036358774001049,-5.988666707143111e-06,1.7976908439657482e-05,0.0017616824854953053,0.0,0.0,-1.1988241732514203e-05
1681917731.612881,-0.0018036358774001049,-5.988666707143111e-06,1.7976908439657482e-05,0.0017616824854953053,0.0,0.0,-1.1988241732514203e-05
1681917731.615393,-0.0018036358774001049,-5.988666707143111e-06,1.7976908439657482e-05,0.0017616824854953053,0.0,0.0,-1.1988241732514203e-05
1681917731.6178837,-0.0018036358774001049,-5.988666707143111e-06,1.7976908439657482e-05,0.0017616824854953053,0.0,0.0,-1.1988241732514203e-05
1681917731.6203954,-0.0017017630934690236,5.988666707143111e-06,0.0,0.001683786185029548,9.581866731428706e-06,1.7976908439657312e-05,1.1988241732514203e-05
1681917731.622885,-0.0017017630934690236,5.988666707143111e-06,0.0,0.001683786185029548,9.581866731428706e-06,1.7976908439657312e-05,1.1988241732514203e-05
1681917731.6253831,-0.0017017630934690236,5.988666707143111e-06,0.0,0.001683786185029548,9.581866731428706e-06,1.7976908439657312e-05,1.1988241732514203e-05
1681917731.6278715,-0.0017017630934690236,5.988666707143111e-06,0.0,0.001683786185029548,9.581866731428706e-06,1.7976908439657312e-05,1.1988241732514203e-05
1681917731.6303823,-0.0015639364926593377,-1.1988241732514203e-05,0.0,0.0018815212695475218,-9.581866731428706e-06,5.988666707143111e-06,-5.999575025371092e-06
1681917731.6328838,-0.0015639364926593377,-1.1988241732514203e-05,0.0,0.0018815212695475218,-9.581866731428706e-06,5.988666707143111e-06,-5.999575025371092e-06
1681917731.6353812,-0.0015639364926593377,-1.1988241732514203e-05,0.0,0.0018815212695475218,-9.581866731428706e-06,5.988666707143111e-06,-5.999575025371092e-06
1681917731.6378815,-0.0015639364926593377,-1.1988241732514203e-05,0.0,0.0018815212695475218,-9.581866731428706e-06,5.988666707143111e-06,-5.999575025371092e-06
1681917731.640401,-0.0014081548000454693,5.999575025371092e-06,-4.794205861182917e-05,0.0021811291379965772,1.918118677202164e-05,-2.3965575146800423e-05,1.7976908439658668e-05
1681917731.6428807,-0.0014081548000454693,5.999575025371092e-06,-4.794205861182917e-05,0.0021811291379965772,1.918118677202164e-05,-2.3965575146800423e-05,1.7976908439658668e-05
1681917731.6453855,-0.0014081548000454693,5.999575025371092e-06,-4.794205861182917e-05,0.0021811291379965772,1.918118677202164e-05,-2.3965575146800423e-05,1.7976908439658668e-05
1681917731.6478844,-0.0013182593495294035,-5.999575025371092e-06,-4.7931150293601355e-05,0.0024987139148847613,-1.918118677202164e-05,2.3965575146800423e-05,-1.7976908439658668e-05
1681917731.650388,-0.0013182593495294035,-5.999575025371092e-06,-4.7931150293601355e-05,0.0024987139148847613,-1.918118677202164e-05,2.3965575146800423e-05,-1.7976908439658668e-05
1681917731.652876,-0.0013182593495294035,-5.999575025371092e-06,-4.7931150293601355e-05,0.0024987139148847613,-1.918118677202164e-05,2.3965575146800423e-05,-1.7976908439658668e-05
1681917731.6553886,-0.0013182593495294035,-5.999575025371092e-06,-4.7931150293601355e-05,0.0024987139148847613,-1.918118677202164e-05,2.3965575146800423e-05,-1.7976908439658668e-05
1681917731.6578898,-0.0013182593495294035,-5.999575025371092e-06,-4.7931150293601355e-05,0.0024987139148847613,-1.918118677202164e-05,2.3965575146800423e-05,-1.7976908439658668e-05
1681917731.6603806,-0.001318270257847397,0.0,-1.1988241732514288e-05,0.0024807370064449386,9.581866731428706e-06,-1.7976908439657312e-05,-5.988666707143111e-06
1681917731.6628838,-0.001318270257847397,0.0,-1.1988241732514288e-05,0.0024807370064449386,9.581866731428706e-06,-1.7976908439657312e-05,-5.988666707143111e-06
1681917731.6654088,-0.001318270257847397,0.0,-1.1988241732514288e-05,0.0024807370064449386,9.581866731428706e-06,-1.7976908439657312e-05,-5.988666707143111e-06
1681917731.6678977,-0.001318270257847397,0.0,-1.1988241732514288e-05,0.0024807370064449386,9.581866731428706e-06,-1.7976908439657312e-05,-5.988666707143111e-06
1681917731.6703923,-0.0013781787415553383,0.0,5.999575025371177e-06,0.0024507827645911416,-9.581866731428706e-06,-5.988666707143111e-06,1.1988241732514203e-05
1681917731.6728806,-0.0013781787415553383,0.0,5.999575025371177e-06,0.0024507827645911416,-9.581866731428706e-06,-5.988666707143111e-06,1.1988241732514203e-05
1681917731.675381,-0.0013781787415553383,0.0,5.999575025371177e-06,0.0024507827645911416,-9.581866731428706e-06,-5.988666707143111e-06,1.1988241732514203e-05
1681917731.6779048,-0.0013781787415553383,0.0,5.999575025371177e-06,0.0024507827645911416,-9.581866731428706e-06,-5.988666707143111e-06,1.1988241732514203e-05
1681917731.6803887,-0.0014441086169251147,0.0,-3.5953816879314964e-05,0.0024268062811261646,0.0,0.0,-1.1988241732514203e-05
1681917731.682889,-0.0014441086169251147,0.0,-3.5953816879314964e-05,0.0024268062811261646,0.0,0.0,-1.1988241732514203e-05
1681917731.685396,-0.0014441086169251147,0.0,-3.5953816879314964e-05,0.0024268062811261646,0.0,0.0,-1.1988241732514203e-05
1681917731.6879141,-0.0014441086169251147,0.0,-3.5953816879314964e-05,0.0024268062811261646,0.0,0.0,-1.1988241732514203e-05
1681917731.6904154,-0.0015459595842195152,5.999575025371092e-06,5.9886667071431956e-06,0.002253036771755174,-9.581866731430061e-06,1.7976908439657312e-05,2.396557514680178e-05
1681917731.692883,-0.0015459595842195152,5.999575025371092e-06,5.9886667071431956e-06,0.002253036771755174,-9.581866731430061e-06,1.7976908439657312e-05,2.396557514680178e-05
1681917731.6953857,-0.0015459595842195152,5.999575025371092e-06,5.9886667071431956e-06,0.002253036771755174,-9.581866731430061e-06,1.7976908439657312e-05,2.396557514680178e-05
1681917731.6978593,-0.0015459595842195152,5.999575025371092e-06,5.9886667071431956e-06,0.002253036771755174,-9.581866731430061e-06,1.7976908439657312e-05,2.396557514680178e-05
1681917731.7003877,-0.0017197400019088461,-1.1988241732514203e-05,-1.1988241732514288e-05,0.002079256354065496,9.581866731430061e-06,-1.7976908439657312e-05,1.1988241732514203e-05
1681917731.7028968,-0.0017197400019088461,-1.1988241732514203e-05,-1.1988241732514288e-05,0.002079256354065496,9.581866731430061e-06,-1.7976908439657312e-05,1.1988241732514203e-05
1681917731.7053812,-0.0017197400019088461,-1.1988241732514203e-05,-1.1988241732514288e-05,0.002079256354065496,9.581866731430061e-06,-1.7976908439657312e-05,1.1988241732514203e-05
1681917731.7078824,-0.0017197400019088461,-1.1988241732514203e-05,-1.1988241732514288e-05,0.002079256354065496,9.581866731430061e-06,-1.7976908439657312e-05,1.1988241732514203e-05
1681917731.7103825,-0.0019594284783312726,0.0,5.999575025371092e-06,0.001899509086305338,9.581866731428706e-06,1.7976908439657312e-05,-3.595381687931598e-05
1681917731.712881,-0.0019594284783312726,0.0,5.999575025371092e-06,0.001899509086305338,9.581866731428706e-06,1.7976908439657312e-05,-3.595381687931598e-05
1681917731.7153857,-0.0019594284783312726,0.0,5.999575025371092e-06,0.001899509086305338,9.581866731428706e-06,1.7976908439657312e-05,-3.595381687931598e-05
1681917731.7178833,-0.0019594284783312726,0.0,5.999575025371092e-06,0.001899509086305338,9.581866731428706e-06,1.7976908439657312e-05,-3.595381687931598e-05
1681917731.7204316,-0.002073267687358335,5.988666707143111e-06,0.0,0.001725728668616007,0.0,-1.1988241732514203e-05,1.1988241732514203e-05
1681917731.7229378,-0.002073267687358335,5.988666707143111e-06,0.0,0.001725728668616007,0.0,-1.1988241732514203e-05,1.1988241732514203e-05
1681917731.7253964,-0.002073267687358335,5.988666707143111e-06,0.0,0.001725728668616007,0.0,-1.1988241732514203e-05,1.1988241732514203e-05
1681917731.7278817,-0.002073267687358335,5.988666707143111e-06,0.0,0.001725728668616007,0.0,-1.1988241732514203e-05,1.1988241732514203e-05
1681917731.7303715,-0.0022350598633153512,-5.988666707143111e-06,1.1977333414286391e-05,0.001713740426883345,-1.9163733462858767e-05,1.1988241732514203e-05,0.0
1681917731.7329438,-0.0022350598633153512,-5.988666707143111e-06,1.1977333414286391e-05,0.001713740426883345,-1.9163733462858767e-05,1.1988241732514203e-05,0.0
1681917731.7354445,-0.0022350598633153512,-5.988666707143111e-06,1.1977333414286391e-05,0.001713740426883345,-1.9163733462858767e-05,1.1988241732514203e-05,0.0
1681917731.737961,-0.0022350598633153512,-5.988666707143111e-06,1.1977333414286391e-05,0.001713740426883345,-1.9163733462858767e-05,1.1988241732514203e-05,0.0
1681917731.740475,-0.00231895573880661,5.988666707143111e-06,1.1988241732514288e-05,0.002067289928969515,1.9163733462858767e-05,5.988666707143111e-06,0.0
1681917731.7429438,-0.00231895573880661,5.988666707143111e-06,1.1988241732514288e-05,0.002067289928969515,1.9163733462858767e-05,5.988666707143111e-06,0.0
1681917731.7454398,-0.00231895573880661,5.988666707143111e-06,1.1988241732514288e-05,0.002067289928969515,1.9163733462858767e-05,5.988666707143111e-06,0.0
1681917731.7479422,-0.00231895573880661,5.988666707143111e-06,1.1988241732514288e-05,0.002067289928969515,1.9163733462858767e-05,5.988666707143111e-06,0.0
1681917731.750454,-0.0022770023469018104,-5.988666707143111e-06,0.0,0.0024747374314197843,-1.9163733462858767e-05,-1.7976908439657312e-05,0.0
1681917731.7529411,-0.0022770023469018104,-5.988666707143111e-06,0.0,0.0024747374314197843,-1.9163733462858767e-05,-1.7976908439657312e-05,0.0
1681917731.755381,-0.0022770023469018104,-5.988666707143111e-06,0.0,0.0024747374314197843,-1.9163733462858767e-05,-1.7976908439657312e-05,0.0
1681917731.7578826,-0.0022770023469018104,-5.988666707143111e-06,0.0,0.0024747374314197843,-1.9163733462858767e-05,-1.7976908439657312e-05,0.0
1681917731.7604694,-0.0021451753211169317,5.988666707143111e-06,1.7976908439657397e-05,0.0026305409406696396,1.9163733462858767e-05,1.7976908439657312e-05,-5.999575025371092e-06
1681917731.762985,-0.0021451753211169317,5.988666707143111e-06,1.7976908439657397e-05,0.0026305409406696396,1.9163733462858767e-05,1.7976908439657312e-05,-5.999575025371092e-06
1681917731.7654397,-0.0021451753211169317,5.988666707143111e-06,1.7976908439657397e-05,0.0026305409406696396,1.9163733462858767e-05,1.7976908439657312e-05,-5.999575025371092e-06
1681917731.76794,-0.0021451753211169317,5.988666707143111e-06,1.7976908439657397e-05,0.0026305409406696396,1.9163733462858767e-05,1.7976908439657312e-05,-5.999575025371092e-06
1681917731.770441,-0.0020672790206511743,-1.7976908439657312e-05,-1.7976908439657397e-05,0.002678482999281253,-1.9163733462858767e-05,-2.3965575146800423e-05,1.7976908439658668e-05
1681917731.7729466,-0.0020672790206511743,-1.7976908439657312e-05,-1.7976908439657397e-05,0.002678482999281253,-1.9163733462858767e-05,-2.3965575146800423e-05,1.7976908439658668e-05
1681917731.775455,-0.0020672790206511743,-1.7976908439657312e-05,-1.7976908439657397e-05,0.002678482999281253,-1.9163733462858767e-05,-2.3965575146800423e-05,1.7976908439658668e-05
1681917731.7779467,-0.0020672790206511743,-1.7976908439657312e-05,-1.7976908439657397e-05,0.002678482999281253,-1.9163733462858767e-05,-2.3965575146800423e-05,1.7976908439658668e-05
1681917731.780475,-0.0020912555041161514,1.7976908439657312e-05,0.0,0.002618552698936978,9.581866731430061e-06,2.3965575146800423e-05,-2.396557514680178e-05
1681917731.7829158,-0.0020912555041161514,1.7976908439657312e-05,0.0,0.002618552698936978,9.581866731430061e-06,2.3965575146800423e-05,-2.396557514680178e-05
1681917731.785459,-0.0020912555041161514,1.7976908439657312e-05,0.0,0.002618552698936978,9.581866731430061e-06,2.3965575146800423e-05,-2.396557514680178e-05
1681917731.7880225,-0.0020912555041161514,1.7976908439657312e-05,0.0,0.002618552698936978,9.581866731430061e-06,2.3965575146800423e-05,-2.396557514680178e-05
1681917731.7903864,-0.0021751404712894162,-5.988666707143111e-06,0.0,0.002492714339859607,9.581866731428706e-06,5.988666707143111e-06,2.396557514680178e-05
1681917731.7929718,-0.0021751404712894162,-5.988666707143111e-06,0.0,0.002492714339859607,9.581866731428706e-06,5.988666707143111e-06,2.396557514680178e-05
1681917731.7954924,-0.0021751404712894162,-5.988666707143111e-06,0.0,0.002492714339859607,9.581866731428706e-06,5.988666707143111e-06,2.396557514680178e-05
1681917731.7979586,-0.0021751404712894162,-5.988666707143111e-06,0.0,0.002492714339859607,9.581866731428706e-06,5.988666707143111e-06,2.396557514680178e-05
1681917731.8004105,-0.0022409951004847945,0.0,-1.1987955917100104e-05,0.002414771375020929,-9.581638287152255e-06,-1.1977047858940658e-05,-5.988523929471684e-06
1681917731.802967,-0.0022409951004847945,0.0,-1.1987955917100104e-05,0.002414771375020929,-9.581638287152255e-06,-1.1977047858940658e-05,-5.988523929471684e-06
1681917731.8054478,-0.0022409951004847945,0.0,-1.1987955917100104e-05,0.002414771375020929,-9.581638287152255e-06,-1.1977047858940658e-05,-5.988523929471684e-06
1681917731.807948,-0.0022409951004847945,0.0,-1.1987955917100104e-05,0.002414771375020929,-9.581638287152255e-06,-1.1977047858940658e-05,-5.988523929471684e-06
1681917731.81047,-0.002432794947833325,0.0,-1.1977333414286391e-05,0.002169140896263568,9.581866731428706e-06,-1.7976908439657312e-05,5.988666707144466e-06
1681917731.8129597,-0.002432794947833325,0.0,-1.1977333414286391e-05,0.002169140896263568,9.581866731428706e-06,-1.7976908439657312e-05,5.988666707144466e-06
1681917731.815455,-0.002432794947833325,0.0,-1.1977333414286391e-05,0.002169140896263568,9.581866731428706e-06,-1.7976908439657312e-05,5.988666707144466e-06
1681917731.817946,-0.002432794947833325,0.0,-1.1977333414286391e-05,0.002169140896263568,9.581866731428706e-06,-1.7976908439657312e-05,5.988666707144466e-06
1681917731.8204548,-0.0025406673067892138,5.988666707143111e-06,-5.999575025371092e-06,0.0020013709619180788,-9.581866731428706e-06,1.7976908439657312e-05,-3.595381687931598e-05
1681917731.822882,-0.0025406673067892138,5.988666707143111e-06,-5.999575025371092e-06,0.0020013709619180788,-9.581866731428706e-06,1.7976908439657312e-05,-3.595381687931598e-05
1681917731.825479,-0.0025406673067892138,5.988666707143111e-06,-5.999575025371092e-06,0.0020013709619180788,-9.581866731428706e-06,1.7976908439657312e-05,-3.595381687931598e-05
1681917731.8279006,-0.0025825988820576793,0.0,0.0,0.002025336537064715,9.581866731428706e-06,0.0,1.7976908439657312e-05
1681917731.8304543,-0.0025825988820576793,0.0,0.0,0.002025336537064715,9.581866731428706e-06,0.0,1.7976908439657312e-05
1681917731.8328807,-0.0025825988820576793,0.0,0.0,0.002025336537064715,9.581866731428706e-06,0.0,1.7976908439657312e-05
1681917731.835439,-0.0025825988820576793,0.0,0.0,0.002025336537064715,9.581866731428706e-06,0.0,1.7976908439657312e-05
1681917731.837961,-0.0025825988820576793,0.0,0.0,0.002025336537064715,9.581866731428706e-06,0.0,1.7976908439657312e-05
1681917731.8404727,-0.0026485178491094624,-5.988666707143111e-06,0.0,0.0021451753211172786,-1.9163733462858767e-05,1.1977333414286222e-05,1.7976908439658668e-05
1681917731.8429492,-0.0026485178491094624,-5.988666707143111e-06,0.0,0.0021451753211172786,-1.9163733462858767e-05,1.1977333414286222e-05,1.7976908439658668e-05
1681917731.8454192,-0.0026485178491094624,-5.988666707143111e-06,0.0,0.0021451753211172786,-1.9163733462858767e-05,1.1977333414286222e-05,1.7976908439658668e-05
1681917731.8479464,-0.0026485178491094624,-5.988666707143111e-06,0.0,0.0021451753211172786,-1.9163733462858767e-05,1.1977333414286222e-05,1.7976908439658668e-05
1681917731.8504167,-0.0026365296073764537,0.0,-5.9886667071431956e-06,0.002265025013487489,0.0,0.0,-2.995424185394489e-05
1681917731.8529558,-0.0026365296073764537,0.0,-5.9886667071431956e-06,0.002265025013487489,0.0,0.0,-2.995424185394489e-05
1681917731.8553834,-0.0026365296073764537,0.0,-5.9886667071431956e-06,0.002265025013487489,0.0,0.0,-2.995424185394489e-05
1681917731.85788,-0.0026844716659887606,0.0,-5.9886667071431956e-06,0.002336921738927745,-9.599320040592935e-06,-2.9954241853943534e-05,1.7976908439657312e-05
1681917731.8605027,-0.0026844716659887606,0.0,-5.9886667071431956e-06,0.002336921738927745,-9.599320040592935e-06,-2.9954241853943534e-05,1.7976908439657312e-05
1681917731.8628855,-0.0026844716659887606,0.0,-5.9886667071431956e-06,0.002336921738927745,-9.599320040592935e-06,-2.9954241853943534e-05,1.7976908439657312e-05
1681917731.8655322,-0.0026844716659887606,0.0,-5.9886667071431956e-06,0.002336921738927745,-9.599320040592935e-06,-2.9954241853943534e-05,1.7976908439657312e-05
1681917731.8679872,-0.0026844716659887606,0.0,-5.9886667071431956e-06,0.002336921738927745,-9.599320040592935e-06,-2.9954241853943534e-05,1.7976908439657312e-05
1681917731.870447,-0.0028702185087737257,5.988666707143111e-06,1.7976908439657482e-05,0.0021152210792631347,1.9181186772022996e-05,0.0,5.988666707143111e-06
1681917731.8729231,-0.0028702185087737257,5.988666707143111e-06,1.7976908439657482e-05,0.0021152210792631347,1.9181186772022996e-05,0.0,5.988666707143111e-06
1681917731.8754404,-0.0028702185087737257,5.988666707143111e-06,1.7976908439657482e-05,0.0021152210792631347,1.9181186772022996e-05,0.0,5.988666707143111e-06
1681917731.8779402,-0.0028702185087737257,5.988666707143111e-06,1.7976908439657482e-05,0.0021152210792631347,1.9181186772022996e-05,0.0,5.988666707143111e-06
1681917731.88047,-0.0030739640766358884,-5.988666707143111e-06,-5.999575025371092e-06,0.0018695439361332005,-9.581866731430061e-06,0.0,5.988666707144466e-06
1681917731.882879,-0.0030739640766358884,-5.988666707143111e-06,-5.999575025371092e-06,0.0018695439361332005,-9.581866731430061e-06,0.0,5.988666707144466e-06
1681917731.8854249,-0.0030739640766358884,-5.988666707143111e-06,-5.999575025371092e-06,0.0018695439361332005,-9.581866731430061e-06,0.0,5.988666707144466e-06
1681917731.887887,-0.0030739640766358884,-5.988666707143111e-06,-5.999575025371092e-06,0.0018695439361332005,-9.581866731430061e-06,0.0,5.988666707144466e-06
1681917731.890512,-0.0031638377105156204,-5.988666707143111e-06,1.7976908439657482e-05,0.0018395787859610626,0.0,2.9954241853943534e-05,0.0
1681917731.892939,-0.0031638377105156204,-5.988666707143111e-06,1.7976908439657482e-05,0.0018395787859610626,0.0,2.9954241853943534e-05,0.0
1681917731.895441,-0.0031638377105156204,-5.988666707143111e-06,1.7976908439657482e-05,0.0018395787859610626,0.0,2.9954241853943534e-05,0.0
1681917731.897986,-0.0031638377105156204,-5.988666707143111e-06,1.7976908439657482e-05,0.0018395787859610626,0.0,2.9954241853943534e-05,0.0
1681917731.9004605,-0.0031638377105156204,-5.999575025371092e-06,-1.1977333414286391e-05,0.001725728668616007,0.0,-1.1977333414286222e-05,0.0
1681917731.902979,-0.0031638377105156204,-5.999575025371092e-06,-1.1977333414286391e-05,0.001725728668616007,0.0,-1.1977333414286222e-05,0.0
1681917731.9054656,-0.0031638377105156204,-5.999575025371092e-06,-1.1977333414286391e-05,0.001725728668616007,0.0,-1.1977333414286222e-05,0.0
1681917731.9079628,-0.0031638377105156204,-5.999575025371092e-06,-1.1977333414286391e-05,0.001725728668616007,0.0,-1.1977333414286222e-05,0.0
1681917731.9104402,-0.002696448999402735,5.999575025371092e-06,1.7976908439657482e-05,0.0016418437014430888,1.9163733462858767e-05,1.1977333414286222e-05,-1.1977333414287577e-05
1681917731.9128811,-0.002696448999402735,5.999575025371092e-06,1.7976908439657482e-05,0.0016418437014430888,1.9163733462858767e-05,1.1977333414286222e-05,-1.1977333414287577e-05
1681917731.9153838,-0.002696448999402735,5.999575025371092e-06,1.7976908439657482e-05,0.0016418437014430888,1.9163733462858767e-05,1.1977333414286222e-05,-1.1977333414287577e-05
1681917731.9179854,-0.002696448999402735,5.999575025371092e-06,1.7976908439657482e-05,0.0016418437014430888,1.9163733462858767e-05,1.1977333414286222e-05,-1.1977333414287577e-05
1681917731.9203818,-0.001468074192071751,0.0,1.7976908439657482e-05,0.0015339822508048466,0.0,-2.9954241853943534e-05,1.7976908439658668e-05
1681917731.9228587,-0.001468074192071751,0.0,1.7976908439657482e-05,0.0015339822508048466,0.0,-2.9954241853943534e-05,1.7976908439658668e-05
1681917731.9254603,-0.001468074192071751,0.0,1.7976908439657482e-05,0.0015339822508048466,0.0,-2.9954241853943534e-05,1.7976908439658668e-05
1681917731.9279833,-0.001468074192071751,0.0,1.7976908439657482e-05,0.0015339822508048466,0.0,-2.9954241853943534e-05,1.7976908439658668e-05
1681917731.9304588,-0.0014860401921932334,-5.999575025371092e-06,4.1942483586458074e-05,0.0018635443611080462,-1.9163733462858767e-05,1.7976908439657312e-05,-2.9965150172172873e-05
1681917731.9329588,-0.0014860401921932334,-5.999575025371092e-06,4.1942483586458074e-05,0.0018635443611080462,-1.9163733462858767e-05,1.7976908439657312e-05,-2.9965150172172873e-05
1681917731.9354415,-0.0014860401921932334,-5.999575025371092e-06,4.1942483586458074e-05,0.0018635443611080462,-1.9163733462858767e-05,1.7976908439657312e-05,-2.9965150172172873e-05
1681917731.9379559,-0.0014860401921932334,-5.999575025371092e-06,4.1942483586458074e-05,0.0018635443611080462,-1.9163733462858767e-05,1.7976908439657312e-05,-2.9965150172172873e-05
1681917731.9405007,-0.0014201321334601379,1.1988241732514203e-05,1.7976908439657482e-05,0.002324944405513424,0.0,-1.1988241732514203e-05,2.396557514680178e-05
1681917731.9429355,-0.0014201321334601379,1.1988241732514203e-05,1.7976908439657482e-05,0.002324944405513424,0.0,-1.1988241732514203e-05,2.396557514680178e-05
1681917731.9454203,-0.0014201321334601379,1.1988241732514203e-05,1.7976908439657482e-05,0.002324944405513424,0.0,-1.1988241732514203e-05,2.396557514680178e-05
1681917731.947882,-0.0014201321334601379,1.1988241732514203e-05,1.7976908439657482e-05,0.002324944405513424,0.0,-1.1988241732514203e-05,2.396557514680178e-05
1681917731.9503837,-0.0012403739573816396,-1.1988241732514203e-05,0.0,0.0026065753655230032,1.9163733462858767e-05,-5.988666707143111e-06,-2.396557514680178e-05
1681917731.9528763,-0.0012403739573816396,-1.1988241732514203e-05,0.0,0.0026065753655230032,1.9163733462858767e-05,-5.988666707143111e-06,-2.396557514680178e-05
1681917731.9553826,-0.0012403739573816396,-1.1988241732514203e-05,0.0,0.0026065753655230032,1.9163733462858767e-05,-5.988666707143111e-06,-2.396557514680178e-05
1681917731.9579613,-0.0012403739573816396,-1.1988241732514203e-05,0.0,0.0026065753655230032,1.9163733462858767e-05,-5.988666707143111e-06,-2.396557514680178e-05
1681917731.9604704,-0.0011504785068652266,5.999575025371092e-06,-2.996515017217177e-05,0.002762357058135831,-9.581866731428706e-06,-1.1988241732514203e-05,1.1988241732514203e-05
1681917731.96294,-0.0011504785068652266,5.999575025371092e-06,-2.996515017217177e-05,0.002762357058135831,-9.581866731428706e-06,-1.1988241732514203e-05,1.1988241732514203e-05
1681917731.9654686,-0.0011504785068652266,5.999575025371092e-06,-2.996515017217177e-05,0.002762357058135831,-9.581866731428706e-06,-1.1988241732514203e-05,1.1988241732514203e-05
1681917731.9679415,-0.0011504785068652266,5.999575025371092e-06,-2.996515017217177e-05,0.002762357058135831,-9.581866731428706e-06,-1.1988241732514203e-05,1.1988241732514203e-05
1681917731.970451,-0.0010066741476660267,-5.999575025371092e-06,-2.9954241853943788e-05,0.0027623679664545184,0.0,2.9965150172171517e-05,1.7976908439658668e-05
1681917731.9729655,-0.0010066741476660267,-5.999575025371092e-06,-2.9954241853943788e-05,0.0027623679664545184,0.0,2.9965150172171517e-05,1.7976908439658668e-05
1681917731.9754508,-0.0010066741476660267,-5.999575025371092e-06,-2.9954241853943788e-05,0.0027623679664545184,0.0,2.9965150172171517e-05,1.7976908439658668e-05
1681917731.9778793,-0.0008508815467348587,0.0,-3.5953816879314964e-05,0.0026485178491091155,9.581866731428706e-06,-1.1988241732514203e-05,-2.3976483465029762e-05
1681917731.9804866,-0.0008508815467348587,0.0,-3.5953816879314964e-05,0.0026485178491091155,9.581866731428706e-06,-1.1988241732514203e-05,-2.3976483465029762e-05
1681917731.982955,-0.0008508815467348587,0.0,-3.5953816879314964e-05,0.0026485178491091155,9.581866731428706e-06,-1.1988241732514203e-05,-2.3976483465029762e-05
1681917731.9854527,-0.0008508815467348587,0.0,-3.5953816879314964e-05,0.0026485178491091155,9.581866731428706e-06,-1.1988241732514203e-05,-2.3976483465029762e-05
1681917731.9880147,-0.0008508815467348587,0.0,-3.5953816879314964e-05,0.0026485178491091155,9.581866731428706e-06,-1.1988241732514203e-05,-2.3976483465029762e-05
1681917731.9904215,-0.0007610079128544328,1.1988241732514203e-05,-2.996515017217177e-05,0.002504702581591922,0.0,1.1988241732514203e-05,-5.988666707143111e-06
1681917731.992945,-0.0007610079128544328,1.1988241732514203e-05,-2.996515017217177e-05,0.002504702581591922,0.0,1.1988241732514203e-05,-5.988666707143111e-06
1681917731.9954455,-0.0007610079128544328,1.1988241732514203e-05,-2.996515017217177e-05,0.002504702581591922,0.0,1.1988241732514203e-05,-5.988666707143111e-06
1681917731.9979746,-0.0007610079128544328,1.1988241732514203e-05,-2.996515017217177e-05,0.002504702581591922,0.0,1.1988241732514203e-05,-5.988666707143111e-06
1681917732.0003877,-0.0007849625796830758,0.0,-1.1988241732514288e-05,0.0020612903539440138,0.0,5.988666707143111e-06,0.0
1681917732.0028727,-0.0007849625796830758,0.0,-1.1988241732514288e-05,0.0020612903539440138,0.0,5.988666707143111e-06,0.0
1681917732.0054898,-0.0007849625796830758,0.0,-1.1988241732514288e-05,0.0020612903539440138,0.0,5.988666707143111e-06,0.0
1681917732.0079856,-0.0007849625796830758,0.0,-1.1988241732514288e-05,0.0020612903539440138,0.0,5.988666707143111e-06,0.0
1681917732.0104465,-0.0008448928800273511,-1.1988241732514203e-05,0.0,0.001887520844573023,0.0,5.988666707143111e-06,2.396557514680178e-05
1681917732.0129623,-0.0008448928800273511,-1.1988241732514203e-05,0.0,0.001887520844573023,0.0,5.988666707143111e-06,2.396557514680178e-05
1681917732.0155041,-0.0008448928800273511,-1.1988241732514203e-05,0.0,0.001887520844573023,0.0,5.988666707143111e-06,2.396557514680178e-05
1681917732.017998,-0.0008448928800273511,-1.1988241732514203e-05,0.0,0.001887520844573023,0.0,5.988666707143111e-06,2.396557514680178e-05
1681917732.020442,-0.001306282016115082,1.1988241732514203e-05,-1.7966000121429502e-05,0.0018695439361332005,0.0,-1.1977333414286222e-05,-1.1977333414287577e-05
1681917732.0228815,-0.001306282016115082,1.1988241732514203e-05,-1.7966000121429502e-05,0.0018695439361332005,0.0,-1.1977333414286222e-05,-1.1977333414287577e-05
1681917732.0254436,-0.001306282016115082,1.1988241732514203e-05,-1.7966000121429502e-05,0.0018695439361332005,0.0,-1.1977333414286222e-05,-1.1977333414287577e-05
1681917732.027958,-0.001306282016115082,1.1988241732514203e-05,-1.7966000121429502e-05,0.0018695439361332005,0.0,-1.1977333414286222e-05,-1.1977333414287577e-05
1681917732.030422,-0.0018036249690817645,-1.1988241732514203e-05,-1.1988241732514288e-05,0.00196540623672044,0.0,-1.1988241732514203e-05,-1.7976908439657312e-05
1681917732.0329592,-0.0018036249690817645,-1.1988241732514203e-05,-1.1988241732514288e-05,0.00196540623672044,0.0,-1.1988241732514203e-05,-1.7976908439657312e-05
1681917732.0354786,-0.0018036249690817645,-1.1988241732514203e-05,-1.1988241732514288e-05,0.00196540623672044,0.0,-1.1988241732514203e-05,-1.7976908439657312e-05
1681917732.0379949,-0.0018036249690817645,-1.1988241732514203e-05,-1.1988241732514288e-05,0.00196540623672044,0.0,-1.1988241732514203e-05,-1.7976908439657312e-05
1681917732.0405064,-0.0021271984126771093,0.0,0.0,0.002049313020529692,-1.9163733462858767e-05,1.1988241732514203e-05,2.995424185394489e-05
1681917732.042888,-0.0021271984126771093,0.0,0.0,0.002049313020529692,-1.9163733462858767e-05,1.1988241732514203e-05,2.995424185394489e-05
1681917732.0453866,-0.0021271984126771093,0.0,0.0,0.002049313020529692,-1.9163733462858767e-05,1.1988241732514203e-05,2.995424185394489e-05
1681917732.047888,-0.0021271984126771093,0.0,0.0,0.002049313020529692,-1.9163733462858767e-05,1.1988241732514203e-05,2.995424185394489e-05
1681917732.0503845,-0.0022290180526258188,5.99943198762969e-06,5.9885239294704135e-06,0.002270959536248431,1.9163276574305866e-05,0.0,0.0
1681917732.0529375,-0.0022290180526258188,5.99943198762969e-06,5.9885239294704135e-06,0.002270959536248431,1.9163276574305866e-05,0.0,0.0
1681917732.0554667,-0.0022290180526258188,5.99943198762969e-06,5.9885239294704135e-06,0.002270959536248431,1.9163276574305866e-05,0.0,0.0
1681917732.0579653,-0.0022290180526258188,5.99943198762969e-06,5.9885239294704135e-06,0.002270959536248431,1.9163276574305866e-05,0.0,0.0
1681917732.0604756,-0.0024447831895659873,5.988666707143111e-06,5.999575025371092e-06,0.002510691248299083,0.0,0.0,-1.1977333414287577e-05
1681917732.062948,-0.0024447831895659873,5.988666707143111e-06,5.999575025371092e-06,0.002510691248299083,0.0,0.0,-1.1977333414287577e-05
1681917732.065458,-0.0024447831895659873,5.988666707143111e-06,5.999575025371092e-06,0.002510691248299083,0.0,0.0,-1.1977333414287577e-05
1681917732.0679495,-0.0024447831895659873,5.988666707143111e-06,5.999575025371092e-06,0.002510691248299083,0.0,0.0,-1.1977333414287577e-05
1681917732.0704427,-0.0025286681567385583,-5.988666707143111e-06,-1.1988241732514288e-05,0.002618552698936978,-9.581866731428706e-06,-2.9965150172171517e-05,0.0
1681917732.0729678,-0.0025286681567385583,-5.988666707143111e-06,-1.1988241732514288e-05,0.002618552698936978,-9.581866731428706e-06,-2.9965150172171517e-05,0.0
1681917732.0753884,-0.0025286681567385583,-5.988666707143111e-06,-1.1988241732514288e-05,0.002618552698936978,-9.581866731428706e-06,-2.9965150172171517e-05,0.0
1681917732.077906,-0.0025286681567385583,-5.988666707143111e-06,-1.1988241732514288e-05,0.002618552698936978,-9.581866731428706e-06,-2.9965150172171517e-05,0.0
1681917732.0804677,-0.0025346677317640595,5.988666707143111e-06,1.1988241732514288e-05,0.002288990588634472,9.581866731428706e-06,2.9965150172171517e-05,1.7976908439658668e-05
1681917732.0829616,-0.0025346677317640595,5.988666707143111e-06,1.1988241732514288e-05,0.002288990588634472,9.581866731428706e-06,2.9965150172171517e-05,1.7976908439658668e-05
1681917732.085433,-0.0025346677317640595,5.988666707143111e-06,1.1988241732514288e-05,0.002288990588634472,9.581866731428706e-06,2.9965150172171517e-05,1.7976908439658668e-05
1681917732.087983,-0.0025346677317640595,5.988666707143111e-06,1.1988241732514288e-05,0.002288990588634472,9.581866731428706e-06,2.9965150172171517e-05,1.7976908439658668e-05
1681917732.0904994,-0.002516690823324584,5.988666707143111e-06,0.0,0.0018935095112798369,-9.581866731428706e-06,-1.7976908439657312e-05,-1.7976908439658668e-05
1681917732.0929406,-0.002516690823324584,5.988666707143111e-06,0.0,0.0018935095112798369,-9.581866731428706e-06,-1.7976908439657312e-05,-1.7976908439658668e-05
1681917732.09544,-0.002516690823324584,5.988666707143111e-06,0.0,0.0018935095112798369,-9.581866731428706e-06,-1.7976908439657312e-05,-1.7976908439658668e-05
1681917732.0979512,-0.002516690823324584,5.988666707143111e-06,0.0,0.0018935095112798369,-9.581866731428706e-06,-1.7976908439657312e-05,-1.7976908439658668e-05
1681917732.1004856,-0.00258260979037602,-1.1977333414286222e-05,-5.999575025371092e-06,0.001749705152080984,-9.581866731430061e-06,1.7976908439657312e-05,0.0
1681917732.1029296,-0.00258260979037602,-1.1977333414286222e-05,-5.999575025371092e-06,0.001749705152080984,-9.581866731430061e-06,1.7976908439657312e-05,0.0
1681917732.1054533,-0.00258260979037602,-1.1977333414286222e-05,-5.999575025371092e-06,0.001749705152080984,-9.581866731430061e-06,1.7976908439657312e-05,0.0
1681917732.1079848,-0.00258260979037602,-1.1977333414286222e-05,-5.999575025371092e-06,0.001749705152080984,-9.581866731430061e-06,1.7976908439657312e-05,0.0
1681917732.1103818,-0.0024807370064449386,0.0,-5.9886667071431956e-06,0.0016538210348574101,9.581866731430061e-06,0.0,1.1977333414287577e-05
1681917732.1128953,-0.0024807370064449386,0.0,-5.9886667071431956e-06,0.0016538210348574101,9.581866731430061e-06,0.0,1.1977333414287577e-05
1681917732.1154432,-0.0024807370064449386,0.0,-5.9886667071431956e-06,0.0016538210348574101,9.581866731430061e-06,0.0,1.1977333414287577e-05
1681917732.1179683,-0.0024807370064449386,0.0,-5.9886667071431956e-06,0.0016538210348574101,9.581866731430061e-06,0.0,1.1977333414287577e-05
1681917732.1204853,-0.0024627600980054627,0.0,2.3965575146800677e-05,0.0016598206098829113,9.581866731428706e-06,0.0,-1.1977333414287577e-05
1681917732.1229374,-0.0024627600980054627,0.0,2.3965575146800677e-05,0.0016598206098829113,9.581866731428706e-06,0.0,-1.1977333414287577e-05
1681917732.1254408,-0.0024627600980054627,0.0,2.3965575146800677e-05,0.0016598206098829113,9.581866731428706e-06,0.0,-1.1977333414287577e-05
1681917732.127981,-0.0024627600980054627,0.0,2.3965575146800677e-05,0.0016598206098829113,9.581866731428706e-06,0.0,-1.1977333414287577e-05
1681917732.1304493,-0.0024567605229803085,-5.999575025371092e-06,0.0,0.0016837752767112073,0.0,-1.1988241732514203e-05,1.7976908439658668e-05
1681917732.1329505,-0.0024567605229803085,-5.999575025371092e-06,0.0,0.0016837752767112073,0.0,-1.1988241732514203e-05,1.7976908439658668e-05
1681917732.1354144,-0.0024567605229803085,-5.999575025371092e-06,0.0,0.0016837752767112073,0.0,-1.1988241732514203e-05,1.7976908439658668e-05
1681917732.1379073,-0.0024567605229803085,-5.999575025371092e-06,0.0,0.0016837752767112073,0.0,-1.1988241732514203e-05,1.7976908439658668e-05
1681917732.1403918,-0.002474748339737778,1.1988241732514203e-05,-1.1977333414286391e-05,0.0017137513352016855,-9.581866731428706e-06,-5.988666707143111e-06,-5.999575025371092e-06
1681917732.1429574,-0.002474748339737778,1.1988241732514203e-05,-1.1977333414286391e-05,0.0017137513352016855,-9.581866731428706e-06,-5.988666707143111e-06,-5.999575025371092e-06
1681917732.1454303,-0.002474748339737778,1.1988241732514203e-05,-1.1977333414286391e-05,0.0017137513352016855,-9.581866731428706e-06,-5.988666707143111e-06,-5.999575025371092e-06
1681917732.147924,-0.002474748339737778,1.1988241732514203e-05,-1.1977333414286391e-05,0.0017137513352016855,-9.581866731428706e-06,-5.988666707143111e-06,-5.999575025371092e-06
1681917732.1504571,-0.0023129561637811086,-5.988666707143111e-06,0.0,0.0021751404712890693,0.0,0.0,-3.595381687931598e-05
1681917732.15297,-0.0023129561637811086,-5.988666707143111e-06,0.0,0.0021751404712890693,0.0,0.0,-3.595381687931598e-05
1681917732.1554396,-0.0023129561637811086,-5.988666707143111e-06,0.0,0.0021751404712890693,0.0,0.0,-3.595381687931598e-05
1681917732.1579745,-0.0023129561637811086,-5.988666707143111e-06,0.0,0.0021751404712890693,0.0,0.0,-3.595381687931598e-05
1681917732.1604133,-0.002157163562849594,0.0,0.0,0.0025226794900317447,9.581866731428706e-06,-1.1988241732514203e-05,4.195339190468708e-05
1681917732.162979,-0.002157163562849594,0.0,0.0,0.0025226794900317447,9.581866731428706e-06,-1.1988241732514203e-05,4.195339190468708e-05
1681917732.165489,-0.002157163562849594,0.0,0.0,0.0025226794900317447,9.581866731428706e-06,-1.1988241732514203e-05,4.195339190468708e-05
1681917732.1679654,-0.002157163562849594,0.0,0.0,0.0025226794900317447,9.581866731428706e-06,-1.1988241732514203e-05,4.195339190468708e-05
1681917732.1704404,-0.0020133482953324003,-5.999575025371092e-06,0.0,0.002642529182401955,0.0,2.9965150172171517e-05,-1.7976908439658668e-05
1681917732.1729927,-0.0020133482953324003,-5.999575025371092e-06,0.0,0.002642529182401955,0.0,2.9965150172171517e-05,-1.7976908439658668e-05
1681917732.1753852,-0.0020133482953324003,-5.999575025371092e-06,0.0,0.002642529182401955,0.0,2.9965150172171517e-05,-1.7976908439658668e-05
1681917732.1778984,-0.0020133482953324003,-5.999575025371092e-06,0.0,0.002642529182401955,0.0,2.9965150172171517e-05,-1.7976908439658668e-05
1681917732.1804614,-0.002007359628624893,-5.988666707143111e-06,0.0,0.002708437241135397,9.599320040592935e-06,-1.7976908439657312e-05,1.1977333414287577e-05
1681917732.182946,-0.002007359628624893,-5.988666707143111e-06,0.0,0.002708437241135397,9.599320040592935e-06,-1.7976908439657312e-05,1.1977333414287577e-05
1681917732.1854677,-0.002007359628624893,-5.988666707143111e-06,0.0,0.002708437241135397,9.599320040592935e-06,-1.7976908439657312e-05,1.1977333414287577e-05
1681917732.187994,-0.002007359628624893,-5.988666707143111e-06,0.0,0.002708437241135397,9.599320040592935e-06,-1.7976908439657312e-05,1.1977333414287577e-05
1681917732.1904776,-0.002049313020530039,5.988666707143111e-06,5.9886667071431956e-06,0.002654506515816276,-9.599320040592935e-06,5.988666707143111e-06,0.0
1681917732.1929388,-0.002049313020530039,5.988666707143111e-06,5.9886667071431956e-06,0.002654506515816276,-9.599320040592935e-06,5.988666707143111e-06,0.0
1681917732.195442,-0.002049313020530039,5.988666707143111e-06,5.9886667071431956e-06,0.002654506515816276,-9.599320040592935e-06,5.988666707143111e-06,0.0
1681917732.1979902,-0.002049313020530039,5.988666707143111e-06,5.9886667071431956e-06,0.002654506515816276,-9.599320040592935e-06,5.988666707143111e-06,0.0
1681917732.2004886,-0.002031325203771876,-5.988666707143111e-06,-5.9886667071431956e-06,0.0024807370064449386,9.599320040592935e-06,1.1988241732514203e-05,5.999575025371092e-06
1681917732.2029,-0.002031325203771876,-5.988666707143111e-06,-5.9886667071431956e-06,0.0024807370064449386,9.599320040592935e-06,1.1988241732514203e-05,5.999575025371092e-06
1681917732.205402,-0.002031325203771876,-5.988666707143111e-06,-5.9886667071431956e-06,0.0024807370064449386,9.599320040592935e-06,1.1988241732514203e-05,5.999575025371092e-06
1681917732.208002,-0.002031325203771876,-5.988666707143111e-06,-5.9886667071431956e-06,0.0024807370064449386,9.599320040592935e-06,1.1988241732514203e-05,5.999575025371092e-06
1681917732.210424,-0.002019336962039561,5.988666707143111e-06,0.0,0.0021751404712894162,0.0,-1.7976908439657312e-05,0.0
1681917732.2129626,-0.002019336962039561,5.988666707143111e-06,0.0,0.0021751404712894162,0.0,-1.7976908439657312e-05,0.0
1681917732.2154799,-0.002019336962039561,5.988666707143111e-06,0.0,0.0021751404712894162,0.0,-1.7976908439657312e-05,0.0
1681917732.217955,-0.002019336962039561,5.988666707143111e-06,0.0,0.0021751404712894162,0.0,-1.7976908439657312e-05,0.0
1681917732.2204669,-0.0021212097459699483,-5.988666707143111e-06,5.9886667071431956e-06,0.001875532602840361,-9.599320040592935e-06,2.3965575146800423e-05,-5.999575025371092e-06
1681917732.22294,-0.0021212097459699483,-5.988666707143111e-06,5.9886667071431956e-06,0.001875532602840361,-9.599320040592935e-06,2.3965575146800423e-05,-5.999575025371092e-06
1681917732.2254515,-0.0021212097459699483,-5.988666707143111e-06,5.9886667071431956e-06,0.001875532602840361,-9.599320040592935e-06,2.3965575146800423e-05,-5.999575025371092e-06
1681917732.228018,-0.0021212097459699483,-5.988666707143111e-06,5.9886667071431956e-06,0.001875532602840361,-9.599320040592935e-06,2.3965575146800423e-05,-5.999575025371092e-06
1681917732.2304637,-0.0022051056214615543,1.1988241732514203e-05,-2.996515017217177e-05,0.0018875099362546826,-9.581866731428706e-06,-5.988666707143111e-06,5.999575025371092e-06
1681917732.2329416,-0.0022051056214615543,1.1988241732514203e-05,-2.996515017217177e-05,0.0018875099362546826,-9.581866731428706e-06,-5.988666707143111e-06,5.999575025371092e-06
1681917732.2354496,-0.0022051056214615543,1.1988241732514203e-05,-2.996515017217177e-05,0.0018875099362546826,-9.581866731428706e-06,-5.988666707143111e-06,5.999575025371092e-06
1681917732.237897,-0.0022051056214615543,1.1988241732514203e-05,-2.996515017217177e-05,0.0018875099362546826,-9.581866731428706e-06,-5.988666707143111e-06,5.999575025371092e-06
1681917732.2403872,-0.0022050947131428667,-5.999575025371092e-06,0.0,0.001899509086305338,9.581866731428706e-06,0.0,-1.7976908439658668e-05
1681917732.2428825,-0.0022050947131428667,-5.999575025371092e-06,0.0,0.001899509086305338,9.581866731428706e-06,0.0,-1.7976908439658668e-05
1681917732.2453804,-0.0022050947131428667,-5.999575025371092e-06,0.0,0.001899509086305338,9.581866731428706e-06,0.0,-1.7976908439658668e-05
1681917732.247885,-0.0022050947131428667,-5.999575025371092e-06,0.0,0.001899509086305338,9.581866731428706e-06,0.0,-1.7976908439658668e-05
1681917732.250457,-0.0022290711966081907,-1.1977333414286222e-05,-5.9886667071431956e-06,0.0018875099362546826,9.599320040592935e-06,-1.7976908439657312e-05,0.0
1681917732.2530086,-0.0022290711966081907,-1.1977333414286222e-05,-5.9886667071431956e-06,0.0018875099362546826,9.599320040592935e-06,-1.7976908439657312e-05,0.0
1681917732.2554588,-0.0022290711966081907,-1.1977333414286222e-05,-5.9886667071431956e-06,0.0018875099362546826,9.599320040592935e-06,-1.7976908439657312e-05,0.0
1681917732.257877,-0.0022290711966081907,-1.1977333414286222e-05,-5.9886667071431956e-06,0.0018875099362546826,9.599320040592935e-06,-1.7976908439657312e-05,0.0
1681917732.2604258,-0.0022710136801946494,1.7976908439657312e-05,1.7976908439657482e-05,0.0020073596286252398,0.0,2.9954241853943534e-05,1.1977333414287577e-05
1681917732.2628794,-0.0022710136801946494,1.7976908439657312e-05,1.7976908439657482e-05,0.0020073596286252398,0.0,2.9954241853943534e-05,1.1977333414287577e-05
1681917732.2653866,-0.0022710136801946494,1.7976908439657312e-05,1.7976908439657482e-05,0.0020073596286252398,0.0,2.9954241853943534e-05,1.1977333414287577e-05
1681917732.2679625,-0.0022710136801946494,1.7976908439657312e-05,1.7976908439657482e-05,0.0020073596286252398,0.0,2.9954241853943534e-05,1.1977333414287577e-05
1681917732.2703936,-0.0022710136801946494,-1.7976908439657312e-05,0.0,0.00208525592909065,-1.918118677202164e-05,-1.1977333414286222e-05,0.0
1681917732.272889,-0.0022710136801946494,-1.7976908439657312e-05,0.0,0.00208525592909065,-1.918118677202164e-05,-1.1977333414286222e-05,0.0
1681917732.2753804,-0.0022710136801946494,-1.7976908439657312e-05,0.0,0.00208525592909065,-1.918118677202164e-05,-1.1977333414286222e-05,0.0
1681917732.2779558,-0.0022710136801946494,-1.7976908439657312e-05,0.0,0.00208525592909065,-1.918118677202164e-05,-1.1977333414286222e-05,0.0
1681917732.2804782,-0.002324944405513771,5.988666707143111e-06,1.1988241732514288e-05,0.0021152210792631347,0.0,0.0,-1.1977333414287577e-05
1681917732.282882,-0.002324944405513771,5.988666707143111e-06,1.1988241732514288e-05,0.0021152210792631347,0.0,0.0,-1.1977333414287577e-05
1681917732.2853808,-0.002324944405513771,5.988666707143111e-06,1.1988241732514288e-05,0.0021152210792631347,0.0,0.0,-1.1977333414287577e-05
1681917732.2878814,-0.002324944405513771,5.988666707143111e-06,1.1988241732514288e-05,0.0021152210792631347,0.0,0.0,-1.1977333414287577e-05
1681917732.2904112,-0.0022230716215826895,-5.988666707143111e-06,-1.1988241732514288e-05,0.0020912555041161514,9.581866731428706e-06,-1.1988241732514203e-05,1.1977333414287577e-05
1681917732.2928822,-0.0022230716215826895,-5.988666707143111e-06,-1.1988241732514288e-05,0.0020912555041161514,9.581866731428706e-06,-1.1988241732514203e-05,1.1977333414287577e-05
1681917732.295391,-0.0022230716215826895,-5.988666707143111e-06,-1.1988241732514288e-05,0.0020912555041161514,9.581866731428706e-06,-1.1988241732514203e-05,1.1977333414287577e-05
1681917732.297891,-0.0022230716215826895,-5.988666707143111e-06,-1.1988241732514288e-05,0.0020912555041161514,9.581866731428706e-06,-1.1988241732514203e-05,1.1977333414287577e-05
1681917732.3003912,-0.00233686602364692,0.0,1.7976479846570517e-05,0.0019653593788566998,0.0,0.0,0.0
1681917732.3029397,-0.00233686602364692,0.0,1.7976479846570517e-05,0.0019653593788566998,0.0,0.0,0.0
1681917732.3054528,-0.00233686602364692,0.0,1.7976479846570517e-05,0.0019653593788566998,0.0,0.0,0.0
1681917732.307993,-0.00233686602364692,0.0,1.7976479846570517e-05,0.0019653593788566998,0.0,0.0,0.0
1681917732.3104427,-0.002360898222393069,1.7976908439657312e-05,-5.9886667071431956e-06,0.001845578360986564,9.599320040592935e-06,2.3965575146800423e-05,1.1988241732514203e-05
1681917732.312909,-0.002360898222393069,1.7976908439657312e-05,-5.9886667071431956e-06,0.001845578360986564,9.599320040592935e-06,2.3965575146800423e-05,1.1988241732514203e-05
1681917732.3154526,-0.002360898222393069,1.7976908439657312e-05,-5.9886667071431956e-06,0.001845578360986564,9.599320040592935e-06,2.3965575146800423e-05,1.1988241732514203e-05
1681917732.3179455,-0.002360898222393069,1.7976908439657312e-05,-5.9886667071431956e-06,0.001845578360986564,9.599320040592935e-06,2.3965575146800423e-05,1.1988241732514203e-05
1681917732.3205388,-0.002378875130832545,0.0,0.0,0.0018635443611080462,-9.599320040592935e-06,5.999575025371092e-06,-2.9965150172172873e-05
1681917732.322954,-0.002378875130832545,0.0,0.0,0.0018635443611080462,-9.599320040592935e-06,5.999575025371092e-06,-2.9965150172172873e-05
1681917732.3254442,-0.002378875130832545,0.0,0.0,0.0018635443611080462,-9.599320040592935e-06,5.999575025371092e-06,-2.9965150172172873e-05
1681917732.3279686,-0.002378875130832545,0.0,0.0,0.0018635443611080462,-9.599320040592935e-06,5.999575025371092e-06,-2.9965150172172873e-05
1681917732.33044,-0.002348909980660407,-5.999575025371092e-06,5.9886667071431956e-06,0.002193117379728545,0.0,-2.9965150172171517e-05,1.7976908439658668e-05
1681917732.3329525,-0.002348909980660407,-5.999575025371092e-06,5.9886667071431956e-06,0.002193117379728545,0.0,-2.9965150172171517e-05,1.7976908439658668e-05
1681917732.3353853,-0.002348909980660407,-5.999575025371092e-06,5.9886667071431956e-06,0.002193117379728545,0.0,-2.9965150172171517e-05,1.7976908439658668e-05
1681917732.3379803,-0.002348909980660407,-5.999575025371092e-06,5.9886667071431956e-06,0.002193117379728545,0.0,-2.9965150172171517e-05,1.7976908439658668e-05
1681917732.3405197,-0.0022710136801946494,0.0,-1.7976908439657482e-05,0.002348909980660407,9.599320040592935e-06,-5.988666707143111e-06,1.1988241732514203e-05
1681917732.342925,-0.0022710136801946494,0.0,-1.7976908439657482e-05,0.002348909980660407,9.599320040592935e-06,-5.988666707143111e-06,1.1988241732514203e-05
1681917732.3454974,-0.0022710136801946494,0.0,-1.7976908439657482e-05,0.002348909980660407,9.599320040592935e-06,-5.988666707143111e-06,1.1988241732514203e-05
1681917732.3479493,-0.0022710136801946494,0.0,-1.7976908439657482e-05,0.002348909980660407,9.599320040592935e-06,-5.988666707143111e-06,1.1988241732514203e-05
1681917732.3504448,-0.0021631522295564075,-5.988666707143111e-06,1.7976908439657482e-05,0.002528679065057246,-9.599320040592935e-06,5.988666707143111e-06,-2.396557514680178e-05
1681917732.352939,-0.0021631522295564075,-5.988666707143111e-06,1.7976908439657482e-05,0.002528679065057246,-9.599320040592935e-06,5.988666707143111e-06,-2.396557514680178e-05
1681917732.355452,-0.0021631522295564075,-5.988666707143111e-06,1.7976908439657482e-05,0.002528679065057246,-9.599320040592935e-06,5.988666707143111e-06,-2.396557514680178e-05
1681917732.3579504,-0.0021631522295564075,-5.988666707143111e-06,1.7976908439657482e-05,0.002528679065057246,-9.599320040592935e-06,5.988666707143111e-06,-2.396557514680178e-05
1681917732.3604512,-0.0019953713868929245,5.988666707143111e-06,0.0,0.0026065644572043157,0.0,2.3965575146800423e-05,1.7976908439658668e-05
1681917732.3628917,-0.0019953713868929245,5.988666707143111e-06,0.0,0.0026065644572043157,0.0,2.3965575146800423e-05,1.7976908439658668e-05
1681917732.3653834,-0.0019953713868929245,5.988666707143111e-06,0.0,0.0026065644572043157,0.0,2.3965575146800423e-05,1.7976908439658668e-05
1681917732.3679624,-0.0019953713868929245,5.988666707143111e-06,0.0,0.0026065644572043157,0.0,2.3965575146800423e-05,1.7976908439658668e-05
1681917732.370464,-0.0019054977530124988,-1.1977333414286222e-05,-5.9886667071431956e-06,0.0027563792997470104,9.599320040592935e-06,-1.1977333414286222e-05,-5.999575025371092e-06
1681917732.3729427,-0.0019054977530124988,-1.1977333414286222e-05,-5.9886667071431956e-06,0.0027563792997470104,9.599320040592935e-06,-1.1977333414286222e-05,-5.999575025371092e-06
1681917732.3754785,-0.0019054977530124988,-1.1977333414286222e-05,-5.9886667071431956e-06,0.0027563792997470104,9.599320040592935e-06,-1.1977333414286222e-05,-5.999575025371092e-06
1681917732.377963,-0.0019054977530124988,-1.1977333414286222e-05,-5.9886667071431956e-06,0.0027563792997470104,9.599320040592935e-06,-1.1977333414286222e-05,-5.999575025371092e-06
1681917732.3804157,-0.0017197400019088461,0.0,0.0,0.0029960568678517904,-1.918118677202164e-05,-1.7976908439657312e-05,1.1988241732514203e-05
1681917732.382954,-0.0017197400019088461,0.0,0.0,0.0029960568678517904,-1.918118677202164e-05,-1.7976908439657312e-05,1.1988241732514203e-05
1681917732.3854392,-0.0017197400019088461,0.0,0.0,0.0029960568678517904,-1.918118677202164e-05,-1.7976908439657312e-05,1.1988241732514203e-05
1681917732.387942,-0.0017197400019088461,0.0,0.0,0.0029960568678517904,-1.918118677202164e-05,-1.7976908439657312e-05,1.1988241732514203e-05
1681917732.390441,-0.0016478323681502496,1.7976908439657312e-05,5.9886667071431956e-06,0.0026904603326955746,0.0,1.7976908439657312e-05,-2.396557514680178e-05
1681917732.3929996,-0.0016478323681502496,1.7976908439657312e-05,5.9886667071431956e-06,0.0026904603326955746,0.0,1.7976908439657312e-05,-2.396557514680178e-05
1681917732.3953674,-0.0016478323681502496,1.7976908439657312e-05,5.9886667071431956e-06,0.0026904603326955746,0.0,1.7976908439657312e-05,-2.396557514680178e-05
1681917732.397979,-0.0016478323681502496,1.7976908439657312e-05,5.9886667071431956e-06,0.0026904603326955746,0.0,1.7976908439657312e-05,-2.396557514680178e-05
1681917732.4004834,-0.001713740426883345,-1.7976908439657312e-05,-5.9886667071431956e-06,0.002097244170823312,1.918118677202164e-05,0.0,1.1977333414287577e-05
1681917732.402953,-0.001713740426883345,-1.7976908439657312e-05,-5.9886667071431956e-06,0.002097244170823312,1.918118677202164e-05,0.0,1.1977333414287577e-05
1681917732.4054666,-0.001713740426883345,-1.7976908439657312e-05,-5.9886667071431956e-06,0.002097244170823312,1.918118677202164e-05,0.0,1.1977333414287577e-05
1681917732.4079847,-0.001713740426883345,-1.7976908439657312e-05,-5.9886667071431956e-06,0.002097244170823312,1.918118677202164e-05,0.0,1.1977333414287577e-05
1681917732.4104571,-0.0016178781262961054,1.1977333414286222e-05,5.9886667071431956e-06,0.001923463753133981,-9.599320040592935e-06,-1.1988241732514203e-05,-2.396557514680178e-05
1681917732.4129562,-0.0016178781262961054,1.1977333414286222e-05,5.9886667071431956e-06,0.001923463753133981,-9.599320040592935e-06,-1.1988241732514203e-05,-2.396557514680178e-05
1681917732.4154406,-0.0016178781262961054,1.1977333414286222e-05,5.9886667071431956e-06,0.001923463753133981,-9.599320040592935e-06,-1.1988241732514203e-05,-2.396557514680178e-05
1681917732.41795,-0.0016178781262961054,1.1977333414286222e-05,5.9886667071431956e-06,0.001923463753133981,-9.599320040592935e-06,-1.1988241732514203e-05,-2.396557514680178e-05
1681917732.4205031,-0.0016658092765900721,-1.1977333414286222e-05,0.0,0.0017377169103486689,0.0,1.1988241732514203e-05,1.1988241732514203e-05
1681917732.4229574,-0.0016658092765900721,-1.1977333414286222e-05,0.0,0.0017377169103486689,0.0,1.1988241732514203e-05,1.1988241732514203e-05
1681917732.4254541,-0.0016658092765900721,-1.1977333414286222e-05,0.0,0.0017377169103486689,0.0,1.1988241732514203e-05,1.1988241732514203e-05
1681917732.4279482,-0.0016658092765900721,-1.1977333414286222e-05,0.0,0.0017377169103486689,0.0,1.1988241732514203e-05,1.1988241732514203e-05
1681917732.4304087,-0.0022170829548755285,-5.999575025371092e-06,-2.3965575146800593e-05,0.0018515670276937246,9.599320040592935e-06,0.0,1.1977333414287577e-05
1681917732.432892,-0.0022170829548755285,-5.999575025371092e-06,-2.3965575146800593e-05,0.0018515670276937246,9.599320040592935e-06,0.0,1.1977333414287577e-05
1681917732.4354532,-0.0022170829548755285,-5.999575025371092e-06,-2.3965575146800593e-05,0.0018515670276937246,9.599320040592935e-06,0.0,1.1977333414287577e-05
1681917732.4378839,-0.0022170829548755285,-5.999575025371092e-06,-2.3965575146800593e-05,0.0018515670276937246,9.599320040592935e-06,0.0,1.1977333414287577e-05
1681917732.4403894,-0.0022590254384619876,5.999575025371092e-06,-2.397648346502866e-05,0.00208525592909065,-9.599320040592935e-06,0.0,0.0
1681917732.4429388,-0.0022590254384619876,5.999575025371092e-06,-2.397648346502866e-05,0.00208525592909065,-9.599320040592935e-06,0.0,0.0
1681917732.445384,-0.0022590254384619876,5.999575025371092e-06,-2.397648346502866e-05,0.00208525592909065,-9.599320040592935e-06,0.0,0.0
1681917732.4479418,-0.0022590254384619876,5.999575025371092e-06,-2.397648346502866e-05,0.00208525592909065,-9.599320040592935e-06,0.0,0.0
1681917732.4503808,-0.0022350598633153512,0.0,-2.3965575146800593e-05,0.002342921313953246,0.0,-1.1988241732514203e-05,-1.1977333414287577e-05
1681917732.4529626,-0.0022350598633153512,0.0,-2.3965575146800593e-05,0.002342921313953246,0.0,-1.1988241732514203e-05,-1.1977333414287577e-05
1681917732.4554677,-0.0022350598633153512,0.0,-2.3965575146800593e-05,0.002342921313953246,0.0,-1.1988241732514203e-05,-1.1977333414287577e-05
1681917732.45788,-0.0022350598633153512,0.0,-2.3965575146800593e-05,0.002342921313953246,0.0,-1.1988241732514203e-05,-1.1977333414287577e-05
1681917732.4604611,-0.002211094288168715,-5.999575025371092e-06,-5.9886667071431956e-06,0.0025825988820576793,9.599320040592935e-06,1.1988241732514203e-05,1.1977333414287577e-05
1681917732.4628723,-0.002211094288168715,-5.999575025371092e-06,-5.9886667071431956e-06,0.0025825988820576793,9.599320040592935e-06,1.1988241732514203e-05,1.1977333414287577e-05
1681917732.465519,-0.002211094288168715,-5.999575025371092e-06,-5.9886667071431956e-06,0.0025825988820576793,9.599320040592935e-06,1.1988241732514203e-05,1.1977333414287577e-05
1681917732.4680073,-0.002211094288168715,-5.999575025371092e-06,-5.9886667071431956e-06,0.0025825988820576793,9.599320040592935e-06,1.1988241732514203e-05,1.1977333414287577e-05
1681917732.4704404,-0.0022170829548755285,1.7976908439657312e-05,5.9886667071431956e-06,0.002294979255341633,-1.918118677202164e-05,-2.9965150172171517e-05,5.999575025371092e-06
1681917732.4729402,-0.0022170829548755285,1.7976908439657312e-05,5.9886667071431956e-06,0.002294979255341633,-1.918118677202164e-05,-2.9965150172171517e-05,5.999575025371092e-06
1681917732.4754515,-0.0022170829548755285,1.7976908439657312e-05,5.9886667071431956e-06,0.002294979255341633,-1.918118677202164e-05,-2.9965150172171517e-05,5.999575025371092e-06
1681917732.477992,-0.0022170829548755285,1.7976908439657312e-05,5.9886667071431956e-06,0.002294979255341633,-1.918118677202164e-05,-2.9965150172171517e-05,5.999575025371092e-06
1681917732.4805238,-0.002282991013608971,-1.1977333414286222e-05,0.0,0.0019774053867710954,0.0,1.1988241732514203e-05,0.0
1681917732.4829519,-0.002282991013608971,-1.1977333414286222e-05,0.0,0.0019774053867710954,0.0,1.1988241732514203e-05,0.0
1681917732.4854727,-0.002282991013608971,-1.1977333414286222e-05,0.0,0.0019774053867710954,0.0,1.1988241732514203e-05,0.0
1681917732.487982,-0.002282991013608971,-1.1977333414286222e-05,0.0,0.0019774053867710954,0.0,1.1988241732514203e-05,0.0
1681917732.490465,-0.002414828947711843,5.988666707143111e-06,2.3965575146800593e-05,0.0017377060020303285,9.581866731428706e-06,1.7976908439657312e-05,0.0
1681917732.4929395,-0.002414828947711843,5.988666707143111e-06,2.3965575146800593e-05,0.0017377060020303285,9.581866731428706e-06,1.7976908439657312e-05,0.0
1681917732.4954293,-0.002414828947711843,5.988666707143111e-06,2.3965575146800593e-05,0.0017377060020303285,9.581866731428706e-06,1.7976908439657312e-05,0.0
1681917732.4978857,-0.002414828947711843,5.988666707143111e-06,2.3965575146800593e-05,0.0017377060020303285,9.581866731428706e-06,1.7976908439657312e-05,0.0
1681917732.5003939,-0.002516690823324237,-1.1988241732514203e-05,0.0,0.0017317282436411612,9.599320040592935e-06,-1.7976908439657312e-05,5.988666707143111e-06
1681917732.5029626,-0.002516690823324237,-1.1988241732514203e-05,0.0,0.0017317282436411612,9.599320040592935e-06,-1.7976908439657312e-05,5.988666707143111e-06
1681917732.505386,-0.002516690823324237,-1.1988241732514203e-05,0.0,0.0017317282436411612,9.599320040592935e-06,-1.7976908439657312e-05,5.988666707143111e-06
1681917732.5079782,-0.002516690823324237,-1.1988241732514203e-05,0.0,0.0017317282436411612,9.599320040592935e-06,-1.7976908439657312e-05,5.988666707143111e-06
1681917732.5104752,-0.002708437241135397,0.0,1.1988241732514288e-05,0.001767671152202466,-1.918118677202164e-05,-1.1988241732514203e-05,-5.988666707143111e-06
1681917732.5129385,-0.002708437241135397,0.0,1.1988241732514288e-05,0.001767671152202466,-1.918118677202164e-05,-1.1988241732514203e-05,-5.988666707143111e-06
1681917732.51546,-0.002708437241135397,0.0,1.1988241732514288e-05,0.001767671152202466,-1.918118677202164e-05,-1.1988241732514203e-05,-5.988666707143111e-06
1681917732.5179486,-0.002708437241135397,0.0,1.1988241732514288e-05,0.001767671152202466,-1.918118677202164e-05,-1.1988241732514203e-05,-5.988666707143111e-06
1681917732.5204563,-0.002828276025187614,5.999575025371092e-06,-1.1988241732514288e-05,0.0017976363023746037,0.0,1.1988241732514203e-05,0.0
1681917732.5229576,-0.002828276025187614,5.999575025371092e-06,-1.1988241732514288e-05,0.0017976363023746037,0.0,1.1988241732514203e-05,0.0
1681917732.525471,-0.002828276025187614,5.999575025371092e-06,-1.1988241732514288e-05,0.0017976363023746037,0.0,1.1988241732514203e-05,0.0
1681917732.5278943,-0.002828276025187614,5.999575025371092e-06,-1.1988241732514288e-05,0.0017976363023746037,0.0,1.1988241732514203e-05,0.0
1681917732.5304465,-0.0029541143842649847,0.0,-1.1977333414286306e-05,0.0018036249690817645,9.581866731428706e-06,0.0,-5.999575025371092e-06
1681917732.532961,-0.0029541143842649847,0.0,-1.1977333414286306e-05,0.0018036249690817645,9.581866731428706e-06,0.0,-5.999575025371092e-06
1681917732.5354457,-0.0029541143842649847,0.0,-1.1977333414286306e-05,0.0018036249690817645,9.581866731428706e-06,0.0,-5.999575025371092e-06
1681917732.5379899,-0.0029541143842649847,0.0,-1.1977333414286306e-05,0.0018036249690817645,9.581866731428706e-06,0.0,-5.999575025371092e-06
1681917732.5404978,-0.003049987593170565,0.0,-2.3976483465028576e-05,0.0017197400019088461,9.599320040592935e-06,0.0,-1.1977333414287577e-05
1681917732.5429456,-0.003049987593170565,0.0,-2.3976483465028576e-05,0.0017197400019088461,9.599320040592935e-06,0.0,-1.1977333414287577e-05
1681917732.5454407,-0.003049987593170565,0.0,-2.3976483465028576e-05,0.0017197400019088461,9.599320040592935e-06,0.0,-1.1977333414287577e-05
1681917732.547947,-0.003049987593170565,0.0,-2.3976483465028576e-05,0.0017197400019088461,9.599320040592935e-06,0.0,-1.1977333414287577e-05
1681917732.5504405,-0.0030798793132280544,0.0,0.0,0.002007311770537584,-9.599091180206691e-06,5.988523929470329e-06,0.0
1681917732.552956,-0.0030798793132280544,0.0,0.0,0.002007311770537584,-9.599091180206691e-06,5.988523929470329e-06,0.0
1681917732.555451,-0.0030798793132280544,0.0,0.0,0.002007311770537584,-9.599091180206691e-06,5.988523929470329e-06,0.0
1681917732.5578704,-0.0030798793132280544,0.0,0.0,0.002007311770537584,-9.599091180206691e-06,5.988523929470329e-06,0.0
1681917732.5604596,-0.003103918318489339,5.988666707143111e-06,-1.1977333414286306e-05,0.002324944405513424,-9.581866731428706e-06,-1.7976908439657312e-05,2.396557514680178e-05
1681917732.562963,-0.003103918318489339,5.988666707143111e-06,-1.1977333414286306e-05,0.002324944405513424,-9.581866731428706e-06,-1.7976908439657312e-05,2.396557514680178e-05
1681917732.5653927,-0.003103918318489339,5.988666707143111e-06,-1.1977333414286306e-05,0.002324944405513424,-9.581866731428706e-06,-1.7976908439657312e-05,2.396557514680178e-05
1681917732.5679157,-0.003103918318489339,5.988666707143111e-06,-1.1977333414286306e-05,0.002324944405513424,-9.581866731428706e-06,-1.7976908439657312e-05,2.396557514680178e-05
1681917732.5704055,-0.0030979187434641846,-1.1988241732514203e-05,0.0,0.002456771431298302,1.918118677202164e-05,2.9965150172171517e-05,-1.1988241732514203e-05
1681917732.5729795,-0.0030979187434641846,-1.1988241732514203e-05,0.0,0.002456771431298302,1.918118677202164e-05,2.9965150172171517e-05,-1.1988241732514203e-05
1681917732.5754778,-0.0030979187434641846,-1.1988241732514203e-05,0.0,0.002456771431298302,1.918118677202164e-05,2.9965150172171517e-05,-1.1988241732514203e-05
1681917732.577882,-0.0030979187434641846,-1.1988241732514203e-05,0.0,0.002456771431298302,1.918118677202164e-05,2.9965150172171517e-05,-1.1988241732514203e-05
1681917732.5804555,-0.0033256298864726367,0.0,1.1977333414286306e-05,0.0024088293726866887,0.0,-1.7976908439657312e-05,1.1988241732514203e-05
1681917732.5829513,-0.0033256298864726367,0.0,1.1977333414286306e-05,0.0024088293726866887,0.0,-1.7976908439657312e-05,1.1988241732514203e-05
1681917732.5854259,-0.0033256298864726367,0.0,1.1977333414286306e-05,0.0024088293726866887,0.0,-1.7976908439657312e-05,1.1988241732514203e-05
1681917732.5878997,-0.0033256298864726367,0.0,1.1977333414286306e-05,0.0024088293726866887,0.0,-1.7976908439657312e-05,1.1988241732514203e-05
1681917732.5904984,-0.0035832843630165456,5.999575025371092e-06,0.0,0.0023189448304882696,-1.918118677202164e-05,-1.1988241732514203e-05,-5.988666707143111e-06
1681917732.592962,-0.0035832843630165456,5.999575025371092e-06,0.0,0.0023189448304882696,-1.918118677202164e-05,-1.1988241732514203e-05,-5.988666707143111e-06
1681917732.5953755,-0.0035832843630165456,5.999575025371092e-06,0.0,0.0023189448304882696,-1.918118677202164e-05,-1.1988241732514203e-05,-5.988666707143111e-06
1681917732.5979695,-0.0035832843630165456,5.999575025371092e-06,0.0,0.0023189448304882696,-1.918118677202164e-05,-1.1988241732514203e-05,-5.988666707143111e-06
1681917732.6004436,-0.0036731689052153117,0.0,5.999575025371092e-06,0.0021751404712890693,1.918118677202164e-05,0.0,0.0
1681917732.6029408,-0.0036731689052153117,0.0,5.999575025371092e-06,0.0021751404712890693,1.918118677202164e-05,0.0,0.0
1681917732.605453,-0.0036731689052153117,0.0,5.999575025371092e-06,0.0021751404712890693,1.918118677202164e-05,0.0,0.0
1681917732.6079688,-0.0036731689052153117,0.0,5.999575025371092e-06,0.0021751404712890693,1.918118677202164e-05,0.0,0.0
1681917732.6104558,-0.002402840705979181,0.0,4.7931150293601273e-05,0.0019174750864268202,0.0,1.1988241732514203e-05,0.0
1681917732.61294,-0.002402840705979181,0.0,4.7931150293601273e-05,0.0019174750864268202,0.0,1.1988241732514203e-05,0.0
1681917732.6154785,-0.002402840705979181,0.0,4.7931150293601273e-05,0.0019174750864268202,0.0,1.1988241732514203e-05,0.0
1681917732.6178901,-0.002402840705979181,0.0,4.7931150293601273e-05,0.0019174750864268202,0.0,1.1988241732514203e-05,0.0
1681917732.6204014,-0.0020373138704790367,-5.999575025371092e-06,0.0001258383590776022,0.001731728243641508,-9.599320040592935e-06,0.0,5.988666707143111e-06
1681917732.6229446,-0.0020373138704790367,-5.999575025371092e-06,0.0001258383590776022,0.001731728243641508,-9.599320040592935e-06,0.0,5.988666707143111e-06
1681917732.6253796,-0.0020373138704790367,-5.999575025371092e-06,0.0001258383590776022,0.001731728243641508,-9.599320040592935e-06,0.0,5.988666707143111e-06
1681917732.6279573,-0.0020373138704790367,-5.999575025371092e-06,0.0001258383590776022,0.001731728243641508,-9.599320040592935e-06,0.0,5.988666707143111e-06
1681917732.6304548,-0.0021152210792631347,5.999575025371092e-06,4.7931150293601355e-05,0.00182160187752124,0.0,0.0,-5.988666707143111e-06
1681917732.6329224,-0.0021152210792631347,5.999575025371092e-06,4.7931150293601355e-05,0.00182160187752124,0.0,0.0,-5.988666707143111e-06
1681917732.635439,-0.0021152210792631347,5.999575025371092e-06,4.7931150293601355e-05,0.00182160187752124,0.0,0.0,-5.988666707143111e-06
1681917732.637999,-0.0021152210792631347,5.999575025371092e-06,4.7931150293601355e-05,0.00182160187752124,0.0,0.0,-5.988666707143111e-06
1681917732.6404655,-0.0020133482953324003,-5.999575025371092e-06,-5.98866670714328e-06,0.002031325203771876,9.599320040592935e-06,1.7976908439657312e-05,-5.999575025371092e-06
1681917732.6429489,-0.0020133482953324003,-5.999575025371092e-06,-5.98866670714328e-06,0.002031325203771876,9.599320040592935e-06,1.7976908439657312e-05,-5.999575025371092e-06
1681917732.645453,-0.0020133482953324003,-5.999575025371092e-06,-5.98866670714328e-06,0.002031325203771876,9.599320040592935e-06,1.7976908439657312e-05,-5.999575025371092e-06
1681917732.6479514,-0.0020133482953324003,-5.999575025371092e-06,-5.98866670714328e-06,0.002031325203771876,9.599320040592935e-06,1.7976908439657312e-05,-5.999575025371092e-06
1681917732.6503854,-0.0016598206098825644,0.0,-2.9954241853943788e-05,0.0022170829548758754,-9.599320040592935e-06,0.0,5.999575025371092e-06
1681917732.6529477,-0.0016598206098825644,0.0,-2.9954241853943788e-05,0.0022170829548758754,-9.599320040592935e-06,0.0,5.999575025371092e-06
1681917732.6553826,-0.0016598206098825644,0.0,-2.9954241853943788e-05,0.0022170829548758754,-9.599320040592935e-06,0.0,5.999575025371092e-06
1681917732.6579938,-0.0016598206098825644,0.0,-2.9954241853943788e-05,0.0022170829548758754,-9.599320040592935e-06,0.0,5.999575025371092e-06
1681917732.6604657,-0.001516005342365371,5.999575025371092e-06,-4.195339190468597e-05,0.0024088293726863418,0.0,-2.9965150172171517e-05,5.988666707143111e-06
1681917732.662959,-0.001516005342365371,5.999575025371092e-06,-4.195339190468597e-05,0.0024088293726863418,0.0,-2.9965150172171517e-05,5.988666707143111e-06
1681917732.66546,-0.001516005342365371,5.999575025371092e-06,-4.195339190468597e-05,0.0024088293726863418,0.0,-2.9965150172171517e-05,5.988666707143111e-06
1681917732.6679835,-0.001516005342365371,5.999575025371092e-06,-4.195339190468597e-05,0.0024088293726863418,0.0,-2.9965150172171517e-05,5.988666707143111e-06
1681917732.670458,-0.0013961665583131545,-1.1988241732514203e-05,-9.587320890543052e-05,0.0024867365814704397,0.0,1.7976908439657312e-05,-5.988666707143111e-06
1681917732.6729617,-0.0013961665583131545,-1.1988241732514203e-05,-9.587320890543052e-05,0.0024867365814704397,0.0,1.7976908439657312e-05,-5.988666707143111e-06
1681917732.675444,-0.0013961665583131545,-1.1988241732514203e-05,-9.587320890543052e-05,0.0024867365814704397,0.0,1.7976908439657312e-05,-5.988666707143111e-06
1681917732.677987,-0.0013961665583131545,-1.1988241732514203e-05,-9.587320890543052e-05,0.0024867365814704397,0.0,1.7976908439657312e-05,-5.988666707143111e-06
1681917732.680452,-0.001264339532528623,5.988666707143111e-06,-6.590805873325867e-05,0.0024687487647126237,9.599320040592935e-06,-5.988666707143111e-06,0.0
1681917732.6828916,-0.001264339532528623,5.988666707143111e-06,-6.590805873325867e-05,0.0024687487647126237,9.599320040592935e-06,-5.988666707143111e-06,0.0
1681917732.6853864,-0.001264339532528623,5.988666707143111e-06,-6.590805873325867e-05,0.0024687487647126237,9.599320040592935e-06,-5.988666707143111e-06,0.0
1681917732.687982,-0.001264339532528623,5.988666707143111e-06,-6.590805873325867e-05,0.0024687487647126237,9.599320040592935e-06,-5.988666707143111e-06,0.0
1681917732.6905138,-0.0012703281992357837,0.0,0.0,0.0023549095556859084,-9.599320040592935e-06,1.7976908439657312e-05,5.988666707143111e-06
1681917732.6929398,-0.0012703281992357837,0.0,0.0,0.0023549095556859084,-9.599320040592935e-06,1.7976908439657312e-05,5.988666707143111e-06
1681917732.695456,-0.0012703281992357837,0.0,0.0,0.0023549095556859084,-9.599320040592935e-06,1.7976908439657312e-05,5.988666707143111e-06
1681917732.6979842,-0.0012703281992357837,0.0,0.0,0.0023549095556859084,-9.599320040592935e-06,1.7976908439657312e-05,5.988666707143111e-06
1681917732.700486,-0.001354213166408355,0.0,-2.996515017217177e-05,0.0021571526545312533,9.599320040592935e-06,-2.9965150172171517e-05,0.0
1681917732.7029824,-0.001354213166408355,0.0,-2.996515017217177e-05,0.0021571526545312533,9.599320040592935e-06,-2.9965150172171517e-05,0.0
1681917732.705415,-0.001354213166408355,0.0,-2.996515017217177e-05,0.0021571526545312533,9.599320040592935e-06,-2.9965150172171517e-05,0.0
1681917732.7079394,-0.001354213166408355,0.0,-2.996515017217177e-05,0.0021571526545312533,9.599320040592935e-06,-2.9965150172171517e-05,0.0
1681917732.7104614,-0.0014800515254860726,0.0,-5.9886667071431956e-06,0.0020553016872368528,-9.599320040592935e-06,0.0,0.0
1681917732.7129824,-0.0014800515254860726,0.0,-5.9886667071431956e-06,0.0020553016872368528,-9.599320040592935e-06,0.0,0.0
1681917732.7155066,-0.0014800515254860726,0.0,-5.9886667071431956e-06,0.0020553016872368528,-9.599320040592935e-06,0.0,0.0
1681917732.7178824,-0.0014800515254860726,0.0,-5.9886667071431956e-06,0.0020553016872368528,-9.599320040592935e-06,0.0,0.0
1681917732.7204125,-0.0016478323681502496,0.0,-5.9886667071431956e-06,0.0019654171450387806,9.599320040592935e-06,1.1988241732514203e-05,-5.988666707143111e-06
1681917732.7229447,-0.0016478323681502496,0.0,-5.9886667071431956e-06,0.0019654171450387806,9.599320040592935e-06,1.1988241732514203e-05,-5.988666707143111e-06
1681917732.7254574,-0.0016478323681502496,0.0,-5.9886667071431956e-06,0.0019654171450387806,9.599320040592935e-06,1.1988241732514203e-05,-5.988666707143111e-06
1681917732.7279866,-0.0016478323681502496,0.0,-5.9886667071431956e-06,0.0019654171450387806,9.599320040592935e-06,1.1988241732514203e-05,-5.988666707143111e-06
1681917732.73046,-0.001833590119253902,0.0,0.0,0.0018875099362546826,-9.599320040592935e-06,0.0,5.988666707143111e-06
1681917732.732942,-0.001833590119253902,0.0,0.0,0.0018875099362546826,-9.599320040592935e-06,0.0,5.988666707143111e-06
1681917732.735458,-0.001833590119253902,0.0,0.0,0.0018875099362546826,-9.599320040592935e-06,0.0,5.988666707143111e-06
1681917732.7379448,-0.001833590119253902,0.0,0.0,0.0018875099362546826,-9.599320040592935e-06,0.0,5.988666707143111e-06
1681917732.740487,-0.0020612903539443607,0.0,1.1977333414286391e-05,0.001953439811624459,-9.581866731428706e-06,0.0,0.0
1681917732.742952,-0.0020612903539443607,0.0,1.1977333414286391e-05,0.001953439811624459,-9.581866731428706e-06,0.0,0.0
1681917732.7453797,-0.0020612903539443607,0.0,1.1977333414286391e-05,0.001953439811624459,-9.581866731428706e-06,0.0,0.0
1681917732.7478995,-0.0020612903539443607,0.0,1.1977333414286391e-05,0.001953439811624459,-9.581866731428706e-06,0.0,0.0
1681917732.750449,-0.002157163562849247,-1.1977333414286222e-05,2.3965575146800593e-05,0.0023309330722205844,1.918118677202164e-05,-1.1988241732514203e-05,0.0
1681917732.7529202,-0.002157163562849247,-1.1977333414286222e-05,2.3965575146800593e-05,0.0023309330722205844,1.918118677202164e-05,-1.1988241732514203e-05,0.0
1681917732.755442,-0.002157163562849247,-1.1977333414286222e-05,2.3965575146800593e-05,0.0023309330722205844,1.918118677202164e-05,-1.1988241732514203e-05,0.0
1681917732.7579865,-0.002157163562849247,-1.1977333414286222e-05,2.3965575146800593e-05,0.0023309330722205844,1.918118677202164e-05,-1.1988241732514203e-05,0.0
1681917732.7604885,-0.002079267262383836,1.1977333414286222e-05,1.7976908439657482e-05,0.0025346568234457193,0.0,0.0,-5.988666707143111e-06
1681917732.762926,-0.002079267262383836,1.1977333414286222e-05,1.7976908439657482e-05,0.0025346568234457193,0.0,0.0,-5.988666707143111e-06
1681917732.7654567,-0.002079267262383836,1.1977333414286222e-05,1.7976908439657482e-05,0.0025346568234457193,0.0,0.0,-5.988666707143111e-06
1681917732.7679195,-0.002079267262383836,1.1977333414286222e-05,1.7976908439657482e-05,0.0025346568234457193,0.0,0.0,-5.988666707143111e-06
1681917732.7704687,-0.002103232837530473,-1.1977333414286222e-05,1.7976908439657482e-05,0.002714436816160898,9.581866731430061e-06,4.1942483586457736e-05,-1.7976908439658668e-05
1681917732.7729414,-0.002103232837530473,-1.1977333414286222e-05,1.7976908439657482e-05,0.002714436816160898,9.581866731430061e-06,4.1942483586457736e-05,-1.7976908439658668e-05
1681917732.7754507,-0.002103232837530473,-1.1977333414286222e-05,1.7976908439657482e-05,0.002714436816160898,9.581866731430061e-06,4.1942483586457736e-05,-1.7976908439658668e-05
1681917732.7779784,-0.002103232837530473,-1.1977333414286222e-05,1.7976908439657482e-05,0.002714436816160898,9.581866731430061e-06,4.1942483586457736e-05,-1.7976908439658668e-05
1681917732.7804663,-0.002079267262383836,1.1977333414286222e-05,5.999575025371092e-06,0.0028342646918947745,0.0,-1.1977333414286222e-05,2.995424185394489e-05
