lbr-stack/dynamic_parameter_identification/src/test/joint_states_efforts.csv
time,lbr_joint_1,lbr_joint_2,lbr_joint_3,lbr_joint_0,lbr_joint_4,lbr_joint_5,lbr_joint_6
1681917731.1628947,2.586336471557617,0.07395149230957031,-0.9437619018554687,-0.5215688934326171,-0.2253759765625,0.17555338287353517,0.1278268928527832
1681917731.165356,2.586336471557617,0.07395149230957031,-0.9437619018554687,-0.5215688934326171,-0.2253759765625,0.17555338287353517,0.1278268928527832
1681917731.167881,2.568861225128174,0.06954961776733398,-0.9340777778625489,-0.5188803939819336,-0.2332993507385254,0.17688838958740236,0.13016315460205077
1681917731.1704447,2.568861225128174,0.06954961776733398,-0.9340777778625489,-0.5188803939819336,-0.2332993507385254,0.17688838958740236,0.13016315460205077
1681917731.1728983,2.568861225128174,0.06954961776733398,-0.9340777778625489,-0.5188803939819336,-0.2332993507385254,0.17688838958740236,0.13016315460205077
1681917731.1754045,2.568861225128174,0.06954961776733398,-0.9340777778625489,-0.5188803939819336,-0.2332993507385254,0.17688838958740236,0.13016315460205077
1681917731.1778991,2.568861225128174,0.06954961776733398,-0.9340777778625489,-0.5188803939819336,-0.2332993507385254,0.17688838958740236,0.13016315460205077
1681917731.180454,2.5446647300720215,0.06514774322509766,-0.9129487800598144,-0.5121591453552247,-0.23241897583007812,0.17488587951660156,0.13083065795898438
1681917731.1829512,2.5446647300720215,0.06514774322509766,-0.9129487800598144,-0.5121591453552247,-0.23241897583007812,0.17488587951660156,0.13083065795898438
1681917731.1854513,2.5446647300720215,0.06514774322509766,-0.9129487800598144,-0.5121591453552247,-0.23241897583007812,0.17488587951660156,0.13083065795898438
1681917731.1878712,2.5446647300720215,0.06514774322509766,-0.9129487800598144,-0.5121591453552247,-0.23241897583007812,0.17488587951660156,0.13083065795898438
1681917731.190462,2.5271894836425783,0.07219074249267578,-0.9023842811584473,-0.5215688934326171,-0.2280171012878418,0.17788964462280274,0.13149816131591796
1681917731.192952,2.5271894836425783,0.07219074249267578,-0.9023842811584473,-0.5215688934326171,-0.2280171012878418,0.17788964462280274,0.13149816131591796
1681917731.1954496,2.5271894836425783,0.07219074249267578,-0.9023842811584473,-0.5215688934326171,-0.2280171012878418,0.17788964462280274,0.13149816131591796
1681917731.1978915,2.5271894836425783,0.07219074249267578,-0.9023842811584473,-0.5215688934326171,-0.2280171012878418,0.17788964462280274,0.13149816131591796
1681917731.2004666,2.535254981994629,0.07307111740112304,-0.888298282623291,-0.5269458923339844,-0.23153860092163087,0.17688838958740236,0.1294956512451172
1681917731.2029462,2.535254981994629,0.07307111740112304,-0.888298282623291,-0.5269458923339844,-0.23153860092163087,0.17688838958740236,0.1294956512451172
1681917731.2054517,2.535254981994629,0.07307111740112304,-0.888298282623291,-0.5269458923339844,-0.23153860092163087,0.17688838958740236,0.1294956512451172
1681917731.207926,2.535254981994629,0.07307111740112304,-0.888298282623291,-0.5269458923339844,-0.23153860092163087,0.17688838958740236,0.1294956512451172
1681917731.2103853,2.731515441894531,0.07571224212646484,-1.0053881454467772,-0.5524866371154785,-0.22625635147094728,0.17555338287353517,0.1291618995666504
1681917731.212883,2.731515441894531,0.07571224212646484,-1.0053881454467772,-0.5524866371154785,-0.22625635147094728,0.17555338287353517,0.1291618995666504
1681917731.2154639,2.731515441894531,0.07571224212646484,-1.0053881454467772,-0.5524866371154785,-0.22625635147094728,0.17555338287353517,0.1291618995666504
1681917731.217952,2.731515441894531,0.07571224212646484,-1.0053881454467772,-0.5524866371154785,-0.22625635147094728,0.17555338287353517,0.1291618995666504
1681917731.2204528,2.661614456176758,0.07483186721801757,-0.8645281600952148,-0.5538308868408203,-0.22977785110473634,0.17455212783813476,0.1288281478881836
1681917731.2229626,2.661614456176758,0.07483186721801757,-0.8645281600952148,-0.5538308868408203,-0.22977785110473634,0.17455212783813476,0.1288281478881836
1681917731.2254562,2.661614456176758,0.07483186721801757,-0.8645281600952148,-0.5538308868408203,-0.22977785110473634,0.17455212783813476,0.1288281478881836
1681917731.2279203,2.661614456176758,0.07483186721801757,-0.8645281600952148,-0.5538308868408203,-0.22977785110473634,0.17455212783813476,0.1288281478881836
1681917731.230457,2.5769267234802244,0.07923374176025391,-0.9296759033203125,-0.5766831321716308,-0.22977785110473634,0.17555338287353517,0.129829402923584
1681917731.2329407,2.5769267234802244,0.07923374176025391,-0.9296759033203125,-0.5766831321716308,-0.22977785110473634,0.17555338287353517,0.129829402923584
1681917731.2354722,2.5769267234802244,0.07923374176025391,-0.9296759033203125,-0.5766831321716308,-0.22977785110473634,0.17555338287353517,0.129829402923584
1681917731.237964,2.5769267234802244,0.07923374176025391,-0.9296759033203125,-0.5766831321716308,-0.22977785110473634,0.17555338287353517,0.129829402923584
1681917731.2404819,2.547353229522705,0.07131036758422851,-0.8504421615600586,-0.5968468780517578,-0.22625635147094728,0.1722158660888672,0.13016315460205077
1681917731.2428858,2.547353229522705,0.07131036758422851,-0.8504421615600586,-0.5968468780517578,-0.22625635147094728,0.1722158660888672,0.13016315460205077
1681917731.24539,2.547353229522705,0.07131036758422851,-0.8504421615600586,-0.5968468780517578,-0.22625635147094728,0.1722158660888672,0.13016315460205077
1681917731.2479453,2.547353229522705,0.07131036758422851,-0.8504421615600586,-0.5968468780517578,-0.22625635147094728,0.1722158660888672,0.13016315460205077
1681917731.2504616,2.54332048034668,0.07571224212646484,-0.8838964080810546,-0.6008796272277832,-0.2306582260131836,0.17488587951660156,0.13083065795898438
1681917731.2529173,2.54332048034668,0.07571224212646484,-0.8838964080810546,-0.6008796272277832,-0.2306582260131836,0.17488587951660156,0.13083065795898438
1681917731.2554488,2.54332048034668,0.07571224212646484,-0.8838964080810546,-0.6008796272277832,-0.2306582260131836,0.17488587951660156,0.13083065795898438
1681917731.2579331,2.54332048034668,0.07571224212646484,-0.8838964080810546,-0.6008796272277832,-0.2306582260131836,0.17488587951660156,0.13083065795898438
1681917731.2604806,2.6764012031555175,0.07483186721801757,-0.9217525291442871,-0.6089451255798339,-0.2253759765625,0.17555338287353517,0.1284943962097168
1681917731.2629473,2.6764012031555175,0.07483186721801757,-0.9217525291442871,-0.6089451255798339,-0.2253759765625,0.17555338287353517,0.1284943962097168
1681917731.2654717,2.6764012031555175,0.07483186721801757,-0.9217525291442871,-0.6089451255798339,-0.2253759765625,0.17555338287353517,0.1284943962097168
1681917731.2679415,2.6764012031555175,0.07483186721801757,-0.9217525291442871,-0.6089451255798339,-0.2253759765625,0.17555338287353517,0.1284943962097168
1681917731.270382,2.8645961647033693,0.08099449157714844,-0.9886610221862793,-0.622387622833252,-0.2200937271118164,0.17622088623046875,0.1271593894958496
1681917731.2728875,2.8645961647033693,0.08099449157714844,-0.9886610221862793,-0.622387622833252,-0.2200937271118164,0.17622088623046875,0.1271593894958496
1681917731.2753735,2.8645961647033693,0.08099449157714844,-0.9886610221862793,-0.622387622833252,-0.2200937271118164,0.17622088623046875,0.1271593894958496
1681917731.2778919,2.8645961647033693,0.08099449157714844,-0.9886610221862793,-0.622387622833252,-0.2200937271118164,0.17622088623046875,0.1271593894958496
1681917731.280391,2.964070644378662,0.08363561630249024,-1.0300386428833008,-0.6210433731079101,-0.22625635147094728,0.17655463790893555,0.1294956512451172
1681917731.282885,2.964070644378662,0.08363561630249024,-1.0300386428833008,-0.6210433731079101,-0.22625635147094728,0.17655463790893555,0.1294956512451172
1681917731.2853951,2.964070644378662,0.08363561630249024,-1.0300386428833008,-0.6210433731079101,-0.22625635147094728,0.17655463790893555,0.1294956512451172
1681917731.2878838,2.964070644378662,0.08363561630249024,-1.0300386428833008,-0.6210433731079101,-0.22625635147094728,0.17655463790893555,0.1294956512451172
1681917731.290393,2.9681033935546877,0.08275524139404297,-1.0247563934326172,-0.6277646217346191,-0.22889747619628906,0.17755589294433594,0.129829402923584
1681917731.2928882,2.9681033935546877,0.08275524139404297,-1.0247563934326172,-0.6277646217346191,-0.22889747619628906,0.17755589294433594,0.129829402923584
1681917731.2953813,2.9681033935546877,0.08275524139404297,-1.0247563934326172,-0.6277646217346191,-0.22889747619628906,0.17755589294433594,0.129829402923584
1681917731.297896,2.9681033935546877,0.08275524139404297,-1.0247563934326172,-0.6277646217346191,-0.22889747619628906,0.17755589294433594,0.129829402923584
1681917731.3003905,2.9223989028930664,0.07835336685180663,-1.003627395629883,-0.629108871459961,-0.2280171012878418,0.17588713455200194,0.13049690628051758
1681917731.302929,2.9223989028930664,0.07835336685180663,-1.003627395629883,-0.629108871459961,-0.2280171012878418,0.17588713455200194,0.13049690628051758
1681917731.3054023,2.9223989028930664,0.07835336685180663,-1.003627395629883,-0.629108871459961,-0.2280171012878418,0.17588713455200194,0.13049690628051758
1681917731.3079019,2.9223989028930664,0.07835336685180663,-1.003627395629883,-0.629108871459961,-0.2280171012878418,0.17588713455200194,0.13049690628051758
1681917731.310389,2.840399669647217,0.0845159912109375,-0.9824983978271484,-0.629108871459961,-0.22713672637939453,0.17688838958740236,0.129829402923584
1681917731.3128877,2.840399669647217,0.0845159912109375,-0.9824983978271484,-0.629108871459961,-0.22713672637939453,0.17688838958740236,0.129829402923584
1681917731.3153682,2.840399669647217,0.0845159912109375,-0.9824983978271484,-0.629108871459961,-0.22713672637939453,0.17688838958740236,0.129829402923584
1681917731.3178816,2.840399669647217,0.0845159912109375,-0.9824983978271484,-0.629108871459961,-0.22713672637939453,0.17688838958740236,0.129829402923584
1681917731.3203893,2.800072177886963,0.07923374176025391,-0.9692927742004395,-0.6277646217346191,-0.22889747619628906,0.17688838958740236,0.13116440963745118
1681917731.3228838,2.800072177886963,0.07923374176025391,-0.9692927742004395,-0.6277646217346191,-0.22889747619628906,0.17688838958740236,0.13116440963745118
1681917731.3253834,2.800072177886963,0.07923374176025391,-0.9692927742004395,-0.6277646217346191,-0.22889747619628906,0.17688838958740236,0.13116440963745118
1681917731.327891,2.800072177886963,0.07923374176025391,-0.9692927742004395,-0.6277646217346191,-0.22889747619628906,0.17688838958740236,0.13116440963745118
1681917731.3304,2.7557119369506835,0.08099449157714844,-0.9534460258483887,-0.6385186195373536,-0.2306582260131836,0.17722214126586913,0.1291618995666504
1681917731.3328822,2.7557119369506835,0.08099449157714844,-0.9534460258483887,-0.6385186195373536,-0.2306582260131836,0.17722214126586913,0.1291618995666504
1681917731.3353865,2.7557119369506835,0.08099449157714844,-0.9534460258483887,-0.6385186195373536,-0.2306582260131836,0.17722214126586913,0.1291618995666504
1681917731.3378565,2.7557119369506835,0.08099449157714844,-0.9534460258483887,-0.6385186195373536,-0.2306582260131836,0.17722214126586913,0.1291618995666504
1681917731.3403802,2.7167286949157714,0.07307111740112304,-0.9464030265808105,-0.6425513687133789,-0.22889747619628906,0.17521963119506836,0.13083065795898438
1681917731.3428829,2.7167286949157714,0.07307111740112304,-0.9464030265808105,-0.6425513687133789,-0.22889747619628906,0.17521963119506836,0.13083065795898438
1681917731.3453848,2.7167286949157714,0.07307111740112304,-0.9464030265808105,-0.6425513687133789,-0.22889747619628906,0.17521963119506836,0.13083065795898438
1681917731.3478997,2.7167286949157714,0.07307111740112304,-0.9464030265808105,-0.6425513687133789,-0.22889747619628906,0.17521963119506836,0.13083065795898438
1681917731.3503838,2.6710242042541505,0.07395149230957031,-0.9279151535034179,-0.6425513687133789,-0.22889747619628906,0.17655463790893555,0.129829402923584
1681917731.3528905,2.6710242042541505,0.07395149230957031,-0.9279151535034179,-0.6425513687133789,-0.22889747619628906,0.17655463790893555,0.129829402923584
1681917731.3553808,2.6710242042541505,0.07395149230957031,-0.9279151535034179,-0.6425513687133789,-0.22889747619628906,0.17655463790893555,0.129829402923584
1681917731.3578818,2.6710242042541505,0.07395149230957031,-0.9279151535034179,-0.6425513687133789,-0.22889747619628906,0.17655463790893555,0.129829402923584
1681917731.3603942,2.5755824737548827,0.07571224212646484,-0.8865375328063965,-0.6452398681640625,-0.23153860092163087,0.17521963119506836,0.13016315460205077
1681917731.3628874,2.5755824737548827,0.07571224212646484,-0.8865375328063965,-0.6452398681640625,-0.23153860092163087,0.17521963119506836,0.13016315460205077
1681917731.365391,2.5755824737548827,0.07571224212646484,-0.8865375328063965,-0.6452398681640625,-0.23153860092163087,0.17521963119506836,0.13016315460205077
1681917731.3678932,2.4989602394104002,0.07395149230957031,-0.861887035369873,-0.6452398681640625,-0.22889747619628906,0.17488587951660156,0.1294956512451172
1681917731.3703856,2.4989602394104002,0.07395149230957031,-0.861887035369873,-0.6452398681640625,-0.22889747619628906,0.17488587951660156,0.1294956512451172
1681917731.372881,2.4989602394104002,0.07395149230957031,-0.861887035369873,-0.6452398681640625,-0.22889747619628906,0.17488587951660156,0.1294956512451172
1681917731.375381,2.4989602394104002,0.07395149230957031,-0.861887035369873,-0.6452398681640625,-0.22889747619628906,0.17488587951660156,0.1294956512451172
1681917731.3787642,2.4989602394104002,0.07395149230957031,-0.861887035369873,-0.6452398681640625,-0.22889747619628906,0.17488587951660156,0.1294956512451172
1681917731.380382,2.462665496826172,0.06778886795043945,-0.8310739135742188,-0.6533053665161133,-0.2280171012878418,0.17455212783813476,0.1294956512451172
1681917731.382881,2.462665496826172,0.06778886795043945,-0.8310739135742188,-0.6533053665161133,-0.2280171012878418,0.17455212783813476,0.1294956512451172
1681917731.3853877,2.462665496826172,0.06778886795043945,-0.8310739135742188,-0.6533053665161133,-0.2280171012878418,0.17455212783813476,0.1294956512451172
1681917731.3878794,2.462665496826172,0.06778886795043945,-0.8310739135742188,-0.6533053665161133,-0.2280171012878418,0.17455212783813476,0.1294956512451172
1681917731.3904042,2.489550491333008,0.06690849304199219,-0.8407580375671386,-0.6465841178894043,-0.22889747619628906,0.17321712112426757,0.1288281478881836
1681917731.3928816,2.489550491333008,0.06690849304199219,-0.8407580375671386,-0.6465841178894043,-0.22889747619628906,0.17321712112426757,0.1288281478881836
1681917731.3953931,2.489550491333008,0.06690849304199219,-0.8407580375671386,-0.6465841178894043,-0.22889747619628906,0.17321712112426757,0.1288281478881836
1681917731.3978822,2.489550491333008,0.06690849304199219,-0.8407580375671386,-0.6465841178894043,-0.22889747619628906,0.17321712112426757,0.1288281478881836
1681917731.4003954,2.5621399765014647,0.06690849304199219,-0.8592459106445313,-0.6465841178894043,-0.2253759765625,0.17521963119506836,0.13183191299438476
1681917731.402898,2.5621399765014647,0.06690849304199219,-0.8592459106445313,-0.6465841178894043,-0.2253759765625,0.17521963119506836,0.13183191299438476
1681917731.4053812,2.5621399765014647,0.06690849304199219,-0.8592459106445313,-0.6465841178894043,-0.2253759765625,0.17521963119506836,0.13183191299438476
1681917731.4078693,2.5621399765014647,0.06690849304199219,-0.8592459106445313,-0.6465841178894043,-0.2253759765625,0.17521963119506836,0.13183191299438476
1681917731.4103856,2.6280082130432127,0.07307111740112304,-0.8847767829895019,-0.6506168670654296,-0.23153860092163087,0.17355087280273437,0.13183191299438476
1681917731.412887,2.6280082130432127,0.07307111740112304,-0.8847767829895019,-0.6506168670654296,-0.23153860092163087,0.17355087280273437,0.13183191299438476
1681917731.4154115,2.6280082130432127,0.07307111740112304,-0.8847767829895019,-0.6506168670654296,-0.23153860092163087,0.17355087280273437,0.13183191299438476
1681917731.4178817,2.6280082130432127,0.07307111740112304,-0.8847767829895019,-0.6506168670654296,-0.23153860092163087,0.17355087280273437,0.13183191299438476
1681917731.420377,2.6884994506835938,0.07483186721801757,-0.9076665306091308,-0.6452398681640625,-0.2280171012878418,0.17588713455200194,0.1291618995666504
1681917731.4228816,2.6884994506835938,0.07483186721801757,-0.9076665306091308,-0.6452398681640625,-0.2280171012878418,0.17588713455200194,0.1291618995666504
1681917731.4253821,2.6884994506835938,0.07483186721801757,-0.9076665306091308,-0.6452398681640625,-0.2280171012878418,0.17588713455200194,0.1291618995666504
1681917731.427893,2.6884994506835938,0.07483186721801757,-0.9076665306091308,-0.6452398681640625,-0.2280171012878418,0.17588713455200194,0.1291618995666504
1681917731.4303966,2.6911879501342773,0.07131036758422851,-0.9041450309753418,-0.6412071189880371,-0.2332993507385254,0.17355087280273437,0.13016315460205077
1681917731.4328873,2.6911879501342773,0.07131036758422851,-0.9041450309753418,-0.6412071189880371,-0.2332993507385254,0.17355087280273437,0.13016315460205077
1681917731.4353802,2.6911879501342773,0.07131036758422851,-0.9041450309753418,-0.6412071189880371,-0.2332993507385254,0.17355087280273437,0.13016315460205077
1681917731.4378836,2.6911879501342773,0.07131036758422851,-0.9041450309753418,-0.6412071189880371,-0.2332993507385254,0.17355087280273437,0.13016315460205077
1681917731.4403813,2.652204708099365,0.06778886795043945,-0.8953412818908691,-0.6492726173400879,-0.22889747619628906,0.17622088623046875,0.129829402923584
1681917731.4428883,2.652204708099365,0.06778886795043945,-0.8953412818908691,-0.6492726173400879,-0.22889747619628906,0.17622088623046875,0.129829402923584
1681917731.4453826,2.652204708099365,0.06778886795043945,-0.8953412818908691,-0.6492726173400879,-0.22889747619628906,0.17622088623046875,0.129829402923584
1681917731.4478805,2.652204708099365,0.06778886795043945,-0.8953412818908691,-0.6492726173400879,-0.22889747619628906,0.17622088623046875,0.129829402923584
1681917731.4503639,2.6159099655151365,0.07219074249267578,-0.8838964080810546,-0.6479283676147461,-0.2306582260131836,0.17388462448120118,0.12816064453125
1681917731.4528801,2.6159099655151365,0.07219074249267578,-0.8838964080810546,-0.6479283676147461,-0.2306582260131836,0.17388462448120118,0.12816064453125
1681917731.455386,2.6159099655151365,0.07219074249267578,-0.8838964080810546,-0.6479283676147461,-0.2306582260131836,0.17388462448120118,0.12816064453125
1681917731.4579005,2.6159099655151365,0.07219074249267578,-0.8838964080810546,-0.6479283676147461,-0.2306582260131836,0.17388462448120118,0.12816064453125
1681917731.460384,2.607844467163086,0.07483186721801757,-0.8750926589965821,-0.6479283676147461,-0.23241897583007812,0.17388462448120118,0.13049690628051758
1681917731.4628844,2.607844467163086,0.07483186721801757,-0.8750926589965821,-0.6479283676147461,-0.23241897583007812,0.17388462448120118,0.13049690628051758
1681917731.4653888,2.607844467163086,0.07483186721801757,-0.8750926589965821,-0.6479283676147461,-0.23241897583007812,0.17388462448120118,0.13049690628051758
1681917731.4678893,2.607844467163086,0.07483186721801757,-0.8750926589965821,-0.6479283676147461,-0.23241897583007812,0.17388462448120118,0.13049690628051758
1681917731.4703932,2.6065002174377443,0.06954961776733398,-0.8786141586303711,-0.6465841178894043,-0.23153860092163087,0.17421837615966798,0.12816064453125
1681917731.4728916,2.6065002174377443,0.06954961776733398,-0.8786141586303711,-0.6465841178894043,-0.23153860092163087,0.17421837615966798,0.12816064453125
1681917731.475381,2.6065002174377443,0.06954961776733398,-0.8786141586303711,-0.6465841178894043,-0.23153860092163087,0.17421837615966798,0.12816064453125
1681917731.4778864,2.6065002174377443,0.06954961776733398,-0.8786141586303711,-0.6465841178894043,-0.23153860092163087,0.17421837615966798,0.12816064453125
1681917731.480396,2.621286964416504,0.07395149230957031,-0.8865375328063965,-0.6533053665161133,-0.23153860092163087,0.17688838958740236,0.13049690628051758
1681917731.482881,2.621286964416504,0.07395149230957031,-0.8865375328063965,-0.6533053665161133,-0.23153860092163087,0.17688838958740236,0.13049690628051758
1681917731.485381,2.621286964416504,0.07395149230957031,-0.8865375328063965,-0.6533053665161133,-0.23153860092163087,0.17688838958740236,0.13049690628051758
1681917731.4878893,2.621286964416504,0.07395149230957031,-0.8865375328063965,-0.6533053665161133,-0.23153860092163087,0.17688838958740236,0.13049690628051758
1681917731.4903972,2.652204708099365,0.07131036758422851,-0.8874179077148437,-0.6479283676147461,-0.2227348518371582,0.17321712112426757,0.13049690628051758
1681917731.4928849,2.652204708099365,0.07131036758422851,-0.8874179077148437,-0.6479283676147461,-0.2227348518371582,0.17321712112426757,0.13049690628051758
1681917731.4953883,2.652204708099365,0.07131036758422851,-0.8874179077148437,-0.6479283676147461,-0.2227348518371582,0.17321712112426757,0.13049690628051758
1681917731.4978867,2.652204708099365,0.07131036758422851,-0.8874179077148437,-0.6479283676147461,-0.2227348518371582,0.17321712112426757,0.13049690628051758
1681917731.5003831,2.687155200958252,0.06778886795043945,-0.8909394073486328,-0.6479283676147461,-0.22977785110473634,0.17455212783813476,0.12682563781738282
1681917731.502885,2.687155200958252,0.06778886795043945,-0.8909394073486328,-0.6479283676147461,-0.22977785110473634,0.17455212783813476,0.12682563781738282
1681917731.505468,2.687155200958252,0.06778886795043945,-0.8909394073486328,-0.6479283676147461,-0.22977785110473634,0.17455212783813476,0.12682563781738282
1681917731.5079901,2.687155200958252,0.06778886795043945,-0.8909394073486328,-0.6479283676147461,-0.22977785110473634,0.17455212783813476,0.12682563781738282
1681917731.5103827,2.7368924407958986,0.07747299194335937,-0.9094272804260254,-0.6519611167907715,-0.23241897583007812,0.17655463790893555,0.13083065795898438
1681917731.5128806,2.7368924407958986,0.07747299194335937,-0.9094272804260254,-0.6519611167907715,-0.23241897583007812,0.17655463790893555,0.13083065795898438
1681917731.5154517,2.7368924407958986,0.07747299194335937,-0.9094272804260254,-0.6519611167907715,-0.23241897583007812,0.17655463790893555,0.13083065795898438
1681917731.5178735,2.7368924407958986,0.07747299194335937,-0.9094272804260254,-0.6519611167907715,-0.23241897583007812,0.17655463790893555,0.13083065795898438
1681917731.5203836,2.765121685028076,0.07571224212646484,-0.914709529876709,-0.6385186195373536,-0.2253759765625,0.17622088623046875,0.1284943962097168
1681917731.5228837,2.765121685028076,0.07571224212646484,-0.914709529876709,-0.6385186195373536,-0.2253759765625,0.17622088623046875,0.1284943962097168
1681917731.5253918,2.765121685028076,0.07571224212646484,-0.914709529876709,-0.6385186195373536,-0.2253759765625,0.17622088623046875,0.1284943962097168
1681917731.5278842,2.765121685028076,0.07571224212646484,-0.914709529876709,-0.6385186195373536,-0.2253759765625,0.17622088623046875,0.1284943962097168
1681917731.5303874,2.7637774353027345,0.07307111740112304,-0.9199917793273925,-0.6398628692626953,-0.2306582260131836,0.17655463790893555,0.1284943962097168
1681917731.532881,2.7637774353027345,0.07307111740112304,-0.9199917793273925,-0.6398628692626953,-0.2306582260131836,0.17655463790893555,0.1284943962097168
1681917731.5353813,2.7637774353027345,0.07307111740112304,-0.9199917793273925,-0.6398628692626953,-0.2306582260131836,0.17655463790893555,0.1284943962097168
1681917731.5378864,2.7422694396972656,0.07219074249267578,-0.9129487800598144,-0.6425513687133789,-0.2332993507385254,0.17722214126586913,0.13116440963745118
1681917731.5403957,2.7422694396972656,0.07219074249267578,-0.9129487800598144,-0.6425513687133789,-0.2332993507385254,0.17722214126586913,0.13116440963745118
1681917731.5428805,2.7422694396972656,0.07219074249267578,-0.9129487800598144,-0.6425513687133789,-0.2332993507385254,0.17722214126586913,0.13116440963745118
1681917731.5453823,2.7422694396972656,0.07219074249267578,-0.9129487800598144,-0.6425513687133789,-0.2332993507385254,0.17722214126586913,0.13116440963745118
1681917731.547887,2.7422694396972656,0.07219074249267578,-0.9129487800598144,-0.6425513687133789,-0.2332993507385254,0.17722214126586913,0.13116440963745118
1681917731.5503953,2.720761444091797,0.07219074249267578,-0.9085469055175781,-0.6519611167907715,-0.2280171012878418,0.17488587951660156,0.129829402923584
1681917731.5528827,2.720761444091797,0.07219074249267578,-0.9085469055175781,-0.6519611167907715,-0.2280171012878418,0.17488587951660156,0.129829402923584
1681917731.555383,2.720761444091797,0.07219074249267578,-0.9085469055175781,-0.6519611167907715,-0.2280171012878418,0.17488587951660156,0.129829402923584
1681917731.557881,2.720761444091797,0.07219074249267578,-0.9085469055175781,-0.6519611167907715,-0.2280171012878418,0.17488587951660156,0.129829402923584
1681917731.560397,2.692532199859619,0.07219074249267578,-0.9023842811584473,-0.6586823654174805,-0.23417972564697265,0.17521963119506836,0.1288281478881836
1681917731.5628877,2.692532199859619,0.07219074249267578,-0.9023842811584473,-0.6586823654174805,-0.23417972564697265,0.17521963119506836,0.1288281478881836
1681917731.5654128,2.692532199859619,0.07219074249267578,-0.9023842811584473,-0.6586823654174805,-0.23417972564697265,0.17521963119506836,0.1288281478881836
1681917731.567881,2.692532199859619,0.07219074249267578,-0.9023842811584473,-0.6586823654174805,-0.23417972564697265,0.17521963119506836,0.1288281478881836
1681917731.5704427,2.679089702606201,0.07131036758422851,-0.8953412818908691,-0.6613708648681641,-0.23153860092163087,0.17588713455200194,0.12816064453125
1681917731.5729396,2.679089702606201,0.07131036758422851,-0.8953412818908691,-0.6613708648681641,-0.23153860092163087,0.17588713455200194,0.12816064453125
1681917731.5753868,2.679089702606201,0.07131036758422851,-0.8953412818908691,-0.6613708648681641,-0.23153860092163087,0.17588713455200194,0.12816064453125
1681917731.5778878,2.638762210845947,0.07219074249267578,-0.8927001571655273,-0.6573381156921386,-0.22889747619628906,0.17688838958740236,0.129829402923584
1681917731.5803807,2.638762210845947,0.07219074249267578,-0.8927001571655273,-0.6573381156921386,-0.22889747619628906,0.17688838958740236,0.129829402923584
1681917731.5828474,2.638762210845947,0.07219074249267578,-0.8927001571655273,-0.6573381156921386,-0.22889747619628906,0.17688838958740236,0.129829402923584
1681917731.5853813,2.638762210845947,0.07219074249267578,-0.8927001571655273,-0.6573381156921386,-0.22889747619628906,0.17688838958740236,0.129829402923584
1681917731.5878723,2.638762210845947,0.07219074249267578,-0.8927001571655273,-0.6573381156921386,-0.22889747619628906,0.17688838958740236,0.129829402923584
1681917731.5904136,2.4720752449035643,0.07131036758422851,-0.8222701644897461,-0.6559938659667969,-0.23682085037231446,0.17421837615966798,0.1288281478881836
1681917731.592897,2.4720752449035643,0.07131036758422851,-0.8222701644897461,-0.6559938659667969,-0.23682085037231446,0.17421837615966798,0.1288281478881836
1681917731.5953813,2.4720752449035643,0.07131036758422851,-0.8222701644897461,-0.6559938659667969,-0.23682085037231446,0.17421837615966798,0.1288281478881836
1681917731.5978804,2.4720752449035643,0.07131036758422851,-0.8222701644897461,-0.6559938659667969,-0.23682085037231446,0.17421837615966798,0.1288281478881836
1681917731.600382,2.3389945220947266,0.07042999267578125,-0.7694476699829101,-0.6506168670654296,-0.23153860092163087,0.170880859375,0.13049690628051758
1681917731.6028833,2.3389945220947266,0.07042999267578125,-0.7694476699829101,-0.6506168670654296,-0.23153860092163087,0.170880859375,0.13049690628051758
1681917731.6053898,2.3389945220947266,0.07042999267578125,-0.7694476699829101,-0.6506168670654296,-0.23153860092163087,0.170880859375,0.13049690628051758
1681917731.6078389,2.3389945220947266,0.07042999267578125,-0.7694476699829101,-0.6506168670654296,-0.23153860092163087,0.170880859375,0.13049690628051758
1681917731.6103897,2.3322732734680174,0.07042999267578125,-0.7641654205322266,-0.6479283676147461,-0.22977785110473634,0.1715483627319336,0.13149816131591796
1681917731.612881,2.3322732734680174,0.07042999267578125,-0.7641654205322266,-0.6479283676147461,-0.22977785110473634,0.1715483627319336,0.13149816131591796
1681917731.615393,2.3322732734680174,0.07042999267578125,-0.7641654205322266,-0.6479283676147461,-0.22977785110473634,0.1715483627319336,0.13149816131591796
1681917731.6178837,2.3322732734680174,0.07042999267578125,-0.7641654205322266,-0.6479283676147461,-0.22977785110473634,0.1715483627319336,0.13149816131591796
1681917731.6203954,2.4183052558898925,0.0765926170349121,-0.7958589172363281,-0.6438956184387207,-0.23241897583007812,0.1722158660888672,0.1288281478881836
1681917731.622885,2.4183052558898925,0.0765926170349121,-0.7958589172363281,-0.6438956184387207,-0.23241897583007812,0.1722158660888672,0.1288281478881836
1681917731.6253831,2.4183052558898925,0.0765926170349121,-0.7958589172363281,-0.6438956184387207,-0.23241897583007812,0.1722158660888672,0.1288281478881836
1681917731.6278715,2.4183052558898925,0.0765926170349121,-0.7958589172363281,-0.6438956184387207,-0.23241897583007812,0.1722158660888672,0.1288281478881836
1681917731.6303823,2.539287731170654,0.07395149230957031,-0.8363561630249023,-0.6506168670654296,-0.22977785110473634,0.1722158660888672,0.13183191299438476
1681917731.6328838,2.539287731170654,0.07395149230957031,-0.8363561630249023,-0.6506168670654296,-0.22977785110473634,0.1722158660888672,0.13183191299438476
1681917731.6353812,2.539287731170654,0.07395149230957031,-0.8363561630249023,-0.6506168670654296,-0.22977785110473634,0.1722158660888672,0.13183191299438476
1681917731.6378815,2.539287731170654,0.07395149230957031,-0.8363561630249023,-0.6506168670654296,-0.22977785110473634,0.1722158660888672,0.13183191299438476
1681917731.640401,2.6548932075500487,0.07042999267578125,-0.8777337837219238,-0.6573381156921386,-0.2306582260131836,0.17622088623046875,0.129829402923584
1681917731.6428807,2.6548932075500487,0.07042999267578125,-0.8777337837219238,-0.6573381156921386,-0.2306582260131836,0.17622088623046875,0.129829402923584
1681917731.6453855,2.6548932075500487,0.07042999267578125,-0.8777337837219238,-0.6573381156921386,-0.2306582260131836,0.17622088623046875,0.129829402923584
1681917731.6478844,2.731515441894531,0.07395149230957031,-0.90150390625,-0.6533053665161133,-0.2306582260131836,0.17421837615966798,0.13116440963745118
1681917731.650388,2.731515441894531,0.07395149230957031,-0.90150390625,-0.6533053665161133,-0.2306582260131836,0.17421837615966798,0.13116440963745118
1681917731.652876,2.731515441894531,0.07395149230957031,-0.90150390625,-0.6533053665161133,-0.2306582260131836,0.17421837615966798,0.13116440963745118
1681917731.6553886,2.731515441894531,0.07395149230957031,-0.90150390625,-0.6533053665161133,-0.2306582260131836,0.17421837615966798,0.13116440963745118
1681917731.6578898,2.731515441894531,0.07395149230957031,-0.90150390625,-0.6533053665161133,-0.2306582260131836,0.17421837615966798,0.13116440963745118
1681917731.6603806,2.786629680633545,0.07307111740112304,-0.9138291549682617,-0.6573381156921386,-0.22977785110473634,0.17455212783813476,0.13149816131591796
1681917731.6628838,2.786629680633545,0.07307111740112304,-0.9138291549682617,-0.6573381156921386,-0.22977785110473634,0.17455212783813476,0.13149816131591796
1681917731.6654088,2.786629680633545,0.07307111740112304,-0.9138291549682617,-0.6573381156921386,-0.22977785110473634,0.17455212783813476,0.13149816131591796
1681917731.6678977,2.786629680633545,0.07307111740112304,-0.9138291549682617,-0.6573381156921386,-0.22977785110473634,0.17455212783813476,0.13149816131591796
1681917731.6703923,2.8148589248657228,0.0765926170349121,-0.9226329040527343,-0.6546496162414551,-0.2253759765625,0.17588713455200194,0.13049690628051758
1681917731.6728806,2.8148589248657228,0.0765926170349121,-0.9226329040527343,-0.6546496162414551,-0.2253759765625,0.17588713455200194,0.13049690628051758
1681917731.675381,2.8148589248657228,0.0765926170349121,-0.9226329040527343,-0.6546496162414551,-0.2253759765625,0.17588713455200194,0.13049690628051758
1681917731.6779048,2.8148589248657228,0.0765926170349121,-0.9226329040527343,-0.6546496162414551,-0.2253759765625,0.17588713455200194,0.13049690628051758
1681917731.6803887,2.8242686729431155,0.07571224212646484,-0.9296759033203125,-0.6492726173400879,-0.23241897583007812,0.17688838958740236,0.13350067138671876
1681917731.682889,2.8242686729431155,0.07571224212646484,-0.9296759033203125,-0.6492726173400879,-0.23241897583007812,0.17688838958740236,0.13350067138671876
1681917731.685396,2.8242686729431155,0.07571224212646484,-0.9296759033203125,-0.6492726173400879,-0.23241897583007812,0.17688838958740236,0.13350067138671876
1681917731.6879141,2.8242686729431155,0.07571224212646484,-0.9296759033203125,-0.6492726173400879,-0.23241897583007812,0.17688838958740236,0.13350067138671876
1681917731.6904154,2.8484651679992674,0.08011411666870118,-0.9367189025878906,-0.6519611167907715,-0.23153860092163087,0.17455212783813476,0.13016315460205077
1681917731.692883,2.8484651679992674,0.08011411666870118,-0.9367189025878906,-0.6519611167907715,-0.23153860092163087,0.17455212783813476,0.13016315460205077
1681917731.6953857,2.8484651679992674,0.08011411666870118,-0.9367189025878906,-0.6519611167907715,-0.23153860092163087,0.17455212783813476,0.13016315460205077
1681917731.6978593,2.8484651679992674,0.08011411666870118,-0.9367189025878906,-0.6519611167907715,-0.23153860092163087,0.17455212783813476,0.13016315460205077
1681917731.7003877,2.840399669647217,0.08187486648559571,-0.9428815269470214,-0.6492726173400879,-0.22713672637939453,0.17588713455200194,0.1271593894958496
1681917731.7028968,2.840399669647217,0.08187486648559571,-0.9428815269470214,-0.6492726173400879,-0.22713672637939453,0.17588713455200194,0.1271593894958496
1681917731.7053812,2.840399669647217,0.08187486648559571,-0.9428815269470214,-0.6492726173400879,-0.22713672637939453,0.17588713455200194,0.1271593894958496
1681917731.7078824,2.840399669647217,0.08187486648559571,-0.9428815269470214,-0.6492726173400879,-0.22713672637939453,0.17588713455200194,0.1271593894958496
1681917731.7103825,2.8094819259643553,0.07307111740112304,-0.9358385276794433,-0.6492726173400879,-0.2306582260131836,0.17388462448120118,0.13149816131591796
1681917731.712881,2.8094819259643553,0.07307111740112304,-0.9358385276794433,-0.6492726173400879,-0.2306582260131836,0.17388462448120118,0.13149816131591796
1681917731.7153857,2.8094819259643553,0.07307111740112304,-0.9358385276794433,-0.6492726173400879,-0.2306582260131836,0.17388462448120118,0.13149816131591796
1681917731.7178833,2.8094819259643553,0.07307111740112304,-0.9358385276794433,-0.6492726173400879,-0.2306582260131836,0.17388462448120118,0.13149816131591796
1681917731.7204316,2.726138442993164,0.07307111740112304,-0.9111880302429199,-0.6559938659667969,-0.23153860092163087,0.17822339630126954,0.13049690628051758
1681917731.7229378,2.726138442993164,0.07307111740112304,-0.9111880302429199,-0.6559938659667969,-0.23153860092163087,0.17822339630126954,0.13049690628051758
1681917731.7253964,2.726138442993164,0.07307111740112304,-0.9111880302429199,-0.6559938659667969,-0.23153860092163087,0.17822339630126954,0.13049690628051758
1681917731.7278817,2.726138442993164,0.07307111740112304,-0.9111880302429199,-0.6559938659667969,-0.23153860092163087,0.17822339630126954,0.13049690628051758
1681917731.7303715,2.6495162086486816,0.07307111740112304,-0.8768534088134765,-0.6533053665161133,-0.22713672637939453,0.17521963119506836,0.13116440963745118
1681917731.7329438,2.6495162086486816,0.07307111740112304,-0.8768534088134765,-0.6533053665161133,-0.22713672637939453,0.17521963119506836,0.13116440963745118
1681917731.7354445,2.6495162086486816,0.07307111740112304,-0.8768534088134765,-0.6533053665161133,-0.22713672637939453,0.17521963119506836,0.13116440963745118
1681917731.737961,2.6495162086486816,0.07307111740112304,-0.8768534088134765,-0.6533053665161133,-0.22713672637939453,0.17521963119506836,0.13116440963745118
1681917731.740475,2.578270973205566,0.07307111740112304,-0.8539636611938476,-0.6600266151428222,-0.22889747619628906,0.17421837615966798,0.13183191299438476
1681917731.7429438,2.578270973205566,0.07307111740112304,-0.8539636611938476,-0.6600266151428222,-0.22889747619628906,0.17421837615966798,0.13183191299438476
1681917731.7454398,2.578270973205566,0.07307111740112304,-0.8539636611938476,-0.6600266151428222,-0.22889747619628906,0.17421837615966798,0.13183191299438476
1681917731.7479422,2.578270973205566,0.07307111740112304,-0.8539636611938476,-0.6600266151428222,-0.22889747619628906,0.17421837615966798,0.13183191299438476
1681917731.750454,2.5540744781494142,0.07131036758422851,-0.8460402870178223,-0.6559938659667969,-0.22977785110473634,0.17355087280273437,0.1294956512451172
1681917731.7529411,2.5540744781494142,0.07131036758422851,-0.8460402870178223,-0.6559938659667969,-0.22977785110473634,0.17355087280273437,0.1294956512451172
1681917731.755381,2.5540744781494142,0.07131036758422851,-0.8460402870178223,-0.6559938659667969,-0.22977785110473634,0.17355087280273437,0.1294956512451172
1681917731.7578826,2.5540744781494142,0.07131036758422851,-0.8460402870178223,-0.6559938659667969,-0.22977785110473634,0.17355087280273437,0.1294956512451172
1681917731.7604694,2.5567629776000977,0.07042999267578125,-0.8372365379333496,-0.6600266151428222,-0.23241897583007812,0.1728833694458008,0.13083065795898438
1681917731.762985,2.5567629776000977,0.07042999267578125,-0.8372365379333496,-0.6600266151428222,-0.23241897583007812,0.1728833694458008,0.13083065795898438
1681917731.7654397,2.5567629776000977,0.07042999267578125,-0.8372365379333496,-0.6600266151428222,-0.23241897583007812,0.1728833694458008,0.13083065795898438
1681917731.76794,2.5567629776000977,0.07042999267578125,-0.8372365379333496,-0.6600266151428222,-0.23241897583007812,0.1728833694458008,0.13083065795898438
1681917731.770441,2.5769267234802244,0.07483186721801757,-0.8504421615600586,-0.6600266151428222,-0.2306582260131836,0.17521963119506836,0.12816064453125
1681917731.7729466,2.5769267234802244,0.07483186721801757,-0.8504421615600586,-0.6600266151428222,-0.2306582260131836,0.17521963119506836,0.12816064453125
1681917731.775455,2.5769267234802244,0.07483186721801757,-0.8504421615600586,-0.6600266151428222,-0.2306582260131836,0.17521963119506836,0.12816064453125
1681917731.7779467,2.5769267234802244,0.07483186721801757,-0.8504421615600586,-0.6600266151428222,-0.2306582260131836,0.17521963119506836,0.12816064453125
1681917731.780475,2.6105329666137695,0.06954961776733398,-0.8557244110107421,-0.6586823654174805,-0.23241897583007812,0.17588713455200194,0.13149816131591796
1681917731.7829158,2.6105329666137695,0.06954961776733398,-0.8557244110107421,-0.6586823654174805,-0.23241897583007812,0.17588713455200194,0.13149816131591796
1681917731.785459,2.6105329666137695,0.06954961776733398,-0.8557244110107421,-0.6586823654174805,-0.23241897583007812,0.17588713455200194,0.13149816131591796
1681917731.7880225,2.6105329666137695,0.06954961776733398,-0.8557244110107421,-0.6586823654174805,-0.23241897583007812,0.17588713455200194,0.13149816131591796
1681917731.7903864,2.6427949600219725,0.0765926170349121,-0.8750926589965821,-0.6613708648681641,-0.2332993507385254,0.17421837615966798,0.1291618995666504
1681917731.7929718,2.6427949600219725,0.0765926170349121,-0.8750926589965821,-0.6613708648681641,-0.2332993507385254,0.17421837615966798,0.1291618995666504
1681917731.7954924,2.6427949600219725,0.0765926170349121,-0.8750926589965821,-0.6613708648681641,-0.2332993507385254,0.17421837615966798,0.1291618995666504
1681917731.7979586,2.6427949600219725,0.0765926170349121,-0.8750926589965821,-0.6613708648681641,-0.2332993507385254,0.17421837615966798,0.1291618995666504
1681917731.8004105,2.6965649490356447,0.07571224212646484,-0.8891786575317383,-0.6586823654174805,-0.2306582260131836,0.17555338287353517,0.13116440963745118
1681917731.802967,2.6965649490356447,0.07571224212646484,-0.8891786575317383,-0.6586823654174805,-0.2306582260131836,0.17555338287353517,0.13116440963745118
1681917731.8054478,2.6965649490356447,0.07571224212646484,-0.8891786575317383,-0.6586823654174805,-0.2306582260131836,0.17555338287353517,0.13116440963745118
1681917731.807948,2.6965649490356447,0.07571224212646484,-0.8891786575317383,-0.6586823654174805,-0.2306582260131836,0.17555338287353517,0.13116440963745118
1681917731.81047,2.766465934753418,0.07571224212646484,-0.9006235313415527,-0.6479283676147461,-0.22625635147094728,0.17655463790893555,0.13350067138671876
1681917731.8129597,2.766465934753418,0.07571224212646484,-0.9006235313415527,-0.6479283676147461,-0.22625635147094728,0.17655463790893555,0.13350067138671876
1681917731.815455,2.766465934753418,0.07571224212646484,-0.9006235313415527,-0.6479283676147461,-0.22625635147094728,0.17655463790893555,0.13350067138671876
1681917731.817946,2.766465934753418,0.07571224212646484,-0.9006235313415527,-0.6479283676147461,-0.22625635147094728,0.17655463790893555,0.13350067138671876
1681917731.8204548,2.8350226707458495,0.07923374176025391,-0.9323170280456543,-0.6492726173400879,-0.2253759765625,0.17421837615966798,0.13149816131591796
1681917731.822882,2.8350226707458495,0.07923374176025391,-0.9323170280456543,-0.6492726173400879,-0.2253759765625,0.17421837615966798,0.13149816131591796
1681917731.825479,2.8350226707458495,0.07923374176025391,-0.9323170280456543,-0.6492726173400879,-0.2253759765625,0.17421837615966798,0.13149816131591796
1681917731.8279006,2.867284664154053,0.07307111740112304,-0.9428815269470214,-0.6492726173400879,-0.2306582260131836,0.17622088623046875,0.1294956512451172
1681917731.8304543,2.867284664154053,0.07307111740112304,-0.9428815269470214,-0.6492726173400879,-0.2306582260131836,0.17622088623046875,0.1294956512451172
1681917731.8328807,2.867284664154053,0.07307111740112304,-0.9428815269470214,-0.6492726173400879,-0.2306582260131836,0.17622088623046875,0.1294956512451172
1681917731.835439,2.867284664154053,0.07307111740112304,-0.9428815269470214,-0.6492726173400879,-0.2306582260131836,0.17622088623046875,0.1294956512451172
1681917731.837961,2.867284664154053,0.07307111740112304,-0.9428815269470214,-0.6492726173400879,-0.2306582260131836,0.17622088623046875,0.1294956512451172
1681917731.8404727,2.8645961647033693,0.07923374176025391,-0.941120777130127,-0.6506168670654296,-0.2306582260131836,0.17355087280273437,0.1291618995666504
1681917731.8429492,2.8645961647033693,0.07923374176025391,-0.941120777130127,-0.6506168670654296,-0.2306582260131836,0.17355087280273437,0.1291618995666504
1681917731.8454192,2.8645961647033693,0.07923374176025391,-0.941120777130127,-0.6506168670654296,-0.2306582260131836,0.17355087280273437,0.1291618995666504
1681917731.8479464,2.8645961647033693,0.07923374176025391,-0.941120777130127,-0.6506168670654296,-0.2306582260131836,0.17355087280273437,0.1291618995666504
1681917731.8504167,2.786629680633545,0.07835336685180663,-0.9261544036865235,-0.6586823654174805,-0.22889747619628906,0.17421837615966798,0.1294956512451172
1681917731.8529558,2.786629680633545,0.07835336685180663,-0.9261544036865235,-0.6586823654174805,-0.22889747619628906,0.17421837615966798,0.1294956512451172
1681917731.8553834,2.786629680633545,0.07835336685180663,-0.9261544036865235,-0.6586823654174805,-0.22889747619628906,0.17421837615966798,0.1294956512451172
1681917731.85788,2.6817782020568846,0.07307111740112304,-0.8891786575317383,-0.6586823654174805,-0.2306582260131836,0.17688838958740236,0.13016315460205077
1681917731.8605027,2.6817782020568846,0.07307111740112304,-0.8891786575317383,-0.6586823654174805,-0.2306582260131836,0.17688838958740236,0.13016315460205077
1681917731.8628855,2.6817782020568846,0.07307111740112304,-0.8891786575317383,-0.6586823654174805,-0.2306582260131836,0.17688838958740236,0.13016315460205077
1681917731.8655322,2.6817782020568846,0.07307111740112304,-0.8891786575317383,-0.6586823654174805,-0.2306582260131836,0.17688838958740236,0.13016315460205077
1681917731.8679872,2.6817782020568846,0.07307111740112304,-0.8891786575317383,-0.6586823654174805,-0.2306582260131836,0.17688838958740236,0.13016315460205077
1681917731.870447,2.609188716888428,0.06778886795043945,-0.861887035369873,-0.6613708648681641,-0.23506010055541993,0.17388462448120118,0.1294956512451172
1681917731.8729231,2.609188716888428,0.06778886795043945,-0.861887035369873,-0.6613708648681641,-0.23506010055541993,0.17388462448120118,0.1294956512451172
1681917731.8754404,2.609188716888428,0.06778886795043945,-0.861887035369873,-0.6613708648681641,-0.23506010055541993,0.17388462448120118,0.1294956512451172
1681917731.8779402,2.609188716888428,0.06778886795043945,-0.861887035369873,-0.6613708648681641,-0.23506010055541993,0.17388462448120118,0.1294956512451172
1681917731.88047,2.578270973205566,0.06866924285888672,-0.848681411743164,-0.6586823654174805,-0.22889747619628906,0.17455212783813476,0.1284943962097168
1681917731.882879,2.578270973205566,0.06866924285888672,-0.848681411743164,-0.6586823654174805,-0.22889747619628906,0.17455212783813476,0.1284943962097168
1681917731.8854249,2.578270973205566,0.06866924285888672,-0.848681411743164,-0.6586823654174805,-0.22889747619628906,0.17455212783813476,0.1284943962097168
1681917731.887887,2.578270973205566,0.06866924285888672,-0.848681411743164,-0.6586823654174805,-0.22889747619628906,0.17455212783813476,0.1284943962097168
1681917731.890512,2.5769267234802244,0.07219074249267578,-0.8495617866516113,-0.6613708648681641,-0.23241897583007812,0.17321712112426757,0.1291618995666504
1681917731.892939,2.5769267234802244,0.07219074249267578,-0.8495617866516113,-0.6613708648681641,-0.23241897583007812,0.17321712112426757,0.1291618995666504
1681917731.895441,2.5769267234802244,0.07219074249267578,-0.8495617866516113,-0.6613708648681641,-0.23241897583007812,0.17321712112426757,0.1291618995666504
1681917731.897986,2.5769267234802244,0.07219074249267578,-0.8495617866516113,-0.6613708648681641,-0.23241897583007812,0.17321712112426757,0.1291618995666504
1681917731.9004605,2.6065002174377443,0.07571224212646484,-0.8548440361022949,-0.6546496162414551,-0.22713672637939453,0.17521963119506836,0.1278268928527832
1681917731.902979,2.6065002174377443,0.07571224212646484,-0.8548440361022949,-0.6546496162414551,-0.22713672637939453,0.17521963119506836,0.1278268928527832
1681917731.9054656,2.6065002174377443,0.07571224212646484,-0.8548440361022949,-0.6546496162414551,-0.22713672637939453,0.17521963119506836,0.1278268928527832
1681917731.9079628,2.6065002174377443,0.07571224212646484,-0.8548440361022949,-0.6546496162414551,-0.22713672637939453,0.17521963119506836,0.1278268928527832
1681917731.9104402,2.5930577201843263,0.07307111740112304,-0.858365535736084,-0.6533053665161133,-0.23153860092163087,0.17355087280273437,0.1288281478881836
1681917731.9128811,2.5930577201843263,0.07307111740112304,-0.858365535736084,-0.6533053665161133,-0.23153860092163087,0.17355087280273437,0.1288281478881836
1681917731.9153838,2.5930577201843263,0.07307111740112304,-0.858365535736084,-0.6533053665161133,-0.23153860092163087,0.17355087280273437,0.1288281478881836
1681917731.9179854,2.5930577201843263,0.07307111740112304,-0.858365535736084,-0.6533053665161133,-0.23153860092163087,0.17355087280273437,0.1288281478881836
1681917731.9203818,2.4304035034179687,0.06690849304199219,-0.7861747932434082,-0.6654036140441895,-0.23506010055541993,0.17388462448120118,0.1274931411743164
1681917731.9228587,2.4304035034179687,0.06690849304199219,-0.7861747932434082,-0.6654036140441895,-0.23506010055541993,0.17388462448120118,0.1274931411743164
1681917731.9254603,2.4304035034179687,0.06690849304199219,-0.7861747932434082,-0.6654036140441895,-0.23506010055541993,0.17388462448120118,0.1274931411743164
1681917731.9279833,2.4304035034179687,0.06690849304199219,-0.7861747932434082,-0.6654036140441895,-0.23506010055541993,0.17388462448120118,0.1274931411743164
1681917731.9304588,2.329584774017334,0.06778886795043945,-0.7553616714477539,-0.6627151145935058,-0.23417972564697265,0.1728833694458008,0.13249941635131837
1681917731.9329588,2.329584774017334,0.06778886795043945,-0.7553616714477539,-0.6627151145935058,-0.23417972564697265,0.1728833694458008,0.13249941635131837
1681917731.9354415,2.329584774017334,0.06778886795043945,-0.7553616714477539,-0.6627151145935058,-0.23417972564697265,0.1728833694458008,0.13249941635131837
1681917731.9379559,2.329584774017334,0.06778886795043945,-0.7553616714477539,-0.6627151145935058,-0.23417972564697265,0.1728833694458008,0.13249941635131837
1681917731.9405007,2.3268962745666504,0.06514774322509766,-0.762404670715332,-0.6734691123962402,-0.23594047546386718,0.17521963119506836,0.1294956512451172
1681917731.9429355,2.3268962745666504,0.06514774322509766,-0.762404670715332,-0.6734691123962402,-0.23594047546386718,0.17521963119506836,0.1294956512451172
1681917731.9454203,2.3268962745666504,0.06514774322509766,-0.762404670715332,-0.6734691123962402,-0.23594047546386718,0.17521963119506836,0.1294956512451172
1681917731.947882,2.3268962745666504,0.06514774322509766,-0.762404670715332,-0.6734691123962402,-0.23594047546386718,0.17521963119506836,0.1294956512451172
1681917731.9503837,2.3967972602844236,0.06866924285888672,-0.7835336685180664,-0.6734691123962402,-0.2332993507385254,0.17421837615966798,0.129829402923584
1681917731.9528763,2.3967972602844236,0.06866924285888672,-0.7835336685180664,-0.6734691123962402,-0.2332993507385254,0.17421837615966798,0.129829402923584
1681917731.9553826,2.3967972602844236,0.06866924285888672,-0.7835336685180664,-0.6734691123962402,-0.2332993507385254,0.17421837615966798,0.129829402923584
1681917731.9579613,2.3967972602844236,0.06866924285888672,-0.7835336685180664,-0.6734691123962402,-0.2332993507385254,0.17421837615966798,0.129829402923584
1681917731.9604704,2.521812484741211,0.06690849304199219,-0.815227165222168,-0.6680921134948731,-0.23594047546386718,0.17655463790893555,0.13083065795898438
1681917731.96294,2.521812484741211,0.06690849304199219,-0.815227165222168,-0.6680921134948731,-0.23594047546386718,0.17655463790893555,0.13083065795898438
1681917731.9654686,2.521812484741211,0.06690849304199219,-0.815227165222168,-0.6680921134948731,-0.23594047546386718,0.17655463790893555,0.13083065795898438
1681917731.9679415,2.521812484741211,0.06690849304199219,-0.815227165222168,-0.6680921134948731,-0.23594047546386718,0.17655463790893555,0.13083065795898438
1681917731.970451,2.660270206451416,0.07395149230957031,-0.858365535736084,-0.6707806129455567,-0.23241897583007812,0.17488587951660156,0.12816064453125
1681917731.9729655,2.660270206451416,0.07395149230957031,-0.858365535736084,-0.6707806129455567,-0.23241897583007812,0.17488587951660156,0.12816064453125
1681917731.9754508,2.660270206451416,0.07395149230957031,-0.858365535736084,-0.6707806129455567,-0.23241897583007812,0.17488587951660156,0.12816064453125
1681917731.9778793,2.765121685028076,0.07483186721801757,-0.9006235313415527,-0.6654036140441895,-0.2332993507385254,0.17555338287353517,0.129829402923584
1681917731.9804866,2.765121685028076,0.07483186721801757,-0.9006235313415527,-0.6654036140441895,-0.2332993507385254,0.17555338287353517,0.129829402923584
1681917731.982955,2.765121685028076,0.07483186721801757,-0.9006235313415527,-0.6654036140441895,-0.2332993507385254,0.17555338287353517,0.129829402923584
1681917731.9854527,2.765121685028076,0.07483186721801757,-0.9006235313415527,-0.6654036140441895,-0.2332993507385254,0.17555338287353517,0.129829402923584
1681917731.9880147,2.765121685028076,0.07483186721801757,-0.9006235313415527,-0.6654036140441895,-0.2332993507385254,0.17555338287353517,0.129829402923584
1681917731.9904215,2.845776668548584,0.08363561630249024,-0.9323170280456543,-0.6573381156921386,-0.22977785110473634,0.17555338287353517,0.1291618995666504
1681917731.992945,2.845776668548584,0.08363561630249024,-0.9323170280456543,-0.6573381156921386,-0.22977785110473634,0.17555338287353517,0.1291618995666504
1681917731.9954455,2.845776668548584,0.08363561630249024,-0.9323170280456543,-0.6573381156921386,-0.22977785110473634,0.17555338287353517,0.1291618995666504
1681917731.9979746,2.845776668548584,0.08363561630249024,-0.9323170280456543,-0.6573381156921386,-0.22977785110473634,0.17555338287353517,0.1291618995666504
1681917732.0003877,2.8740059127807616,0.07747299194335937,-0.9428815269470214,-0.6546496162414551,-0.23153860092163087,0.17555338287353517,0.13016315460205077
1681917732.0028727,2.8740059127807616,0.07747299194335937,-0.9428815269470214,-0.6546496162414551,-0.23153860092163087,0.17555338287353517,0.13016315460205077
1681917732.0054898,2.8740059127807616,0.07747299194335937,-0.9428815269470214,-0.6546496162414551,-0.23153860092163087,0.17555338287353517,0.13016315460205077
1681917732.0079856,2.8740059127807616,0.07747299194335937,-0.9428815269470214,-0.6546496162414551,-0.23153860092163087,0.17555338287353517,0.13016315460205077
1681917732.0104465,2.845776668548584,0.07483186721801757,-0.9287955284118652,-0.6559938659667969,-0.23594047546386718,0.17788964462280274,0.12816064453125
1681917732.0129623,2.845776668548584,0.07483186721801757,-0.9287955284118652,-0.6559938659667969,-0.23594047546386718,0.17788964462280274,0.12816064453125
1681917732.0155041,2.845776668548584,0.07483186721801757,-0.9287955284118652,-0.6559938659667969,-0.23594047546386718,0.17788964462280274,0.12816064453125
1681917732.017998,2.845776668548584,0.07483186721801757,-0.9287955284118652,-0.6559938659667969,-0.23594047546386718,0.17788964462280274,0.12816064453125
1681917732.020442,2.8242686729431155,0.07571224212646484,-0.9358385276794433,-0.6519611167907715,-0.23241897583007812,0.17588713455200194,0.13116440963745118
1681917732.0228815,2.8242686729431155,0.07571224212646484,-0.9358385276794433,-0.6519611167907715,-0.23241897583007812,0.17588713455200194,0.13116440963745118
1681917732.0254436,2.8242686729431155,0.07571224212646484,-0.9358385276794433,-0.6519611167907715,-0.23241897583007812,0.17588713455200194,0.13116440963745118
1681917732.027958,2.8242686729431155,0.07571224212646484,-0.9358385276794433,-0.6519611167907715,-0.23241897583007812,0.17588713455200194,0.13116440963745118
1681917732.030422,2.818891674041748,0.07571224212646484,-0.9226329040527343,-0.6627151145935058,-0.22889747619628906,0.17421837615966798,0.129829402923584
1681917732.0329592,2.818891674041748,0.07571224212646484,-0.9226329040527343,-0.6627151145935058,-0.22889747619628906,0.17421837615966798,0.129829402923584
1681917732.0354786,2.818891674041748,0.07571224212646484,-0.9226329040527343,-0.6627151145935058,-0.22889747619628906,0.17421837615966798,0.129829402923584
1681917732.0379949,2.818891674041748,0.07571224212646484,-0.9226329040527343,-0.6627151145935058,-0.22889747619628906,0.17421837615966798,0.129829402923584
1681917732.0405064,2.793350929260254,0.07835336685180663,-0.9226329040527343,-0.6640593643188477,-0.22977785110473634,0.17555338287353517,0.12682563781738282
1681917732.042888,2.793350929260254,0.07835336685180663,-0.9226329040527343,-0.6640593643188477,-0.22977785110473634,0.17555338287353517,0.12682563781738282
1681917732.0453866,2.793350929260254,0.07835336685180663,-0.9226329040527343,-0.6640593643188477,-0.22977785110473634,0.17555338287353517,0.12682563781738282
1681917732.047888,2.793350929260254,0.07835336685180663,-0.9226329040527343,-0.6640593643188477,-0.22977785110473634,0.17555338287353517,0.12682563781738282
1681917732.0503845,2.734203941345215,0.0765926170349121,-0.9050254058837891,-0.6546496162414551,-0.23153860092163087,0.17655463790893555,0.12816064453125
1681917732.0529375,2.734203941345215,0.0765926170349121,-0.9050254058837891,-0.6546496162414551,-0.23153860092163087,0.17655463790893555,0.12816064453125
1681917732.0554667,2.734203941345215,0.0765926170349121,-0.9050254058837891,-0.6546496162414551,-0.23153860092163087,0.17655463790893555,0.12816064453125
1681917732.0579653,2.734203941345215,0.0765926170349121,-0.9050254058837891,-0.6546496162414551,-0.23153860092163087,0.17655463790893555,0.12816064453125
1681917732.0604756,2.6831224517822267,0.07395149230957031,-0.8794945335388183,-0.6640593643188477,-0.23946197509765624,0.17488587951660156,0.1278268928527832
1681917732.062948,2.6831224517822267,0.07395149230957031,-0.8794945335388183,-0.6640593643188477,-0.23946197509765624,0.17488587951660156,0.1278268928527832
1681917732.065458,2.6831224517822267,0.07395149230957031,-0.8794945335388183,-0.6640593643188477,-0.23946197509765624,0.17488587951660156,0.1278268928527832
1681917732.0679495,2.6831224517822267,0.07395149230957031,-0.8794945335388183,-0.6640593643188477,-0.23946197509765624,0.17488587951660156,0.1278268928527832
1681917732.0704427,2.634729461669922,0.07307111740112304,-0.8698104095458984,-0.6667478637695312,-0.2306582260131836,0.17588713455200194,0.1291618995666504
1681917732.0729678,2.634729461669922,0.07307111740112304,-0.8698104095458984,-0.6667478637695312,-0.2306582260131836,0.17588713455200194,0.1291618995666504
1681917732.0753884,2.634729461669922,0.07307111740112304,-0.8698104095458984,-0.6667478637695312,-0.2306582260131836,0.17588713455200194,0.1291618995666504
1681917732.077906,2.634729461669922,0.07307111740112304,-0.8698104095458984,-0.6667478637695312,-0.2306582260131836,0.17588713455200194,0.1291618995666504
1681917732.0804677,2.6159099655151365,0.06690849304199219,-0.8548440361022949,-0.6586823654174805,-0.23594047546386718,0.17455212783813476,0.1278268928527832
1681917732.0829616,2.6159099655151365,0.06690849304199219,-0.8548440361022949,-0.6586823654174805,-0.23594047546386718,0.17455212783813476,0.1278268928527832
1681917732.085433,2.6159099655151365,0.06690849304199219,-0.8548440361022949,-0.6586823654174805,-0.23594047546386718,0.17455212783813476,0.1278268928527832
1681917732.087983,2.6159099655151365,0.06690849304199219,-0.8548440361022949,-0.6586823654174805,-0.23594047546386718,0.17455212783813476,0.1278268928527832
1681917732.0904994,2.6159099655151365,0.07131036758422851,-0.8627674102783203,-0.6680921134948731,-0.23153860092163087,0.17455212783813476,0.1288281478881836
1681917732.0929406,2.6159099655151365,0.07131036758422851,-0.8627674102783203,-0.6680921134948731,-0.23153860092163087,0.17455212783813476,0.1288281478881836
1681917732.09544,2.6159099655151365,0.07131036758422851,-0.8627674102783203,-0.6680921134948731,-0.23153860092163087,0.17455212783813476,0.1288281478881836
1681917732.0979512,2.6159099655151365,0.07131036758422851,-0.8627674102783203,-0.6680921134948731,-0.23153860092163087,0.17455212783813476,0.1288281478881836
1681917732.1004856,2.6306967124938967,0.07483186721801757,-0.8601262855529785,-0.6546496162414551,-0.2280171012878418,0.17521963119506836,0.1294956512451172
1681917732.1029296,2.6306967124938967,0.07483186721801757,-0.8601262855529785,-0.6546496162414551,-0.2280171012878418,0.17521963119506836,0.1294956512451172
1681917732.1054533,2.6306967124938967,0.07483186721801757,-0.8601262855529785,-0.6546496162414551,-0.2280171012878418,0.17521963119506836,0.1294956512451172
1681917732.1079848,2.6306967124938967,0.07483186721801757,-0.8601262855529785,-0.6546496162414551,-0.2280171012878418,0.17521963119506836,0.1294956512451172
1681917732.1103818,2.6172542152404783,0.07483186721801757,-0.8627674102783203,-0.6627151145935058,-0.23594047546386718,0.17588713455200194,0.1288281478881836
1681917732.1128953,2.6172542152404783,0.07483186721801757,-0.8627674102783203,-0.6627151145935058,-0.23594047546386718,0.17588713455200194,0.1288281478881836
1681917732.1154432,2.6172542152404783,0.07483186721801757,-0.8627674102783203,-0.6627151145935058,-0.23594047546386718,0.17588713455200194,0.1288281478881836
1681917732.1179683,2.6172542152404783,0.07483186721801757,-0.8627674102783203,-0.6627151145935058,-0.23594047546386718,0.17588713455200194,0.1288281478881836
1681917732.1204853,2.601123218536377,0.07131036758422851,-0.8539636611938476,-0.6546496162414551,-0.2332993507385254,0.17588713455200194,0.1271593894958496
1681917732.1229374,2.601123218536377,0.07131036758422851,-0.8539636611938476,-0.6546496162414551,-0.2332993507385254,0.17588713455200194,0.1271593894958496
1681917732.1254408,2.601123218536377,0.07131036758422851,-0.8539636611938476,-0.6546496162414551,-0.2332993507385254,0.17588713455200194,0.1271593894958496
1681917732.127981,2.601123218536377,0.07131036758422851,-0.8539636611938476,-0.6546496162414551,-0.2332993507385254,0.17588713455200194,0.1271593894958496
1681917732.1304493,2.5890249710083006,0.07835336685180663,-0.8478010368347167,-0.6546496162414551,-0.23241897583007812,0.17688838958740236,0.12682563781738282
1681917732.1329505,2.5890249710083006,0.07835336685180663,-0.8478010368347167,-0.6546496162414551,-0.23241897583007812,0.17688838958740236,0.12682563781738282
1681917732.1354144,2.5890249710083006,0.07835336685180663,-0.8478010368347167,-0.6546496162414551,-0.23241897583007812,0.17688838958740236,0.12682563781738282
1681917732.1379073,2.5890249710083006,0.07835336685180663,-0.8478010368347167,-0.6546496162414551,-0.23241897583007812,0.17688838958740236,0.12682563781738282
1681917732.1403918,2.6118772163391113,0.07042999267578125,-0.8495617866516113,-0.6627151145935058,-0.23153860092163087,0.17521963119506836,0.1291618995666504
1681917732.1429574,2.6118772163391113,0.07042999267578125,-0.8495617866516113,-0.6627151145935058,-0.23153860092163087,0.17521963119506836,0.1291618995666504
1681917732.1454303,2.6118772163391113,0.07042999267578125,-0.8495617866516113,-0.6627151145935058,-0.23153860092163087,0.17521963119506836,0.1291618995666504
1681917732.147924,2.6118772163391113,0.07042999267578125,-0.8495617866516113,-0.6627151145935058,-0.23153860092163087,0.17521963119506836,0.1291618995666504
1681917732.1504571,2.6320409622192384,0.07131036758422851,-0.8557244110107421,-0.6667478637695312,-0.23241897583007812,0.17588713455200194,0.13216566467285157
1681917732.15297,2.6320409622192384,0.07131036758422851,-0.8557244110107421,-0.6667478637695312,-0.23241897583007812,0.17588713455200194,0.13216566467285157
1681917732.1554396,2.6320409622192384,0.07131036758422851,-0.8557244110107421,-0.6667478637695312,-0.23241897583007812,0.17588713455200194,0.13216566467285157
1681917732.1579745,2.6320409622192384,0.07131036758422851,-0.8557244110107421,-0.6667478637695312,-0.23241897583007812,0.17588713455200194,0.13216566467285157
1681917732.1604133,2.634729461669922,0.06954961776733398,-0.8601262855529785,-0.6680921134948731,-0.23506010055541993,0.17688838958740236,0.12816064453125
1681917732.162979,2.634729461669922,0.06954961776733398,-0.8601262855529785,-0.6680921134948731,-0.23506010055541993,0.17688838958740236,0.12816064453125
1681917732.165489,2.634729461669922,0.06954961776733398,-0.8601262855529785,-0.6680921134948731,-0.23506010055541993,0.17688838958740236,0.12816064453125
1681917732.1679654,2.634729461669922,0.06954961776733398,-0.8601262855529785,-0.6680921134948731,-0.23506010055541993,0.17688838958740236,0.12816064453125
1681917732.1704404,2.6051559677124025,0.0765926170349121,-0.8478010368347167,-0.6680921134948731,-0.23417972564697265,0.17488587951660156,0.1284943962097168
1681917732.1729927,2.6051559677124025,0.0765926170349121,-0.8478010368347167,-0.6680921134948731,-0.23417972564697265,0.17488587951660156,0.1284943962097168
1681917732.1753852,2.6051559677124025,0.0765926170349121,-0.8478010368347167,-0.6680921134948731,-0.23417972564697265,0.17488587951660156,0.1284943962097168
1681917732.1778984,2.6051559677124025,0.0765926170349121,-0.8478010368347167,-0.6680921134948731,-0.23417972564697265,0.17488587951660156,0.1284943962097168
1681917732.1804614,2.578270973205566,0.07219074249267578,-0.8513225364685059,-0.6680921134948731,-0.23682085037231446,0.17421837615966798,0.129829402923584
1681917732.182946,2.578270973205566,0.07219074249267578,-0.8513225364685059,-0.6680921134948731,-0.23682085037231446,0.17421837615966798,0.129829402923584
1681917732.1854677,2.578270973205566,0.07219074249267578,-0.8513225364685059,-0.6680921134948731,-0.23682085037231446,0.17421837615966798,0.129829402923584
1681917732.187994,2.578270973205566,0.07219074249267578,-0.8513225364685059,-0.6680921134948731,-0.23682085037231446,0.17421837615966798,0.129829402923584
1681917732.1904776,2.5661727256774904,0.07307111740112304,-0.8389972877502442,-0.6707806129455567,-0.23417972564697265,0.17388462448120118,0.129829402923584
1681917732.1929388,2.5661727256774904,0.07307111740112304,-0.8389972877502442,-0.6707806129455567,-0.23417972564697265,0.17388462448120118,0.129829402923584
1681917732.195442,2.5661727256774904,0.07307111740112304,-0.8389972877502442,-0.6707806129455567,-0.23417972564697265,0.17388462448120118,0.129829402923584
1681917732.1979902,2.5661727256774904,0.07307111740112304,-0.8389972877502442,-0.6707806129455567,-0.23417972564697265,0.17388462448120118,0.129829402923584
1681917732.2004886,2.5755824737548827,0.07307111740112304,-0.8433991622924805,-0.674813362121582,-0.23946197509765624,0.17421837615966798,0.1274931411743164
1681917732.2029,2.5755824737548827,0.07307111740112304,-0.8433991622924805,-0.674813362121582,-0.23946197509765624,0.17421837615966798,0.1274931411743164
1681917732.205402,2.5755824737548827,0.07307111740112304,-0.8433991622924805,-0.674813362121582,-0.23946197509765624,0.17421837615966798,0.1274931411743164
1681917732.208002,2.5755824737548827,0.07307111740112304,-0.8433991622924805,-0.674813362121582,-0.23946197509765624,0.17421837615966798,0.1274931411743164
1681917732.210424,2.6024674682617186,0.07042999267578125,-0.8478010368347167,-0.6680921134948731,-0.23506010055541993,0.17455212783813476,0.129829402923584
1681917732.2129626,2.6024674682617186,0.07042999267578125,-0.8478010368347167,-0.6680921134948731,-0.23506010055541993,0.17455212783813476,0.129829402923584
1681917732.2154799,2.6024674682617186,0.07042999267578125,-0.8478010368347167,-0.6680921134948731,-0.23506010055541993,0.17455212783813476,0.129829402923584
1681917732.217955,2.6024674682617186,0.07042999267578125,-0.8478010368347167,-0.6680921134948731,-0.23506010055541993,0.17455212783813476,0.129829402923584
1681917732.2204669,2.669679954528809,0.07395149230957031,-0.861887035369873,-0.6627151145935058,-0.238581600189209,0.17455212783813476,0.1294956512451172
1681917732.22294,2.669679954528809,0.07395149230957031,-0.861887035369873,-0.6627151145935058,-0.238581600189209,0.17455212783813476,0.1294956512451172
1681917732.2254515,2.669679954528809,0.07395149230957031,-0.861887035369873,-0.6627151145935058,-0.238581600189209,0.17455212783813476,0.1294956512451172
1681917732.228018,2.669679954528809,0.07395149230957031,-0.861887035369873,-0.6627151145935058,-0.238581600189209,0.17455212783813476,0.1294956512451172
1681917732.2304637,2.7436136894226073,0.07483186721801757,-0.8927001571655273,-0.6640593643188477,-0.23506010055541993,0.17722214126586913,0.1291618995666504
1681917732.2329416,2.7436136894226073,0.07483186721801757,-0.8927001571655273,-0.6640593643188477,-0.23506010055541993,0.17722214126586913,0.1291618995666504
1681917732.2354496,2.7436136894226073,0.07483186721801757,-0.8927001571655273,-0.6640593643188477,-0.23506010055541993,0.17722214126586913,0.1291618995666504
1681917732.237897,2.7436136894226073,0.07483186721801757,-0.8927001571655273,-0.6640593643188477,-0.23506010055541993,0.17722214126586913,0.1291618995666504
1681917732.2403872,2.774531433105469,0.07395149230957031,-0.8971020317077637,-0.6586823654174805,-0.23241897583007812,0.17588713455200194,0.1278268928527832
1681917732.2428825,2.774531433105469,0.07395149230957031,-0.8971020317077637,-0.6586823654174805,-0.23241897583007812,0.17588713455200194,0.1278268928527832
1681917732.2453804,2.774531433105469,0.07395149230957031,-0.8971020317077637,-0.6586823654174805,-0.23241897583007812,0.17588713455200194,0.1278268928527832
1681917732.247885,2.774531433105469,0.07395149230957031,-0.8971020317077637,-0.6586823654174805,-0.23241897583007812,0.17588713455200194,0.1278268928527832
1681917732.250457,2.7624331855773927,0.07395149230957031,-0.9023842811584473,-0.6573381156921386,-0.23417972564697265,0.17622088623046875,0.1294956512451172
1681917732.2530086,2.7624331855773927,0.07395149230957031,-0.9023842811584473,-0.6573381156921386,-0.23417972564697265,0.17622088623046875,0.1294956512451172
1681917732.2554588,2.7624331855773927,0.07395149230957031,-0.9023842811584473,-0.6573381156921386,-0.23417972564697265,0.17622088623046875,0.1294956512451172
1681917732.257877,2.7624331855773927,0.07395149230957031,-0.9023842811584473,-0.6573381156921386,-0.23417972564697265,0.17622088623046875,0.1294956512451172
1681917732.2604258,2.7167286949157714,0.07307111740112304,-0.8768534088134765,-0.6721248626708984,-0.23241897583007812,0.17521963119506836,0.13016315460205077
1681917732.2628794,2.7167286949157714,0.07307111740112304,-0.8768534088134765,-0.6721248626708984,-0.23241897583007812,0.17521963119506836,0.13016315460205077
1681917732.2653866,2.7167286949157714,0.07307111740112304,-0.8768534088134765,-0.6721248626708984,-0.23241897583007812,0.17521963119506836,0.13016315460205077
1681917732.2679625,2.7167286949157714,0.07307111740112304,-0.8768534088134765,-0.6721248626708984,-0.23241897583007812,0.17521963119506836,0.13016315460205077
1681917732.2703936,2.6495162086486816,0.07131036758422851,-0.8689300346374511,-0.6654036140441895,-0.23153860092163087,0.17622088623046875,0.1278268928527832
1681917732.272889,2.6495162086486816,0.07131036758422851,-0.8689300346374511,-0.6654036140441895,-0.23153860092163087,0.17622088623046875,0.1278268928527832
1681917732.2753804,2.6495162086486816,0.07131036758422851,-0.8689300346374511,-0.6654036140441895,-0.23153860092163087,0.17622088623046875,0.1278268928527832
1681917732.2779558,2.6495162086486816,0.07131036758422851,-0.8689300346374511,-0.6654036140441895,-0.23153860092163087,0.17622088623046875,0.1278268928527832
1681917732.2804782,2.594401969909668,0.07307111740112304,-0.8442795372009277,-0.6640593643188477,-0.23417972564697265,0.17388462448120118,0.1288281478881836
1681917732.282882,2.594401969909668,0.07307111740112304,-0.8442795372009277,-0.6640593643188477,-0.23417972564697265,0.17388462448120118,0.1288281478881836
1681917732.2853808,2.594401969909668,0.07307111740112304,-0.8442795372009277,-0.6640593643188477,-0.23417972564697265,0.17388462448120118,0.1288281478881836
1681917732.2878814,2.594401969909668,0.07307111740112304,-0.8442795372009277,-0.6640593643188477,-0.23417972564697265,0.17388462448120118,0.1288281478881836
1681917732.2904112,2.5446647300720215,0.07131036758422851,-0.8354757881164551,-0.6707806129455567,-0.23682085037231446,0.17521963119506836,0.13116440963745118
1681917732.2928822,2.5446647300720215,0.07131036758422851,-0.8354757881164551,-0.6707806129455567,-0.23682085037231446,0.17521963119506836,0.13116440963745118
1681917732.295391,2.5446647300720215,0.07131036758422851,-0.8354757881164551,-0.6707806129455567,-0.23682085037231446,0.17521963119506836,0.13116440963745118
1681917732.297891,2.5446647300720215,0.07131036758422851,-0.8354757881164551,-0.6707806129455567,-0.23682085037231446,0.17521963119506836,0.13116440963745118
1681917732.3003912,2.5446647300720215,0.06954961776733398,-0.8398776626586913,-0.6694363632202148,-0.23506010055541993,0.172549617767334,0.1284943962097168
1681917732.3029397,2.5446647300720215,0.06954961776733398,-0.8398776626586913,-0.6694363632202148,-0.23506010055541993,0.172549617767334,0.1284943962097168
1681917732.3054528,2.5446647300720215,0.06954961776733398,-0.8398776626586913,-0.6694363632202148,-0.23506010055541993,0.172549617767334,0.1284943962097168
1681917732.307993,2.5446647300720215,0.06954961776733398,-0.8398776626586913,-0.6694363632202148,-0.23506010055541993,0.172549617767334,0.1284943962097168
1681917732.3104427,2.568861225128174,0.07131036758422851,-0.8354757881164551,-0.6667478637695312,-0.24034235000610352,0.17388462448120118,0.1261581344604492
1681917732.312909,2.568861225128174,0.07131036758422851,-0.8354757881164551,-0.6667478637695312,-0.24034235000610352,0.17388462448120118,0.1261581344604492
1681917732.3154526,2.568861225128174,0.07131036758422851,-0.8354757881164551,-0.6667478637695312,-0.24034235000610352,0.17388462448120118,0.1261581344604492
1681917732.3179455,2.568861225128174,0.07131036758422851,-0.8354757881164551,-0.6667478637695312,-0.24034235000610352,0.17388462448120118,0.1261581344604492
1681917732.3205388,2.5917134704589846,0.06690849304199219,-0.845159912109375,-0.674813362121582,-0.23682085037231446,0.17555338287353517,0.13016315460205077
1681917732.322954,2.5917134704589846,0.06690849304199219,-0.845159912109375,-0.674813362121582,-0.23682085037231446,0.17555338287353517,0.13016315460205077
1681917732.3254442,2.5917134704589846,0.06690849304199219,-0.845159912109375,-0.674813362121582,-0.23682085037231446,0.17555338287353517,0.13016315460205077
1681917732.3279686,2.5917134704589846,0.06690849304199219,-0.845159912109375,-0.674813362121582,-0.23682085037231446,0.17555338287353517,0.13016315460205077
1681917732.33044,2.6159099655151365,0.07219074249267578,-0.848681411743164,-0.6734691123962402,-0.238581600189209,0.17455212783813476,0.1294956512451172
1681917732.3329525,2.6159099655151365,0.07219074249267578,-0.848681411743164,-0.6734691123962402,-0.238581600189209,0.17455212783813476,0.1294956512451172
1681917732.3353853,2.6159099655151365,0.07219074249267578,-0.848681411743164,-0.6734691123962402,-0.238581600189209,0.17455212783813476,0.1294956512451172
1681917732.3379803,2.6159099655151365,0.07219074249267578,-0.848681411743164,-0.6734691123962402,-0.238581600189209,0.17455212783813476,0.1294956512451172
1681917732.3405197,2.6360737113952637,0.06866924285888672,-0.8566047859191894,-0.6680921134948731,-0.23594047546386718,0.17488587951660156,0.1274931411743164
1681917732.342925,2.6360737113952637,0.06866924285888672,-0.8566047859191894,-0.6680921134948731,-0.23594047546386718,0.17488587951660156,0.1274931411743164
1681917732.3454974,2.6360737113952637,0.06866924285888672,-0.8566047859191894,-0.6680921134948731,-0.23594047546386718,0.17488587951660156,0.1274931411743164
1681917732.3479493,2.6360737113952637,0.06866924285888672,-0.8566047859191894,-0.6680921134948731,-0.23594047546386718,0.17488587951660156,0.1274931411743164
1681917732.3504448,2.626663963317871,0.07219074249267578,-0.8548440361022949,-0.6707806129455567,-0.24122272491455077,0.17655463790893555,0.1291618995666504
1681917732.352939,2.626663963317871,0.07219074249267578,-0.8548440361022949,-0.6707806129455567,-0.24122272491455077,0.17655463790893555,0.1291618995666504
1681917732.355452,2.626663963317871,0.07219074249267578,-0.8548440361022949,-0.6707806129455567,-0.24122272491455077,0.17655463790893555,0.1291618995666504
1681917732.3579504,2.626663963317871,0.07219074249267578,-0.8548440361022949,-0.6707806129455567,-0.24122272491455077,0.17655463790893555,0.1291618995666504
1681917732.3604512,2.6024674682617186,0.0765926170349121,-0.8504421615600586,-0.6667478637695312,-0.238581600189209,0.17355087280273437,0.1271593894958496
1681917732.3628917,2.6024674682617186,0.0765926170349121,-0.8504421615600586,-0.6667478637695312,-0.238581600189209,0.17355087280273437,0.1271593894958496
1681917732.3653834,2.6024674682617186,0.0765926170349121,-0.8504421615600586,-0.6667478637695312,-0.238581600189209,0.17355087280273437,0.1271593894958496
1681917732.3679624,2.6024674682617186,0.0765926170349121,-0.8504421615600586,-0.6667478637695312,-0.238581600189209,0.17355087280273437,0.1271593894958496
1681917732.370464,2.5702054748535157,0.07571224212646484,-0.8398776626586913,-0.6707806129455567,-0.2429834747314453,0.17355087280273437,0.1294956512451172
1681917732.3729427,2.5702054748535157,0.07571224212646484,-0.8398776626586913,-0.6707806129455567,-0.2429834747314453,0.17355087280273437,0.1294956512451172
1681917732.3754785,2.5702054748535157,0.07571224212646484,-0.8398776626586913,-0.6707806129455567,-0.2429834747314453,0.17355087280273437,0.1294956512451172
1681917732.377963,2.5702054748535157,0.07571224212646484,-0.8398776626586913,-0.6707806129455567,-0.2429834747314453,0.17355087280273437,0.1294956512451172
1681917732.3804157,2.525845233917236,0.07395149230957031,-0.8275524139404297,-0.6667478637695312,-0.2332993507385254,0.17521963119506836,0.1288281478881836
1681917732.382954,2.525845233917236,0.07395149230957031,-0.8275524139404297,-0.6667478637695312,-0.2332993507385254,0.17521963119506836,0.1288281478881836
1681917732.3854392,2.525845233917236,0.07395149230957031,-0.8275524139404297,-0.6667478637695312,-0.2332993507385254,0.17521963119506836,0.1288281478881836
1681917732.387942,2.525845233917236,0.07395149230957031,-0.8275524139404297,-0.6667478637695312,-0.2332993507385254,0.17521963119506836,0.1288281478881836
1681917732.390441,2.4989602394104002,0.07571224212646484,-0.8161075401306153,-0.6573381156921386,-0.23506010055541993,0.1728833694458008,0.13016315460205077
1681917732.3929996,2.4989602394104002,0.07571224212646484,-0.8161075401306153,-0.6573381156921386,-0.23506010055541993,0.1728833694458008,0.13016315460205077
1681917732.3953674,2.4989602394104002,0.07571224212646484,-0.8161075401306153,-0.6573381156921386,-0.23506010055541993,0.1728833694458008,0.13016315460205077
1681917732.397979,2.4989602394104002,0.07571224212646484,-0.8161075401306153,-0.6573381156921386,-0.23506010055541993,0.1728833694458008,0.13016315460205077
1681917732.4004834,2.5191239852905274,0.07131036758422851,-0.8222701644897461,-0.6546496162414551,-0.238581600189209,0.1728833694458008,0.1274931411743164
1681917732.402953,2.5191239852905274,0.07131036758422851,-0.8222701644897461,-0.6546496162414551,-0.238581600189209,0.1728833694458008,0.1274931411743164
1681917732.4054666,2.5191239852905274,0.07131036758422851,-0.8222701644897461,-0.6546496162414551,-0.238581600189209,0.1728833694458008,0.1274931411743164
1681917732.4079847,2.5191239852905274,0.07131036758422851,-0.8222701644897461,-0.6546496162414551,-0.238581600189209,0.1728833694458008,0.1274931411743164
1681917732.4104571,2.548697479248047,0.07747299194335937,-0.8301935386657715,-0.6519611167907715,-0.23417972564697265,0.17355087280273437,0.13016315460205077
1681917732.4129562,2.548697479248047,0.07747299194335937,-0.8301935386657715,-0.6519611167907715,-0.23417972564697265,0.17355087280273437,0.13016315460205077
1681917732.4154406,2.548697479248047,0.07747299194335937,-0.8301935386657715,-0.6519611167907715,-0.23417972564697265,0.17355087280273437,0.13016315460205077
1681917732.41795,2.548697479248047,0.07747299194335937,-0.8301935386657715,-0.6519611167907715,-0.23417972564697265,0.17355087280273437,0.13016315460205077
1681917732.4205031,2.59574621963501,0.07571224212646484,-0.8389972877502442,-0.6506168670654296,-0.2377012252807617,0.17455212783813476,0.1288281478881836
1681917732.4229574,2.59574621963501,0.07571224212646484,-0.8389972877502442,-0.6506168670654296,-0.2377012252807617,0.17455212783813476,0.1288281478881836
1681917732.4254541,2.59574621963501,0.07571224212646484,-0.8389972877502442,-0.6506168670654296,-0.2377012252807617,0.17455212783813476,0.1288281478881836
1681917732.4279482,2.59574621963501,0.07571224212646484,-0.8389972877502442,-0.6506168670654296,-0.2377012252807617,0.17455212783813476,0.1288281478881836
1681917732.4304087,2.7234499435424806,0.07483186721801757,-0.8821356582641602,-0.6627151145935058,-0.23594047546386718,0.17421837615966798,0.1274931411743164
1681917732.432892,2.7234499435424806,0.07483186721801757,-0.8821356582641602,-0.6627151145935058,-0.23594047546386718,0.17421837615966798,0.1274931411743164
1681917732.4354532,2.7234499435424806,0.07483186721801757,-0.8821356582641602,-0.6627151145935058,-0.23594047546386718,0.17421837615966798,0.1274931411743164
1681917732.4378839,2.7234499435424806,0.07483186721801757,-0.8821356582641602,-0.6627151145935058,-0.23594047546386718,0.17421837615966798,0.1274931411743164
1681917732.4403894,2.8417439193725587,0.07835336685180663,-0.9164702796936035,-0.6721248626708984,-0.23417972564697265,0.17655463790893555,0.1271593894958496
1681917732.4429388,2.8417439193725587,0.07835336685180663,-0.9164702796936035,-0.6721248626708984,-0.23417972564697265,0.17655463790893555,0.1271593894958496
1681917732.445384,2.8417439193725587,0.07835336685180663,-0.9164702796936035,-0.6721248626708984,-0.23417972564697265,0.17655463790893555,0.1271593894958496
1681917732.4479418,2.8417439193725587,0.07835336685180663,-0.9164702796936035,-0.6721248626708984,-0.23417972564697265,0.17655463790893555,0.1271593894958496
1681917732.4503808,2.8619076652526854,0.08275524139404297,-0.934958152770996,-0.6680921134948731,-0.23417972564697265,0.17555338287353517,0.13049690628051758
1681917732.4529626,2.8619076652526854,0.08275524139404297,-0.934958152770996,-0.6680921134948731,-0.23417972564697265,0.17555338287353517,0.13049690628051758
1681917732.4554677,2.8619076652526854,0.08275524139404297,-0.934958152770996,-0.6680921134948731,-0.23417972564697265,0.17555338287353517,0.13049690628051758
1681917732.45788,2.8619076652526854,0.08275524139404297,-0.934958152770996,-0.6680921134948731,-0.23417972564697265,0.17555338287353517,0.13049690628051758
1681917732.4604611,2.8081376762390136,0.07747299194335937,-0.9199917793273925,-0.6613708648681641,-0.23153860092163087,0.17455212783813476,0.12816064453125
1681917732.4628723,2.8081376762390136,0.07747299194335937,-0.9199917793273925,-0.6613708648681641,-0.23153860092163087,0.17455212783813476,0.12816064453125
1681917732.465519,2.8081376762390136,0.07747299194335937,-0.9199917793273925,-0.6613708648681641,-0.23153860092163087,0.17455212783813476,0.12816064453125
1681917732.4680073,2.8081376762390136,0.07747299194335937,-0.9199917793273925,-0.6613708648681641,-0.23153860092163087,0.17455212783813476,0.12816064453125
1681917732.4704404,2.705974697113037,0.0765926170349121,-0.8900590324401856,-0.6667478637695312,-0.23682085037231446,0.17455212783813476,0.1291618995666504
1681917732.4729402,2.705974697113037,0.0765926170349121,-0.8900590324401856,-0.6667478637695312,-0.23682085037231446,0.17455212783813476,0.1291618995666504
1681917732.4754515,2.705974697113037,0.0765926170349121,-0.8900590324401856,-0.6667478637695312,-0.23682085037231446,0.17455212783813476,0.1291618995666504
1681917732.477992,2.705974697113037,0.0765926170349121,-0.8900590324401856,-0.6667478637695312,-0.23682085037231446,0.17455212783813476,0.1291618995666504
1681917732.4805238,2.5917134704589846,0.07483186721801757,-0.8539636611938476,-0.6640593643188477,-0.23506010055541993,0.17421837615966798,0.1278268928527832
1681917732.4829519,2.5917134704589846,0.07483186721801757,-0.8539636611938476,-0.6640593643188477,-0.23506010055541993,0.17421837615966798,0.1278268928527832
1681917732.4854727,2.5917134704589846,0.07483186721801757,-0.8539636611938476,-0.6640593643188477,-0.23506010055541993,0.17421837615966798,0.1278268928527832
1681917732.487982,2.5917134704589846,0.07483186721801757,-0.8539636611938476,-0.6640593643188477,-0.23506010055541993,0.17421837615966798,0.1278268928527832
1681917732.490465,2.4976159896850585,0.07042999267578125,-0.8081841659545899,-0.6654036140441895,-0.2332993507385254,0.172549617767334,0.12649188613891602
1681917732.4929395,2.4976159896850585,0.07042999267578125,-0.8081841659545899,-0.6654036140441895,-0.2332993507385254,0.172549617767334,0.12649188613891602
1681917732.4954293,2.4976159896850585,0.07042999267578125,-0.8081841659545899,-0.6654036140441895,-0.2332993507385254,0.172549617767334,0.12649188613891602
1681917732.4978857,2.4976159896850585,0.07042999267578125,-0.8081841659545899,-0.6654036140441895,-0.2332993507385254,0.172549617767334,0.12649188613891602
1681917732.5003939,2.4653539962768556,0.07131036758422851,-0.7985000419616699,-0.6600266151428222,-0.238581600189209,0.17455212783813476,0.1271593894958496
1681917732.5029626,2.4653539962768556,0.07131036758422851,-0.7985000419616699,-0.6600266151428222,-0.238581600189209,0.17455212783813476,0.1271593894958496
1681917732.505386,2.4653539962768556,0.07131036758422851,-0.7985000419616699,-0.6600266151428222,-0.238581600189209,0.17455212783813476,0.1271593894958496
1681917732.5079782,2.4653539962768556,0.07131036758422851,-0.7985000419616699,-0.6600266151428222,-0.238581600189209,0.17455212783813476,0.1271593894958496
1681917732.5104752,2.4787964935302735,0.07219074249267578,-0.8046626663208007,-0.6667478637695312,-0.23594047546386718,0.17388462448120118,0.1274931411743164
1681917732.5129385,2.4787964935302735,0.07219074249267578,-0.8046626663208007,-0.6667478637695312,-0.23594047546386718,0.17388462448120118,0.1274931411743164
1681917732.51546,2.4787964935302735,0.07219074249267578,-0.8046626663208007,-0.6667478637695312,-0.23594047546386718,0.17388462448120118,0.1274931411743164
1681917732.5179486,2.4787964935302735,0.07219074249267578,-0.8046626663208007,-0.6667478637695312,-0.23594047546386718,0.17388462448120118,0.1274931411743164
1681917732.5204563,2.5540744781494142,0.07395149230957031,-0.8213897895812988,-0.6667478637695312,-0.23682085037231446,0.1728833694458008,0.1294956512451172
1681917732.5229576,2.5540744781494142,0.07395149230957031,-0.8213897895812988,-0.6667478637695312,-0.23682085037231446,0.1728833694458008,0.1294956512451172
1681917732.525471,2.5540744781494142,0.07395149230957031,-0.8213897895812988,-0.6667478637695312,-0.23682085037231446,0.1728833694458008,0.1294956512451172
1681917732.5278943,2.5540744781494142,0.07395149230957031,-0.8213897895812988,-0.6667478637695312,-0.23682085037231446,0.1728833694458008,0.1294956512451172
1681917732.5304465,2.653548957824707,0.07219074249267578,-0.8469206619262695,-0.6613708648681641,-0.22977785110473634,0.17355087280273437,0.1284943962097168
1681917732.532961,2.653548957824707,0.07219074249267578,-0.8469206619262695,-0.6613708648681641,-0.22977785110473634,0.17355087280273437,0.1284943962097168
1681917732.5354457,2.653548957824707,0.07219074249267578,-0.8469206619262695,-0.6613708648681641,-0.22977785110473634,0.17355087280273437,0.1284943962097168
1681917732.5379899,2.653548957824707,0.07219074249267578,-0.8469206619262695,-0.6613708648681641,-0.22977785110473634,0.17355087280273437,0.1284943962097168
1681917732.5404978,2.7503349380493165,0.0765926170349121,-0.8891786575317383,-0.6600266151428222,-0.23682085037231446,0.17755589294433594,0.1288281478881836
1681917732.5429456,2.7503349380493165,0.0765926170349121,-0.8891786575317383,-0.6600266151428222,-0.23682085037231446,0.17755589294433594,0.1288281478881836
1681917732.5454407,2.7503349380493165,0.0765926170349121,-0.8891786575317383,-0.6600266151428222,-0.23682085037231446,0.17755589294433594,0.1288281478881836
1681917732.547947,2.7503349380493165,0.0765926170349121,-0.8891786575317383,-0.6600266151428222,-0.23682085037231446,0.17755589294433594,0.1288281478881836
1681917732.5504405,2.7987279281616213,0.07307111740112304,-0.90150390625,-0.6640593643188477,-0.2332993507385254,0.17655463790893555,0.1294956512451172
1681917732.552956,2.7987279281616213,0.07307111740112304,-0.90150390625,-0.6640593643188477,-0.2332993507385254,0.17655463790893555,0.1294956512451172
1681917732.555451,2.7987279281616213,0.07307111740112304,-0.90150390625,-0.6640593643188477,-0.2332993507385254,0.17655463790893555,0.1294956512451172
1681917732.5578704,2.7987279281616213,0.07307111740112304,-0.90150390625,-0.6640593643188477,-0.2332993507385254,0.17655463790893555,0.1294956512451172
1681917732.5604596,2.779908432006836,0.07923374176025391,-0.9085469055175781,-0.6667478637695312,-0.23682085037231446,0.17588713455200194,0.1271593894958496
1681917732.562963,2.779908432006836,0.07923374176025391,-0.9085469055175781,-0.6667478637695312,-0.23682085037231446,0.17588713455200194,0.1271593894958496
1681917732.5653927,2.779908432006836,0.07923374176025391,-0.9085469055175781,-0.6667478637695312,-0.23682085037231446,0.17588713455200194,0.1271593894958496
1681917732.5679157,2.779908432006836,0.07923374176025391,-0.9085469055175781,-0.6667478637695312,-0.23682085037231446,0.17588713455200194,0.1271593894958496
1681917732.5704055,2.7167286949157714,0.07395149230957031,-0.8830160331726075,-0.6680921134948731,-0.23506010055541993,0.17521963119506836,0.1291618995666504
1681917732.5729795,2.7167286949157714,0.07395149230957031,-0.8830160331726075,-0.6680921134948731,-0.23506010055541993,0.17521963119506836,0.1291618995666504
1681917732.5754778,2.7167286949157714,0.07395149230957031,-0.8830160331726075,-0.6680921134948731,-0.23506010055541993,0.17521963119506836,0.1291618995666504
1681917732.577882,2.7167286949157714,0.07395149230957031,-0.8830160331726075,-0.6680921134948731,-0.23506010055541993,0.17521963119506836,0.1291618995666504
1681917732.5804555,2.64817195892334,0.0765926170349121,-0.8645281600952148,-0.6640593643188477,-0.23241897583007812,0.17521963119506836,0.1294956512451172
1681917732.5829513,2.64817195892334,0.0765926170349121,-0.8645281600952148,-0.6640593643188477,-0.23241897583007812,0.17521963119506836,0.1294956512451172
1681917732.5854259,2.64817195892334,0.0765926170349121,-0.8645281600952148,-0.6640593643188477,-0.23241897583007812,0.17521963119506836,0.1294956512451172
1681917732.5878997,2.64817195892334,0.0765926170349121,-0.8645281600952148,-0.6640593643188477,-0.23241897583007812,0.17521963119506836,0.1294956512451172
1681917732.5904984,2.609188716888428,0.06866924285888672,-0.8539636611938476,-0.6694363632202148,-0.23241897583007812,0.17488587951660156,0.1288281478881836
1681917732.592962,2.609188716888428,0.06866924285888672,-0.8539636611938476,-0.6694363632202148,-0.23241897583007812,0.17488587951660156,0.1288281478881836
1681917732.5953755,2.609188716888428,0.06866924285888672,-0.8539636611938476,-0.6694363632202148,-0.23241897583007812,0.17488587951660156,0.1288281478881836
1681917732.5979695,2.609188716888428,0.06866924285888672,-0.8539636611938476,-0.6694363632202148,-0.23241897583007812,0.17488587951660156,0.1288281478881836
1681917732.6004436,2.5581072273254395,0.07042999267578125,-0.8460402870178223,-0.6667478637695312,-0.23682085037231446,0.17488587951660156,0.1284943962097168
1681917732.6029408,2.5581072273254395,0.07042999267578125,-0.8460402870178223,-0.6667478637695312,-0.23682085037231446,0.17488587951660156,0.1284943962097168
1681917732.605453,2.5581072273254395,0.07042999267578125,-0.8460402870178223,-0.6667478637695312,-0.23682085037231446,0.17488587951660156,0.1284943962097168
1681917732.6079688,2.5581072273254395,0.07042999267578125,-0.8460402870178223,-0.6667478637695312,-0.23682085037231446,0.17488587951660156,0.1284943962097168
1681917732.6104558,2.3349617729187013,0.07219074249267578,-0.7641654205322266,-0.6586823654174805,-0.2377012252807617,0.17521963119506836,0.1284943962097168
1681917732.61294,2.3349617729187013,0.07219074249267578,-0.7641654205322266,-0.6586823654174805,-0.2377012252807617,0.17521963119506836,0.1284943962097168
1681917732.6154785,2.3349617729187013,0.07219074249267578,-0.7641654205322266,-0.6586823654174805,-0.2377012252807617,0.17521963119506836,0.1284943962097168
1681917732.6178901,2.3349617729187013,0.07219074249267578,-0.7641654205322266,-0.6586823654174805,-0.2377012252807617,0.17521963119506836,0.1284943962097168
1681917732.6204014,2.145422561645508,0.07219074249267578,-0.6761279296875,-0.6667478637695312,-0.23946197509765624,0.1712146110534668,0.1274931411743164
1681917732.6229446,2.145422561645508,0.07219074249267578,-0.6761279296875,-0.6667478637695312,-0.23946197509765624,0.1712146110534668,0.1274931411743164
1681917732.6253796,2.145422561645508,0.07219074249267578,-0.6761279296875,-0.6667478637695312,-0.23946197509765624,0.1712146110534668,0.1274931411743164
1681917732.6279573,2.145422561645508,0.07219074249267578,-0.6761279296875,-0.6667478637695312,-0.23946197509765624,0.1712146110534668,0.1274931411743164
1681917732.6304548,2.0956853218078613,0.06602811813354492,-0.6708456802368163,-0.6627151145935058,-0.23946197509765624,0.1712146110534668,0.1291618995666504
1681917732.6329224,2.0956853218078613,0.06602811813354492,-0.6708456802368163,-0.6627151145935058,-0.23946197509765624,0.1712146110534668,0.1291618995666504
1681917732.635439,2.0956853218078613,0.06602811813354492,-0.6708456802368163,-0.6627151145935058,-0.23946197509765624,0.1712146110534668,0.1291618995666504
1681917732.637999,2.0956853218078613,0.06602811813354492,-0.6708456802368163,-0.6627151145935058,-0.23946197509765624,0.1712146110534668,0.1291618995666504
1681917732.6404655,2.170963306427002,0.06866924285888672,-0.6875728034973144,-0.6707806129455567,-0.23682085037231446,0.16987960433959962,0.1278268928527832
1681917732.6429489,2.170963306427002,0.06866924285888672,-0.6875728034973144,-0.6707806129455567,-0.23682085037231446,0.16987960433959962,0.1278268928527832
1681917732.645453,2.170963306427002,0.06866924285888672,-0.6875728034973144,-0.6707806129455567,-0.23682085037231446,0.16987960433959962,0.1278268928527832
1681917732.6479514,2.170963306427002,0.06866924285888672,-0.6875728034973144,-0.6707806129455567,-0.23682085037231446,0.16987960433959962,0.1278268928527832
1681917732.6503854,2.2959785308837892,0.06954961776733398,-0.732471923828125,-0.6721248626708984,-0.23594047546386718,0.17455212783813476,0.1284943962097168
1681917732.6529477,2.2959785308837892,0.06954961776733398,-0.732471923828125,-0.6721248626708984,-0.23594047546386718,0.17455212783813476,0.1284943962097168
1681917732.6553826,2.2959785308837892,0.06954961776733398,-0.732471923828125,-0.6721248626708984,-0.23594047546386718,0.17455212783813476,0.1284943962097168
1681917732.6579938,2.2959785308837892,0.06954961776733398,-0.732471923828125,-0.6721248626708984,-0.23594047546386718,0.17455212783813476,0.1284943962097168
1681917732.6604657,2.455944248199463,0.07131036758422851,-0.78881591796875,-0.6654036140441895,-0.2332993507385254,0.17388462448120118,0.12682563781738282
1681917732.662959,2.455944248199463,0.07131036758422851,-0.78881591796875,-0.6654036140441895,-0.2332993507385254,0.17388462448120118,0.12682563781738282
1681917732.66546,2.455944248199463,0.07131036758422851,-0.78881591796875,-0.6654036140441895,-0.2332993507385254,0.17388462448120118,0.12682563781738282
1681917732.6679835,2.455944248199463,0.07131036758422851,-0.78881591796875,-0.6654036140441895,-0.2332993507385254,0.17388462448120118,0.12682563781738282
1681917732.670458,2.6172542152404783,0.06954961776733398,-0.8433991622924805,-0.6600266151428222,-0.2332993507385254,0.17321712112426757,0.1271593894958496
1681917732.6729617,2.6172542152404783,0.06954961776733398,-0.8433991622924805,-0.6600266151428222,-0.2332993507385254,0.17321712112426757,0.1271593894958496
1681917732.675444,2.6172542152404783,0.06954961776733398,-0.8433991622924805,-0.6600266151428222,-0.2332993507385254,0.17321712112426757,0.1271593894958496
1681917732.677987,2.6172542152404783,0.06954961776733398,-0.8433991622924805,-0.6600266151428222,-0.2332993507385254,0.17321712112426757,0.1271593894958496
1681917732.680452,2.7382366905212403,0.0765926170349121,-0.8900590324401856,-0.6600266151428222,-0.2377012252807617,0.17655463790893555,0.1294956512451172
1681917732.6828916,2.7382366905212403,0.0765926170349121,-0.8900590324401856,-0.6600266151428222,-0.2377012252807617,0.17655463790893555,0.1294956512451172
1681917732.6853864,2.7382366905212403,0.0765926170349121,-0.8900590324401856,-0.6600266151428222,-0.2377012252807617,0.17655463790893555,0.1294956512451172
1681917732.687982,2.7382366905212403,0.0765926170349121,-0.8900590324401856,-0.6600266151428222,-0.2377012252807617,0.17655463790893555,0.1294956512451172
1681917732.6905138,2.8229244232177733,0.0765926170349121,-0.9120684051513672,-0.6586823654174805,-0.23241897583007812,0.17555338287353517,0.1271593894958496
1681917732.6929398,2.8229244232177733,0.0765926170349121,-0.9120684051513672,-0.6586823654174805,-0.23241897583007812,0.17555338287353517,0.1271593894958496
1681917732.695456,2.8229244232177733,0.0765926170349121,-0.9120684051513672,-0.6586823654174805,-0.23241897583007812,0.17555338287353517,0.1271593894958496
1681917732.6979842,2.8229244232177733,0.0765926170349121,-0.9120684051513672,-0.6586823654174805,-0.23241897583007812,0.17555338287353517,0.1271593894958496
1681917732.700486,2.859219165802002,0.07131036758422851,-0.9323170280456543,-0.6600266151428222,-0.238581600189209,0.17688838958740236,0.1278268928527832
1681917732.7029824,2.859219165802002,0.07131036758422851,-0.9323170280456543,-0.6600266151428222,-0.238581600189209,0.17688838958740236,0.1278268928527832
1681917732.705415,2.859219165802002,0.07131036758422851,-0.9323170280456543,-0.6600266151428222,-0.238581600189209,0.17688838958740236,0.1278268928527832
1681917732.7079394,2.859219165802002,0.07131036758422851,-0.9323170280456543,-0.6600266151428222,-0.238581600189209,0.17688838958740236,0.1278268928527832
1681917732.7104614,2.818891674041748,0.07747299194335937,-0.9226329040527343,-0.6600266151428222,-0.2280171012878418,0.17688838958740236,0.1291618995666504
1681917732.7129824,2.818891674041748,0.07747299194335937,-0.9226329040527343,-0.6600266151428222,-0.2280171012878418,0.17688838958740236,0.1291618995666504
1681917732.7155066,2.818891674041748,0.07747299194335937,-0.9226329040527343,-0.6600266151428222,-0.2280171012878418,0.17688838958740236,0.1291618995666504
1681917732.7178824,2.818891674041748,0.07747299194335937,-0.9226329040527343,-0.6600266151428222,-0.2280171012878418,0.17688838958740236,0.1291618995666504
1681917732.7204125,2.7503349380493165,0.07571224212646484,-0.9076665306091308,-0.6573381156921386,-0.2377012252807617,0.17588713455200194,0.12816064453125
1681917732.7229447,2.7503349380493165,0.07571224212646484,-0.9076665306091308,-0.6573381156921386,-0.2377012252807617,0.17588713455200194,0.12816064453125
1681917732.7254574,2.7503349380493165,0.07571224212646484,-0.9076665306091308,-0.6573381156921386,-0.2377012252807617,0.17588713455200194,0.12816064453125
1681917732.7279866,2.7503349380493165,0.07571224212646484,-0.9076665306091308,-0.6573381156921386,-0.2377012252807617,0.17588713455200194,0.12816064453125
1681917732.73046,2.6414507102966307,0.07219074249267578,-0.8645281600952148,-0.6613708648681641,-0.23153860092163087,0.1728833694458008,0.1278268928527832
1681917732.732942,2.6414507102966307,0.07219074249267578,-0.8645281600952148,-0.6613708648681641,-0.23153860092163087,0.1728833694458008,0.1278268928527832
1681917732.735458,2.6414507102966307,0.07219074249267578,-0.8645281600952148,-0.6613708648681641,-0.23153860092163087,0.1728833694458008,0.1278268928527832
1681917732.7379448,2.6414507102966307,0.07219074249267578,-0.8645281600952148,-0.6613708648681641,-0.23153860092163087,0.1728833694458008,0.1278268928527832
1681917732.740487,2.5406319808959963,0.0765926170349121,-0.8345954132080078,-0.6721248626708984,-0.2377012252807617,0.1728833694458008,0.12649188613891602
1681917732.742952,2.5406319808959963,0.0765926170349121,-0.8345954132080078,-0.6721248626708984,-0.2377012252807617,0.1728833694458008,0.12649188613891602
1681917732.7453797,2.5406319808959963,0.0765926170349121,-0.8345954132080078,-0.6721248626708984,-0.2377012252807617,0.1728833694458008,0.12649188613891602
