lbr-stack/dynamic_parameter_identification/src/test/measurements_with_ext_tau.csv
q_0,q_1,q_2,q_3,q_4,q_5,q_6,tau_0,tau_1,tau_2,tau_3,tau_4,tau_5,tau_6,tau_ext_0,tau_ext_1,tau_ext_2,tau_ext_3,tau_ext_4,tau_ext_5,tau_ext_6
0.00015399727213738943,0.002767756763197389,-0.0007749598945566615,-0.00012595419438097053,-0.001244729552614186,6.010084912473774e-05,-0.0016543623641311503,-0.23793220138549806,1.1789070091247558,0.051942119598388674,-0.6004156875610351,-0.18311798095703125,0.01702133560180664,-0.1488532485961914,-0.23411402340377727,0.9917204473822108,0.049323034529435844,-0.5489328294583998,-0.18004975423020145,0.02910344235270621,-0.1474753961595998
0.00015405715874734847,0.0027679365321103444,-0.0007751396634696169,-0.00012583431207797418,-0.0012444419223534573,6.004096251477868e-05,-0.0016544821373510685,-0.23793220138549806,1.1829397583007812,0.04930099487304687,-0.6012960624694824,-0.17607498168945312,0.019023845672607422,-0.14685073852539063,-0.2351600297633286,0.9887581936258506,0.04956875557389816,-0.5493829267326391,-0.18044820438088577,0.02921433754572284,-0.14746952085614765
0.00015417704105034484,0.002767816649807348,-0.0007749598945566615,-0.00012583431207797418,-0.001244729552614186,5.986119360182327e-05,-0.0016544821373510685,-0.23793220138549806,1.1668087615966798,0.05018136978149414,-0.6012960624694824,-0.17959648132324219,0.01935759735107422,-0.1475182418823242,-0.23419457799959822,1.0006778223338746,0.04952840056111927,-0.5560690075285927,-0.18038588115198756,0.02953666178539199,-0.14749090358522968
0.00015381750322443401,0.0027679964187203037,-0.0007749598945566615,-0.00012577442546801511,-0.0012445377409293918,6.010084912473774e-05,-0.0016544222507411093,-0.22448970413208008,1.1668087615966798,0.051942119598388674,-0.5968941879272461,-0.1743142318725586,0.015686328887939454,-0.147851993560791,-0.23401660717641293,1.0024073094999841,0.049105607637773586,-0.5569192840019603,-0.18060535018626026,0.0295097360545814,-0.14738378804177407
0.00015393738552743036,0.0027679365321103444,-0.0007750797768596578,-0.00012577442546801511,-0.0012443461037775227,6.010084912473774e-05,-0.0016546619062640239,-0.23793220138549806,1.1506777648925781,0.05106174468994141,-0.5801670646667481,-0.1787161064147949,0.015352577209472655,-0.1475182418823242,-0.23319972726839885,0.9954452713521258,0.04871582569043873,-0.5537943370125982,-0.1798703843875425,0.02932409260120247,-0.14741541422902546
0.00015393738552743036,0.002767756763197389,-0.0007750197811666205,-0.00012577442546801511,-0.001244729552614186,6.010084912473774e-05,-0.0016546619062640239,-0.23121095275878906,1.1506777648925781,0.053702869415283204,-0.5880904388427735,-0.17783573150634766,0.01802259063720703,-0.14651698684692382,-0.2330407610343766,1.0091675849673678,0.04865277807826124,-0.5577843351492875,-0.17973804447209304,0.02937072154746594,-0.14733213709325396
0.00015393738552743036,0.002767816649807348,-0.0007750797768596578,-0.00012577442546801511,-0.0012445377409293918,6.010084912473774e-05,-0.0016544222507411093,-0.23389945220947267,1.1533662643432616,0.053702869415283204,-0.5872100639343262,-0.17959648132324219,0.01702133560180664,-0.14651698684692382,-0.23352976042352677,0.9907527467770371,0.04823114541197815,-0.5495692820841173,-0.17930747266610939,0.02886587974954592,-0.14732961357125532
0.00015375761661447495,0.002767816649807348,-0.0007750797768596578,-0.00012577442546801511,-0.0012445377409293918,6.02207314277341e-05,-0.0016544222507411093,-0.22852245330810547,1.1533662643432616,0.04930099487304687,-0.5810474395751953,-0.17783573150634766,0.01935759735107422,-0.147851993560791,-0.23377914429390786,0.9894450832001522,0.04868293375184661,-0.5490906934339355,-0.17953716432493155,0.028988675997642894,-0.1473914641945602
0.00015405715874734847,0.0027676368808943926,-0.0007750797768596578,-0.00012577442546801511,-0.0012446337340382514,6.010084912473774e-05,-0.0016545421330441058,-0.24196495056152345,1.1547105140686036,0.046659870147705076,-0.5924923133850097,-0.1743142318725586,0.016353832244873048,-0.147851993560791,-0.23470758765900737,0.9795032554288999,0.04858970517942364,-0.544564912504881,-0.1794996843574917,0.028854081257455675,-0.14747267491764932
0.00015393738552743036,0.0027679964187203037,-0.0007750197811666205,-0.00012583431207797418,-0.001244729552614186,6.010084912473774e-05,-0.0016545421330441058,-0.23793220138549806,1.1560547637939453,0.04577949523925781,-0.5872100639343262,-0.17519460678100585,0.019691349029541016,-0.1475182418823242,-0.23489094937492372,0.9930912759532166,0.048568067496864896,-0.5494638178793122,-0.1793545894589846,0.02923245161733765,-0.147495737124415
0.00015393738552743036,0.002767876536417307,-0.0007750197811666205,-0.00012577442546801511,-0.0012445377409293918,6.010084912473774e-05,-0.0016546619062640239,-0.23927645111083984,1.1600875129699708,0.05018136978149414,-0.593372688293457,-0.17255348205566406,0.01835634231567383,-0.14618323516845702,-0.23555124416482937,0.9910087179242868,0.048714255156574425,-0.5489471198617021,-0.17944172937040928,0.029234477579089504,-0.14728560915851718
0.00015381750322443401,0.0027679964187203037,-0.0007750197811666205,-0.00012577442546801511,-0.0012444419223534573,6.010084912473774e-05,-0.0016544222507411093,-0.23793220138549806,1.1681530113220215,0.05018136978149414,-0.5995353126525879,-0.17343385696411132,0.020025100708007813,-0.147851993560791,-0.2350353941425911,1.0071776366304463,0.04906762251915236,-0.5559973877723895,-0.17874183457998527,0.029505565668036388,-0.14720881455418325
0.00015399727213738943,0.002767876536417307,-0.0007750797768596578,-0.00012583431207797418,-0.0012448253711901205,5.986119360182327e-05,-0.0016540627129151986,-0.23121095275878906,1.1735300102233888,0.04930099487304687,-0.606578311920166,-0.17695535659790038,0.017355087280273438,-0.15018825531005858,-0.23457886731888328,1.0010371151621256,0.048899406605168,-0.5549761198244417,-0.17898945323340373,0.029610739352924898,-0.14744919986900257
0.00015375761661447495,0.0027679365321103444,-0.0007750797768596578,-0.00012577442546801511,-0.0012444419223534573,6.02207314277341e-05,-0.0016547817885670202,-0.23524370193481445,1.1829397583007812,0.05282249450683594,-0.6100998115539551,-0.17695535659790038,0.021693859100341797,-0.14518198013305664,-0.23530131065832408,1.0018941822532514,0.048575693245394354,-0.5563074388189286,-0.17890748343417331,0.029744136495961093,-0.14754782960379706
0.00015405715874734847,0.002767876536417307,-0.0007750797768596578,-0.00012577442546801511,-0.0012445377409293918,6.010084912473774e-05,-0.0016545421330441058,-0.24599769973754884,1.164120262145996,0.04401874542236328,-0.5977745628356933,-0.17255348205566406,0.017688838958740235,-0.14451447677612306,-0.23487131791024576,1.00518792304821,0.04874067198662388,-0.5576899533754678,-0.17874537151299555,0.029968039505443845,-0.1473891220208641
0.00015393738552743036,0.002767876536417307,-0.0007750797768596578,-0.00012577442546801511,-0.0012444419223534573,6.02207314277341e-05,-0.0016545421330441058,-0.24330920028686523,1.1412680168151856,0.056343994140625,-0.589851188659668,-0.17519460678100585,0.01935759735107422,-0.147851993560791,-0.23591674896638726,0.9939040894259825,0.04815369768462581,-0.5536183545607871,-0.17869866420408195,0.029713590017210023,-0.14740538650362758
0.00015405715874734847,0.002767876536417307,-0.0007750797768596578,-0.00012577442546801511,-0.0012445377409293918,5.986119360182327e-05,-0.0016544222507411093,-0.23389945220947267,1.1224485206604005,0.04577949523925781,-0.5678418159484864,-0.1787161064147949,0.017688838958740235,-0.14851949691772462,-0.23569167269146615,0.9889042209980091,0.04786076222510202,-0.5502791517428075,-0.17850168884032896,0.02939881988847532,-0.14737580773845413
0.0001581917346622448,0.0028790302296582875,-0.0007509315104121425,-0.0002605969650276036,-0.0012117489384038751,6.399576951671958e-05,-0.0015844343295699803,-0.31993143463134766,-1.2393982467651368,-0.16286935806274414,1.5793925857543945,-0.30989196777343747,-0.07275786590576172,-0.259658805847168,-0.1699135878512688,5.173703933564146,0.09395067118691432,-2.2434872021227688,-0.13998924716298358,0.11487346829556269,-0.14945316457938043
9.269792723192283e-05,0.003656806431129198,-0.0003460444672975072,-0.0004598945851497406,-0.0006243301043113012,5.7704075729436524e-05,-0.0005052549288275254,-0.20298170852661132,-12.622504920959473,-0.3574322128295898,1.295911865234375,-0.5458324432373047,0.16987960433959962,-0.3517742691040039,-0.10857385478487735,6.957527866087019,0.1600956183559544,-2.5389537571860594,-0.1231135957794223,0.15887656135671555,-0.18235108797217134
-0.00041950777534167005,0.0037986397401278916,0.0003242930833283714,0.0003702526203549816,0.000599594774553262,4.9075386073733055e-05,0.0012431835181461537,0.009409748077392577,-5.101427707672119,-0.05458324432373047,1.34257173538208,-0.3838434600830078,-0.11013805389404296,-0.323739128112793,-0.2795061045423348,-13.23397676753379,-0.11993106741536498,4.682438198298006,-0.3567638422404336,-0.22513095293685464,-0.22135185875175412
-0.001607384209319845,0.0031347736522022514,0.00110776178523774,0.0014907776711633213,0.0021500658695440588,6.36961183007678e-05,0.0030630480375946055,0.022852245330810546,16.238536682128906,0.07923374176025391,-3.2177702903747556,-0.23946197509765624,-0.04038395309448242,-0.30204526901245116,-0.2746290027358133,-14.064316279788176,-0.20970390643840267,5.1673021193139705,-0.4273006528802103,-0.32054807603583546,-0.24690143079425667
-0.003078447732083421,0.0031000193471396012,0.001941324600088615,0.001234794593096443,0.0037432966585440905,8.137292204804463e-05,0.004827545368098963,0.18550646209716798,15.317725620269776,0.2711554718017578,-7.0385973930358885,-0.07483186721801757,0.3671268463134766,-0.3083865509033203,-0.002987379118009202,9.065193461982938,0.11096378514084611,-3.529267056684386,-0.18958727983464996,0.1686538274500329,-0.2630222763087796
-0.004643287904639731,0.0030442328428427153,0.0027449267657505207,0.0008646618550444577,0.005360304067944041,0.0002001964646869141,0.006535117694218742,0.11963822555541992,10.24183865737915,0.14614223480224608,-3.9440795898437497,-0.16022823333740235,0.11280806732177734,-0.30037651062011717,-0.030421505350140987,7.39235742854619,0.09660212614874553,-3.322273172715749,-0.1978825020444495,0.18964505617979519,-0.27547896097146557
-0.006215078960025185,0.002866267073170766,0.0035274967321781902,0.0008210392048031898,0.006880766669907747,0.0003909253908463849,0.008208115484188828,0.0,7.379930992126464,0.039616870880126956,-2.4448011207580564,-0.2711554718017578,0.04372146987915039,-0.317064094543457,-0.0804857222235918,5.25310933330319,0.0349702636536482,-2.101762220036596,-0.24533669897361113,0.08457105853110727,-0.28384346058893317
-0.0077555312106110654,0.0025473069524549414,0.004290652092338988,0.0008197809314955801,0.008391066743235868,0.0006293515474689828,0.009858223390102085,-0.19357196044921876,5.734569328308106,-0.04842061996459961,-2.588302230834961,-0.24738534927368164,0.10579928207397461,-0.31439408111572265,-0.09502276908795991,3.352615014447091,0.0032606968882626084,-1.3970203299948938,-0.2724726439203659,0.042375201240527974,-0.29243271075358646
-0.009252780344474625,0.0021475731030398976,0.0049996388684194985,0.0009507085506631867,0.009812491683992708,0.0008207995492802753,0.011499043526400856,-0.29976768875122073,5.1793941917419435,-0.17695535659790038,-1.998451042175293,-0.36799671173095705,0.03537767791748047,-0.32240412139892577,-0.11312284972648155,2.5335300039557684,-0.026135611216378685,-1.0405785230323896,-0.2912278677687207,0.008786434942203124,-0.29931771098143034
-0.010693164360563567,0.0016961873252428641,0.005673032490565619,0.001112675323414417,0.011191060937631453,0.0010031994369999943,0.013108225315767176,-0.24196495056152345,4.347303611755371,-0.1487833595275879,-2.2018176460266115,-0.34334621429443357,0.0530665168762207,-0.32907915496826173,-0.10967036171345994,2.4951604754882473,-0.03776055012989014,-1.0818839919926586,-0.3006138075092671,0.003419508170278579,-0.3056942677416352
-0.012107183105722646,0.0011872771315462713,0.006337797423056036,0.0013267136671496634,0.012533869442094385,0.0011797870510613377,0.014693558598985012,-0.24196495056152345,3.238297588348389,-0.182237606048584,-1.9007294273376465,-0.34158546447753907,0.037046436309814454,-0.31739784622192385,-0.11236302861135046,1.8768636443885494,-0.05417682042416041,-0.9367137014283194,-0.3118640695781061,-0.00941710735958771,-0.30969177649830687
-0.013493697970781095,0.0006137720840672119,0.0069999858132381975,0.0015957594438369368,0.013853859860982594,0.001351640786775881,0.01627517662164074,-0.20567020797729493,1.8389336242675782,-0.1972039794921875,-1.2739024925231934,-0.3970490837097168,0.005006275177001953,-0.3200678596496582,-0.10274712848191385,1.0040475814298053,-0.06329993229031691,-0.7031556835130931,-0.3229615711382485,-0.025308753052952975,-0.31049634312605845
-0.01485240941360604,3.0559624371638213e-06,0.007656301824985867,0.0018966234454526928,0.015175576061435174,0.0014716628251954793,0.017881362335179857,-0.2177684555053711,0.6304531211853027,-0.19808435440063477,-0.6761279296875,-0.37503971099853517,-0.020692604064941406,-0.31272532272338865,-0.09944774151041835,0.6864888842811044,-0.07113719998267458,-0.6204694042344537,-0.33150680432182994,-0.0342833413219078,-0.3096876044399183
-0.01621885081060499,-0.0006163487354585468,0.008321785833128105,0.0022133065659931343,0.016496237559420774,0.001534699863537463,0.019488566775586746,-0.2634729461669922,0.06586823654174805,-0.23506010055541993,-0.20600772857666017,-0.40585283279418943,-0.0844391746520996,-0.31172406768798827,-0.10637770497148258,0.36149112267377825,-0.08320721298459262,-0.482393819544564,-0.3408277223744729,-0.044941987278405864,-0.30964752990368644
-0.017572468946340302,-0.0012437828205780572,0.008996677493187829,0.0025183650301337456,0.017812584952561297,0.001600313444187703,0.02108690287081502,-0.2070144577026367,0.3857996711730957,-0.17079273223876953,-0.34246583938598635,-0.3688770866394043,-0.08710918807983399,-0.31339282608032226,-0.10342163869907271,0.3080557945531118,-0.08753039746352695,-0.4246392620380464,-0.3450334451844743,-0.053230688745829646,-0.3100104093000067
-0.018915241497020643,-0.0018609704049083438,0.00966491781255128,0.002794062147517291,0.019132191922612844,0.0016901352869784956,0.022679606352214794,-0.07258948516845704,1.0081872940063477,-0.0765926170349121,-0.689333553314209,-0.34686771392822263,-0.062077812194824215,-0.3080527992248535,-0.0905262829358946,0.8878953551889178,-0.08290817216748118,-0.651801461783652,-0.34227864280601766,-0.04404107821549287,-0.3112188130264349
-0.020269398939494823,-0.0024287829519489454,0.010339689590308006,0.0030466296162380163,0.020475192064227644,0.0017917015593890363,0.024274227295964037,-0.013442497253417968,1.2541849937438965,-0.029052371978759765,-0.9534460258483887,-0.3230975914001465,-0.046391483306884765,-0.30705154418945313,-0.07818099073709844,1.7951050398883486,-0.07319057764198286,-1.0326166423629646,-0.3350097747510051,-0.024253558972720673,-0.30990215396707155
-0.021616965146048845,-0.0029882065739398364,0.011023449595546348,0.003290568504386117,0.02178741681514203,0.0019076489085036975,0.0258793345051085,-0.018819496154785155,0.8925818176269531,-0.022889747619628906,-0.8971020317077637,-0.324858341217041,-0.026366382598876952,-0.30204526901245116,-0.0729934168787382,1.6995348529233638,-0.07087156883954226,-1.0523739226951414,-0.3355763446199389,-0.022976179757758463,-0.3084238446054792
-0.022966328932649344,-0.003567044584031443,0.011696663448779513,0.003508262003907352,0.023115652343949585,0.0020211394885300197,0.0274741352177707,-0.1290479736328125,0.20432595825195313,-0.12941511154174803,-0.5572773170471191,-0.39352758407592775,-0.05206526184082031,-0.3100553092956543,-0.06382906647456146,1.3333851162196306,-0.06590272825247437,-0.9481369551909388,-0.33760808963982686,-0.028399085186523197,-0.3076818669412992
-0.02431976740855478,-0.004156368859518266,0.012375809457974049,0.0037051628506341878,0.02444340860534454,0.002129057450420881,0.02906863627921695,-0.06586823654174805,-0.7353045997619629,-0.08539636611938477,-0.2509068489074707,-0.3486284637451172,-0.06841909408569335,-0.3097215576171875,-0.061837463109563534,0.9308693845437771,-0.0711287474002802,-0.8347509321638489,-0.34295784543297075,-0.033420872043335124,-0.30920786595601285
-0.025668891430549283,-0.004740719710218453,0.0130648424301319,0.0039132089336319465,0.025754578653791948,0.002223133642346488,0.03065858344939551,-0.08199923324584961,-1.369790470123291,-0.11797023773193359,0.1945628547668457,-0.43138370513916013,-0.11414307403564453,-0.3210691146850586,-0.06514539096588867,0.5409356541448307,-0.07616352077068494,-0.6831045086006426,-0.3495232881528103,-0.041762450486396874,-0.3110594591453837
-0.0270246069066301,-0.005324471258486736,0.013741651552541095,0.004120715818973917,0.027118479287732308,0.002315412145142541,0.032257518737972606,-0.20432595825195313,-1.2138575019836426,-0.15758710861206054,0.1743142318725586,-0.3838434600830078,-0.09879049682617187,-0.31506158447265625,-0.07200306751897832,0.19773927567588753,-0.08179161608940701,-0.5143861133895518,-0.35650281927914185,-0.053869342698321235,-0.31288294026732943
-0.02838074180714679,-0.005900552957357131,0.014422355595342273,0.004309587169393875,0.028440483118445617,0.002407990299154546,0.0338493233748076,-0.09813022994995117,-0.3333739318847656,-0.08275524139404297,-0.18575910568237305,-0.38032196044921873,-0.09011295318603516,-0.31839910125732424,-0.0754401224656177,0.3430998378373433,-0.08665203597796785,-0.5453989471228059,-0.35768670064949537,-0.05416750495460513,-0.3131977621772584
-0.02973364097631336,-0.006443977691510381,0.015111508340720042,0.004474490131362351,0.029786743011504368,0.0025108149539557747,0.035451194852601946,-0.057802738189697264,0.4247829132080078,-0.057224369049072264,-0.5977745628356933,-0.3688770866394043,-0.07776414108276367,-0.3147278327941895,-0.07380226740709607,0.8817470667930549,-0.083257239296787,-0.7530910810856515,-0.35511511160558334,-0.042546361208580706,-0.3130556425551542
-0.0310869595699158,-0.006956423158689966,0.015787418727647537,0.004623454092103145,0.03112207330372128,0.0026258035718956995,0.03707224095389101,-0.07124523544311523,0.7164851036071778,-0.06778886795043945,-0.8073037910461426,-0.32837984085083005,-0.044388973236083984,-0.3000427589416504,-0.07324912665138594,1.2361812749493386,-0.07860007157287945,-0.9170891280555992,-0.3512809946137097,-0.03240346314296836,-0.31279603725527655
-0.03243949920125646,-0.007467849899001779,0.016465186472148393,0.004776133095239887,0.03244551528573823,0.0027467843414900337,0.0386714160070741,-0.006721248626708984,0.6707806129455567,-0.05986549377441406,-0.7993804168701172,-0.40849395751953127,-0.04872774505615234,-0.32907915496826173,-0.06448529740008306,1.3751244491963395,-0.07515967630263837,-1.0049833373218338,-0.35076798482194255,-0.02756989972351495,-0.312615201458591
-0.033795274563947236,-0.007983291442008569,0.017151642901997985,0.004936721712380512,0.03380395111925767,0.002862192383865829,0.04023817364197988,-0.057802738189697264,0.3347181816101074,-0.051942119598388674,-0.7060606765747071,-0.324858341217041,-0.04272021484375,-0.320401611328125,-0.06350725085435732,1.1956909355565666,-0.07685599983373981,-0.9607171485901663,-0.3537626293315062,-0.029670459985741096,-0.3154754645112089
-0.03515027096437623,-0.008508799716891629,0.01783336556258386,0.005106118679006717,0.03511886036109455,0.0029651968075800126,0.04179648235614292,-0.030917743682861328,0.0833434829711914,-0.10388423919677735,-0.46483795166015623,-0.3838434600830078,-0.07342536926269531,-0.32807789993286135,-0.0658901646545975,0.89050728550942,-0.0815825222187711,-0.846509252664024,-0.35787636489437863,-0.03588987566552288,-0.3179424139304782
-0.0365071848271547,-0.009030832495818574,0.01851041434051597,0.0052835451419398,0.03646847582417319,0.0030689801935559775,0.04336629595348586,-0.15055596923828124,-0.0026884994506835938,-0.12853473663330078,-0.3891257095336914,-0.3741593360900879,-0.08010040283203125,-0.317064094543457,-0.05389801785580194,0.9072893814512086,-0.07734941399090745,-0.8330135953872204,-0.3593270761819464,-0.03751495615403495,-0.3188573036699603
-0.03786427845884612,-0.009555561808439854,0.01919489331232305,0.0054622898738735295,0.03780255960223832,0.0031780366555345303,0.044937967235651397,-0.09409748077392578,0.31858718490600585,-0.1355777359008789,-0.4947706985473633,-0.4146565818786621,-0.0857741813659668,-0.3197341079711914,-0.053749480666572584,1.0026356628191608,-0.07981393420203196,-0.8455479444169041,-0.3607620963727432,-0.039044449585297625,-0.31770231043309977
-0.03921759705244856,-0.010068187044532394,0.019870623821254516,0.005636180954240542,0.039133479796501294,0.0032932650380804477,0.046502148219165845,-0.03898324203491211,0.7191736030578614,-0.057224369049072264,-0.7087018013000488,-0.3688770866394043,-0.05707153701782226,-0.3163965911865234,-0.04546183145210808,1.1846802606467794,-0.07756982071859597,-0.8989346456128683,-0.36239426856202567,-0.03688137829515491,-0.31639876538267625
-0.04058218076462492,-0.010577217011448906,0.020543178594528897,0.005814686030651358,0.04048539612713284,0.0034057968869320343,0.048067228047245066,0.05242573928833008,1.0807767791748046,-0.018487873077392577,-0.9323170280456543,-0.32573871612548827,-0.05039650344848633,-0.32340537643432615,-0.04213620174374105,1.3097027113337314,-0.07654181102091222,-0.9619866303488571,-0.3621742491915281,-0.032992096750995466,-0.3167042234501087
-0.041936937509531,-0.011081093675582746,0.021225799990596466,0.0060033776121583594,0.0418106597092901,0.0035170703533929327,0.049624098719187534,0.09678598022460938,1.1345467681884767,0.043138370513916016,-0.9860198974609374,-0.33630321502685545,-0.03337516784667969,-0.3294129066467285,-0.03651987703065051,1.5974828807009347,-0.07224976882214648,-1.0984243117609043,-0.35886843547200625,-0.02491130284789023,-0.3191196907987012
-0.04329067552756931,-0.011588745486888652,0.021902249575179753,0.006197701807493861,0.043164973075116325,0.003625587508632619,0.05123405947081564,0.0416717414855957,0.7218621025085449,0.02024862289428711,-0.858365535736084,-0.2914040946960449,-0.03437642288208008,-0.3260753898620605,-0.05025447711016675,1.5513646852671918,-0.07793148454939221,-1.1059223318893163,-0.3607295521550763,-0.022617695079292892,-0.32231510229050975
-0.04465963358026656,-0.012099213496025727,0.022578759046372996,0.00641287854223372,0.04450126207669136,0.0037362020042178115,0.05283910679335014,-0.03495049285888672,0.14517897033691407,-0.10036273956298827,-0.6215446853637695,-0.4093743324279785,-0.06040905380249023,-0.336755443572998,-0.04621509716873718,1.3447097348017358,-0.07450990751703145,-1.0457852502783034,-0.3595220634320035,-0.024999564360210214,-0.3252998939634826
-0.0460103156358677,-0.012619508690599236,0.023258983669045264,0.006647350000937456,0.04585001464898781,0.0038535873955530377,0.05444828858271646,-0.03629474258422852,-0.18281796264648437,-0.08275524139404297,-0.34510696411132813,-0.3891257095336914,-0.07409287261962891,-0.3270766448974609,-0.044872248768374125,1.0414642277467259,-0.07731374047832973,-0.914385513734527,-0.3639424010146459,-0.03272502346258097,-0.3255663120105026
-0.047366270767471436,-0.0131504098147048,0.023937410711671058,0.006878226081382082,0.04719675380945916,0.003976845165322755,0.05605477383838845,-0.006721248626708984,-0.16937546539306642,-0.058985118865966794,-0.34510696411132813,-0.35391071319580075,-0.07709663772583007,-0.32741039657592774,-0.04686447034348789,0.9558333051051066,-0.0832872516418645,-0.8637027976095628,-0.3679145696454636,-0.036502248153233954,-0.3255806699676354
-0.04873205297542852,-0.013674060513848346,0.0246195527966928,0.007100353698951087,0.048547136344744043,0.004107653011270444,0.05766071989640465,-0.09678598022460938,-0.030917743682861328,-0.1276543617248535,-0.40409208297729493,-0.42874258041381835,-0.07409287261962891,-0.3457667388916016,-0.05040804048464602,1.0991681488168727,-0.08336528690605999,-0.9057354439424025,-0.3671670075473866,-0.03456715972652505,-0.3271692227331151
-0.05007692264828822,-0.014184468636375463,0.0253042714240228,0.007317627664953375,0.049885055309307515,0.0042297122852594324,0.059259475416068796,-0.08737623214721679,0.14921171951293946,-0.08803749084472656,-0.5528754425048829,-0.3574322128295898,-0.04071770477294922,-0.3334179267883301,-0.04603208474468463,1.2944833882203508,-0.0832416841631539,-0.9739244775206909,-0.3663649604703183,-0.03124294861560424,-0.32940368231523726
-0.051434435704415506,-0.01469925109942347,0.025990008778220573,0.007526812248038825,0.05123658819110239,0.004343981936630614,0.06087147351234937,-0.09544173049926757,0.37101292419433596,-0.16815160751342773,-0.649716682434082,-0.4199388313293457,-0.0530665168762207,-0.336755443572998,-0.042736548153802505,1.342634452096938,-0.08143710262878369,-1.006678914378088,-0.3648606347511397,-0.0284570494051167,-0.33078907640993516
-0.05279320714293349,-0.015226077534224097,0.026676944519115994,0.007732641326554238,0.05258735417522394,0.004446806591431843,0.06248209345301933,-0.14114622116088868,0.45570065689086914,-0.14438148498535155,-0.762404670715332,-0.3759200859069824,-0.02870264434814453,-0.3287454032897949,-0.038256699064251824,1.3333678292633955,-0.08008674600755594,-1.014592690359074,-0.3632955545202903,-0.028030189427625193,-0.33196318919094536
-0.05413645900465966,-0.01574451515305809,0.027354532603786973,0.007939788674070298,0.05391434336441265,0.0045459160947540446,0.0640880993976455,-0.04570449066162109,0.11560547637939453,-0.08803749084472656,-0.5766455650329589,-0.35919296264648437,-0.051731510162353514,-0.31406032943725587,-0.03367490694438804,1.4559844509633533,-0.07710158819334326,-1.0787271632166542,-0.3596440215659135,-0.023164886606052953,-0.3307830226265066
-0.05549588952313643,-0.016267207121026903,0.028035775953327017,0.00815520517341615,0.05526923199076034,0.00464886063185827,0.06568997087543983,-0.016130996704101563,-0.28363669204711917,-0.08891786575317383,-0.3327817153930664,-0.3917668342590332,-0.07409287261962891,-0.32474038314819337,-0.04091949268861917,1.2484849211767184,-0.08117566837189018,-0.9946923692009021,-0.3622774341542679,-0.026555382104921667,-0.32787768103514237
-0.056851664885827206,-0.01681081151501003,0.028724089849833045,0.008367325945718845,0.056595358289166856,0.004772238174847906,0.0672949582022813,-0.022852245330810546,-0.34009518051147464,-0.055463619232177734,-0.3204564666748047,-0.35126958847045897,-0.0754278793334961,-0.31506158447265625,-0.0513293484219991,0.9921558849734174,-0.08839724162179803,-0.8879455012078681,-0.3657370107281827,-0.03344464602862362,-0.323884639596769
-0.05819983028573005,-0.017366340325692016,0.02939772312750208,0.008575611684239518,0.05795206851565485,0.004908199214495186,0.0688949121086431,-0.04839299011230469,-0.061835487365722655,-0.13997961044311524,-0.4419482040405273,-0.41201545715332033,-0.05740528869628906,-0.3207353630065918,-0.054523129067844636,0.9678216002334624,-0.08891829194816007,-0.8654901253115601,-0.3666766800927904,-0.0354473676836912,-0.32151554037142605
-0.05955482668615905,-0.017900896714666648,0.030081423137047383,0.008776766989184247,0.05929947875522359,0.005031037559829033,0.07049786209083209,-0.10888422775268555,0.06452398681640625,-0.1329366111755371,-0.5150193214416504,-0.37768083572387695,-0.04472272491455078,-0.3230716247558594,-0.04484730680869293,1.4178282645891993,-0.08161787310260558,-1.0412920388420048,-0.3597438171957809,-0.026085229490307674,-0.32093648024692556
-0.06090580839297614,-0.018427543380554322,0.030769137949287664,0.008977622533829945,0.060625701046738964,0.005146984908943694,0.07209673749279923,-0.08199923324584961,0.026884994506835937,-0.13733848571777343,-0.5264641952514648,-0.4164173316955566,-0.043387718200683593,-0.3317491683959961,-0.03518715382879718,1.5734878758002204,-0.07675008677276571,-1.1048383156860824,-0.3574199331205506,-0.022396905875969948,-0.3215790185909244
-0.062258168255403847,-0.01896527561426911,0.03144037434447832,0.009176380956296295,0.0619778091890553,0.005256041370922247,0.07367086543497002,-0.17206396484375,-0.006721248626708984,-0.18575910568237305,-0.550234317779541,-0.39528833389282225,-0.03871519470214844,-0.318732852935791,-0.023516531623123404,1.39279208943225,-0.07335735162688801,-1.0470999013830278,-0.35507350478850613,-0.025838639557517824,-0.3210589160380324
-0.06361292489122686,-0.019513494004296045,0.03212353504728476,0.009379633383420372,0.06328926704229636,0.005358985798943393,0.07525254345331879,0.05376998901367187,-0.20029320907592774,-0.04401874542236328,-0.4710005760192871,-0.38032196044921873,-0.0637465705871582,-0.32674289321899413,-0.02120474025900389,1.3225392276208114,-0.07804444088075069,-1.0243024780388292,-0.3557860287680333,-0.027339182678291385,-0.32030945230729296
-0.06496732209830702,-0.02004517409066339,0.03280987170391443,0.00958204696167271,0.06463715672381062,0.0054681022566149835,0.07683829605188942,0.02150799560546875,-0.5928141288757324,-0.055463619232177734,-0.25706947326660157,-0.3759200859069824,-0.0754278793334961,-0.3227378730773926,-0.015567778667102614,1.5000140404716071,-0.07458409789735186,-1.0988876138214887,-0.3556114591066009,-0.022082761814057467,-0.32080122615108975
-0.06632531457456323,-0.02057457728593843,0.03348074856127918,0.009788355351233952,0.06595427101462448,0.005575121373941068,0.07842566657067665,-0.10081872940063477,-0.9019915657043457,-0.15494598388671874,-0.14262073516845702,-0.39352758407592775,-0.07709663772583007,-0.32907915496826173,-0.021505588899573606,1.4110817535430864,-0.07775358829654559,-1.062743539032193,-0.3570334816986818,-0.02473073118942893,-0.3219820980553989
-0.06768300739960348,-0.021115185604094353,0.03416271087738797,0.009994124543139407,0.06727349436130643,0.005688372298444476,0.08000332989541352,-0.11829397583007813,-0.8764508209228515,-0.1487833595275879,-0.16463010787963867,-0.39352758407592775,-0.08277041625976563,-0.3337516784667969,-0.02036800373254801,1.1073150870245907,-0.08011152483283825,-0.933179682573025,-0.3598243754404767,-0.0326856494015572,-0.32435520391850287
-0.06903572679985709,-0.02164524787932818,0.03484683031136914,0.010198096045915305,0.06861112569560918,0.005797069222597118,0.08156397560544497,-0.03495049285888672,-0.7299276008605957,-0.09772161483764648,-0.27027509689331053,-0.3820827102661133,-0.07976665115356445,-0.33809045028686524,-0.02991631003839728,1.2215064595945564,-0.08567710659967963,-0.9791161060889724,-0.3602702757973555,-0.02998978352359744,-0.32765360417155104
-0.07038491081754464,-0.022150083383719835,0.03551800692903291,0.010407160855780837,0.06991347537361577,0.005903069613055428,0.08311293666338355,-0.04570449066162109,-0.7460585975646973,-0.10916648864746094,-0.22185447692871094,-0.39352758407592775,-0.06908659744262695,-0.32807789993286135,-0.03926830244441798,1.304356106902686,-0.0884743360748268,-1.0186652031749677,-0.362210423107258,-0.026328304040900495,-0.3287675315544052
-0.07173241702840562,-0.022660191855031,0.03619205963113782,0.010597769899637313,0.07124535427723687,0.006013084806208717,0.08467765695363687,-0.04839299011230469,-0.8280578308105468,-0.11620948791503906,-0.15582635879516601,-0.41905845642089845,-0.08043415451049804,-0.3300804100036621,-0.03659795176523163,1.3321632654372493,-0.08639069198016135,-1.0316600897524726,-0.3648811066647162,-0.02585321084820159,-0.3286917284223316
-0.07307992334834967,-0.02318516082317519,0.0368751604473343,0.010780769089788934,0.0725613180470078,0.006131848462237627,0.08624189793284436,-0.10081872940063477,-0.8912375679016113,-0.15054410934448242,-0.27027509689331053,-0.41201545715332033,-0.05506902694702148,-0.3287454032897949,-0.03398156571216239,1.0769840790444218,-0.08826609466824377,-0.9446542123555871,-0.368586293772378,-0.031209469117279957,-0.32837945575936656
-0.07442371440773164,-0.0237109687492742,0.03754969256956811,0.010966464595468732,0.07388428058707923,0.006257083690049855,0.08780038641592033,-0.05242573928833008,-0.8240250816345215,-0.14614223480224608,-0.19544322967529296,-0.42081920623779295,-0.06875284576416016,-0.3440979804992676,-0.025966597462867034,1.0609088448960557,-0.0873969297066214,-0.9360785986451166,-0.36976184477165125,-0.03232152409191227,-0.3304021169992912
-0.07576942303854614,-0.02421742206479938,0.038222846427108235,0.011152879176800351,0.07521309137640825,0.006377465157212285,0.08935018643181375,-0.05914698791503906,-1.0552360343933105,-0.11973098754882812,-0.13117586135864256,-0.3988098335266113,-0.07709663772583007,-0.34676799392700197,-0.008847294080052501,1.3159515551808958,-0.08067572243876622,-1.0350623555184628,-0.3662877969996252,-0.026749844282524537,-0.33369128890308125
-0.0771165698206643,-0.02472597272067006,0.038902292087518726,0.011349540368004273,0.07652867169734251,0.006485023581277236,0.09090987341067046,-0.0026884994506835938,-1.1896610069274902,-0.10652536392211914,-0.018487873077392577,-0.41377620697021483,-0.07909914779663085,-0.3531092758178711,-0.014106040520402962,1.084888419957025,-0.08941398036292375,-0.9382832509484946,-0.37238937583553383,-0.03179183048000178,-0.33713591547761007
-0.07845670572426026,-0.025240575305722032,0.03957346859609942,0.011543265369990948,0.0778680286386767,0.006582035962420089,0.09246536581791925,0.06317973709106445,-1.052547534942627,-0.04930099487304687,-0.08099449157714844,-0.3838434600830078,-0.07743038940429688,-0.3440979804992676,-0.010868069332063645,0.9086820379934567,-0.0930027744634569,-0.8599604930343917,-0.375810232893769,-0.03619625975509668,-0.33959704294744036
-0.07981050373799162,-0.02575703546651352,0.04024458521807016,0.011732676027149773,0.0792067145009135,0.0066754529653038335,0.09405045933653108,0.009409748077392577,-0.8240250816345215,-0.10212348937988282,-0.19280210494995118,-0.39528833389282225,-0.0847729263305664,-0.336755443572998,-0.003920097926506512,1.0185288843615212,-0.08856540412736029,-0.9047962579795024,-0.3722395486711076,-0.03369518170903149,-0.3403663753891583
-0.08115705121767787,-0.02626642497125594,0.04092343157604875,0.01191825175960965,0.08054578381198696,0.006776060506539638,0.09566113916381101,0.06049123764038086,-0.7487470970153809,-0.043138370513916016,-0.27731809616088865,-0.3556714630126953,-0.0737591209411621,-0.32507413482666014,0.005453595276425189,1.3196975029649125,-0.08301313912906505,-1.0255087901773252,-0.3669956918293726,-0.02782284493131584,-0.3396443986534745
-0.08250216065514354,-0.026772039437909376,0.04159664542928191,0.012102449336458924,0.08186960924284058,0.006888053157735437,0.0972582168766486,0.061835487365722655,-0.8294020805358887,-0.022889747619628906,-0.23241897583007812,-0.31957609176635743,-0.07776414108276367,-0.3260753898620605,-0.006365369110851896,1.2140140453831083,-0.08931031471361049,-0.9966099355712126,-0.3701416613303575,-0.028251258397388134,-0.3379962959352023
-0.083862849556011,-0.02728106929574281,0.04226931997577621,0.012296893305014343,0.08321088377742393,0.0070176625079023955,0.09884570727773882,0.10753997802734375,-0.9342535591125488,-0.036975746154785154,-0.22625635147094728,-0.3635948371887207,-0.08243666458129882,-0.3414279670715332,-0.004824450966452797,1.184974290253449,-0.08752475407463549,-0.9945510194399557,-0.3676829713698248,-0.028579571200355685,-0.33677370827567704
-0.08520496291764948,-0.027792795687270572,0.0429457695603595,0.0125001458412215,0.08453135346372473,0.0071128172042226575,0.10043145987630944,0.11022847747802735,-1.0243182907104493,-0.02024862289428711,-0.1382188606262207,-0.36799671173095705,-0.07108910751342773,-0.3424292221069336,-0.008375478333407207,1.1339767757323678,-0.09075800508817772,-0.9760011719138604,-0.3674310734469086,-0.02875934255916522,-0.3382863418915789
-0.08654935317038026,-0.02830799757475445,0.043621320300378005,0.012700881503564201,0.08585767174834898,0.007166386704037198,0.10203147377836427,0.15593296813964844,-1.0713670310974122,-0.002641124725341797,-0.05810474395751953,-0.3635948371887207,-0.08176916122436523,-0.33742294692993163,-0.013935575334098955,1.1680052315973195,-0.09517587626074576,-0.9853001555707416,-0.3693880029799849,-0.027915118645337557,-0.339571690486824
-0.08789943603263259,-0.028818945004020432,0.0442971108050025,0.012898381543639863,0.0871899339262738,0.0072195966660258265,0.10362711333989821,-0.02957349395751953,-1.131858268737793,-0.1153291130065918,-0.05810474395751953,-0.3900060844421387,-0.07175661087036132,-0.3320829200744629,-0.014820581274044608,1.1544973641535374,-0.09425652233026142,-0.9697904383047646,-0.3703960325933411,-0.027935277386974076,-0.3389163709140623
-0.08922758774200282,-0.029333847240288355,0.044974938545196394,0.013093544696930182,0.08849669387676727,0.007274724090363929,0.10521382477872666,-0.09275323104858399,-1.0794325294494629,-0.18751985549926758,-0.06778886795043945,-0.45427345275878905,-0.06775159072875976,-0.34877050399780274,-0.00897336757688677,1.2267858874934618,-0.0952265390562459,-0.9912610061681356,-0.3732863954480547,-0.02755348356278756,-0.3379654056484606
-0.0905660459478553,-0.029853303476907046,0.04565492340326267,0.013290685199179933,0.08985791001978513,0.0073306904726568485,0.10679867864181558,-0.11022847747802735,-0.9208110618591309,-0.18575910568237305,-0.19808435440063477,-0.45427345275878905,-0.06141030883789062,-0.35878305435180663,0.0067711855436082095,1.2509245566793414,-0.09075552175627044,-0.9994238510140369,-0.3728536392094266,-0.027273714629835074,-0.3398806693088888
-0.09190456404031774,-0.03037467717587521,0.04633353021480142,0.013487825701429682,0.09117253163136128,0.00739019212843276,0.10837682127759829,-0.07527798461914062,-0.8146153335571289,-0.15758710861206054,-0.2544283485412598,-0.38648458480834963,-0.05974155044555664,-0.36345557785034177,0.00679027759775611,1.2778075091378611,-0.09437802452809894,-1.008661891784824,-0.3743521401166625,-0.026790143099394807,-0.34549916706722716
-0.09323103794286142,-0.030889998836579002,0.047006324534515635,0.013683707821288745,0.09250613614201383,0.007451910897774097,0.10996437156529847,-0.0026884994506835938,-1.0955635261535646,-0.16463010787963867,-0.11708986282348632,-0.42874258041381835,-0.07976665115356445,-0.3607855644226074,0.011460803191062047,1.4325214252387972,-0.0914888212344995,-1.0780922564462587,-0.3732707389181237,-0.021708117878503193,-0.3502699732272907
-0.09457333107341286,-0.03140957484641761,0.0476846915814484,0.013883185210323837,0.09382209991178476,0.007520939978687411,0.1115433530499529,-0.11291697692871094,-1.4101179618835449,-0.18575910568237305,0.014966373443603515,-0.4410678291320801,-0.0744266242980957,-0.3527755241394043,0.013052076374646407,1.3516559297620128,-0.09272852055849659,-1.0454697967148077,-0.37284106599286543,-0.024020086220696447,-0.3525043361454592
-0.09591286778366,-0.0319386783904767,0.048367073321993054,0.014080325712573588,0.09511620447987201,0.007599736249344122,0.11310064314633124,-0.018819496154785155,-1.555296932220459,-0.14614223480224608,0.09948236465454101,-0.4560342025756836,-0.07509412765502929,-0.343430477142334,0.0038131059322332977,1.107306103504052,-0.10006785791252885,-0.951797434128976,-0.3776367384801406,-0.028880227448840425,-0.3503769133391768
-0.09724862956490124,-0.03247694993093036,0.04903627248161432,0.014281780559651189,0.0964474121298628,0.007678832171216783,0.11466626228114933,-0.05645848846435547,-1.4208719596862793,-0.11973098754882812,-0.005282249450683594,-0.3829630851745605,-0.07209036254882813,-0.33508668518066403,-0.0008093376511109171,0.9558855083234014,-0.10354681799498763,-0.8870316861414262,-0.37981351126143525,-0.03248104376268974,-0.34722025320901617
-0.09858505031701818,-0.03300958874847244,0.049713141490633474,0.014484314020206524,0.09773614771610506,0.007764339669179724,0.11623272037392224,0.04973723983764648,-1.290479736328125,-0.12325248718261718,-0.057224369049072264,-0.41905845642089845,-0.07709663772583007,-0.343430477142334,0.0013920694722500872,1.2034536118173629,-0.10317206659777077,-0.9846184008827036,-0.37718936107653267,-0.027820657438996383,-0.34417158707167805
-0.09992452714065536,-0.033532820023180115,0.0503951638024353,0.014689124371854163,0.09904779720649799,0.007849727284839668,0.11779480412617425,-0.057802738189697264,-1.2730044898986816,-0.16551048278808594,-0.036975746154785154,-0.4014509582519531,-0.0747603759765625,-0.33408543014526365,0.013488000778100908,1.4483171979911955,-0.09536789503085275,-1.0797734336087876,-0.3739263142632376,-0.02315241869143457,-0.3421335677378785
-0.10126256592207199,-0.03405455325997419,0.051061666428362226,0.014893275643543018,0.1003603095876731,0.007929901711106984,0.11934298622185106,-0.03898324203491211,-1.4235604591369628,-0.18928060531616211,-0.01408599853515625,-0.4516323280334473,-0.07275786590576172,-0.3394254570007324,0.018067083114144445,1.295016606915869,-0.09390263078901849,-1.0180881020406127,-0.3732020123069227,-0.02677993962064505,-0.3409562087456203
-0.10259730897644545,-0.03458869011542987,0.051738175899555476,0.015095209801666449,0.10165518105343369,0.008015349213376887,0.12087690712312675,0.09275323104858399,-1.3912984657287597,-0.06602811813354492,0.035214996337890624,-0.3820827102661133,-0.09879049682617187,-0.33575418853759764,0.022135170078156432,1.1141609086048478,-0.09789347530704591,-0.949344205505925,-0.37759313484417684,-0.029920939246288223,-0.3409310821055717
-0.10393894291795502,-0.035119351584012526,0.052418400522227744,0.01529864210678656,0.10297737669583179,0.008143760176846197,0.12239578775865645,0.08737623214721679,-1.5109366912841797,-0.06338699340820313,0.05018136978149414,-0.35391071319580075,-0.08043415451049804,-0.32741039657592774,0.031497580918017486,1.3636615200249311,-0.09343313709267428,-1.041148024966984,-0.3769987617900139,-0.027139911669443764,-0.33946167867661575
-0.1052725474722408,-0.03564054562315081,0.053083824643760026,0.015501894533910638,0.10427569972472112,0.008287091523758493,0.12393731862272006,0.004032749176025391,-1.746180393218994,-0.15670673370361327,0.14262073516845702,-0.4172977066040039,-0.09445172500610352,-0.3360879402160645,0.03252995694950407,1.436978737959698,-0.09158190048366584,-1.0721913035184214,-0.3772676749326829,-0.02559361767945755,-0.3383862602176043
-0.10660231710182762,-0.036161739553206014,0.05375518092125368,0.01571065969256022,0.10559501906451194,0.008430602639583744,0.12547633283108536,0.09947447967529296,-1.8496876220703125,-0.11797023773193359,0.20072547912597655,-0.46395757675170896,-0.0954529800415039,-0.3534430274963379,0.03381604368755338,1.2113955224591202,-0.09316316978994599,-0.974341934576164,-0.3798347503043872,-0.03080485248407377,-0.33867186358268403
-0.10794035577416115,-0.03669449825305109,0.05443151062353396,0.015909717657159442,0.10690848998051224,0.00856518541453734,0.12700965442992915,0.0,-1.793229133605957,-0.07923374176025391,0.1743142318725586,-0.36183408737182615,-0.08977920150756837,-0.3514405174255371,0.019884632342005493,1.0479744674048874,-0.10292245192286584,-0.9163607048897771,-0.38653988600903155,-0.032931506160232604,-0.3429368119739922
-0.10925927960052685,-0.037209460375928975,0.05509423821137191,0.016109434810800526,0.1082109356516277,0.008682810679561637,0.12853362837254848,0.10619572830200195,-1.9733585968017577,-0.08363561630249024,0.22097410202026366,-0.42346033096313473,-0.08744293975830078,-0.35911680603027346,0.013705101459110117,1.5261970630669268,-0.10149378086115288,-1.1032088996896252,-0.38503628076686125,-0.02270596068972633,-0.3473118010508926
-0.1105827575363264,-0.037712198649058205,0.05575846394620654,0.01631370596479238,0.10953083025193998,0.008789769801194683,0.13009744992732009,-0.020163745880126954,-2.179028804779053,-0.12501323699951172,0.3072508430480957,-0.4102547073364258,-0.08811044311523437,-0.35844930267333985,0.011133268404853486,1.325786628870337,-0.10257300037768588,-1.0309041218233133,-0.3863223859243696,-0.02503974505191382,-0.35071873554508365
-0.1119114485524355,-0.038220629313542816,0.05643101861039784,0.016522650892354912,0.11084919088237268,0.00889109641808231,0.13166013287292094,-0.10216297912597656,-2.228766044616699,-0.20952922821044923,0.2896433448791504,-0.41905845642089845,-0.08944544982910156,-0.35778179931640625,0.012340938391920537,1.131893470994886,-0.10266325774804373,-0.9588904212404542,-0.38550102121702656,-0.02877482781827206,-0.35380065543832107
-0.1132264775674923,-0.03874338127720466,0.05709614308071417,0.0167318954711334,0.11216294942863371,0.008995479106490178,0.13322874808356625,0.0,-2.0593905792236327,-0.212170352935791,0.23682085037231446,-0.47188095092773436,-0.09144795989990234,-0.36846185302734374,0.013985637659671755,0.9254133494476936,-0.10538981418949252,-0.8794092955382118,-0.38579880624977353,-0.03352332385485116,-0.35495491654525196
-0.11455714593256082,-0.03925462824860352,0.057756593777459814,0.016939342360782334,0.11346836704639947,0.009115441149216738,0.13480599198386722,-0.09006473159790039,-1.9209328575134277,-0.238581600189209,0.19632360458374024,-0.46219682693481445,-0.07642913436889648,-0.35911680603027346,0.029364753433589023,1.2926949132582033,-0.09790835267448939,-1.0222469769339098,-0.38178549263260697,-0.026638635009253377,-0.35587010136896197
-0.1158851178730181,-0.039745382327507,0.05842471432360335,0.017147268670560174,0.11479526059154517,0.00923738064998581,0.1363716710052953,0.06990098571777344,-1.9988993415832519,-0.15670673370361327,0.26763397216796875,-0.4498715782165527,-0.09511922836303711,-0.36779434967041014,0.038288062903688,1.3895711120135654,-0.09612410021695106,-1.0529544013262617,-0.38002147011962967,-0.02438200027497191,-0.356006822192824
-0.11720266354377319,-0.04023266091045438,0.059084985142352955,0.017353876711337368,0.11609713082760624,0.009346856536400232,0.13792740317715005,0.14249047088623046,-2.122570316314697,-0.060745868682861325,0.28436109542846677,-0.3829630851745605,-0.0971217384338379,-0.34676799392700197,0.03560175771021387,1.3995249726705863,-0.10500909523577717,-1.0506315323420328,-0.3844925402128691,-0.024258525614560527,-0.35610230108175606
-0.11853231340014009,-0.04073917411258952,0.05974112149427075,0.017557428789677396,0.11740782160864105,0.009437577114672724,0.1394959585011854,0.07662223434448243,-1.9357196044921876,-0.11444873809814453,0.21481147766113282,-0.42346033096313473,-0.08744293975830078,-0.34376422882080077,0.04111734954777104,1.0799298669763215,-0.104389013351807,-0.9270017933669906,-0.38715474954438084,-0.031172099934739284,-0.353744138791142
-0.11985758891598612,-0.04124838384841898,0.06040618607797712,0.01775648675427662,0.11871084236574504,0.009523563923681493,0.14106673082970309,0.07662223434448243,-1.7475246429443358,-0.11356836318969726,0.10564498901367188,-0.4252210807800293,-0.0851066780090332,-0.3317491683959961,0.039791658551529954,1.1667985206453044,-0.10579664985304549,-0.9617326109762163,-0.38690581992322226,-0.029140118446258943,-0.35065053331895213
-0.12118304409166201,-0.041740516082933075,0.0610683743590762,0.017954286336485156,0.12000015321250877,0.009606554656863059,0.14263163088886935,-0.013442497253417968,-1.8080158805847169,-0.15582635879516601,0.15406560897827148,-0.4604360771179199,-0.07943289947509766,-0.33875795364379885,0.04559920047558157,1.4693393974883449,-0.10058954289124243,-1.0826909518333898,-0.3823801374275133,-0.021495715259311383,-0.3474898205492862
-0.12251173510777111,-0.04223246843945113,0.06172780632895407,0.01815280510342859,0.12133107323223882,0.00968684896543337,0.14418832179189886,-0.010753997802734375,-1.9948665924072266,-0.13469736099243163,0.19544322967529296,-0.4023313331604004,-0.0851066780090332,-0.338424201965332,0.045854053585122206,1.5367859169842017,-0.09931147709203506,-1.1179076665864611,-0.38165853496430835,-0.019823804555816362,-0.34527909965599124
-0.12383065904321988,-0.0427376634816687,0.06239215183700862,0.018359353148512746,0.12259574456782045,0.009771337736528538,0.1457508849642798,0.018819496154785155,-2.0150303382873536,-0.1355777359008789,0.2227348518371582,-0.45251270294189455,-0.07876539611816406,-0.345099235534668,0.040671495100863375,1.1983702610390083,-0.10644537404977983,-0.9894599150462265,-0.38514147079949457,-0.02645017695033495,-0.3434796889006148
-0.1251513205630221,-0.04325106768002302,0.06305218300023531,0.01856278545363286,0.12388045350494543,0.009852590776273587,0.14730967309857174,-0.0443602409362793,-1.9827683448791504,-0.2332993507385254,0.2200937271118164,-0.4560342025756836,-0.08844419479370118,-0.3531092758178711,0.03918107488197355,1.2791273065176052,-0.10652970613675376,-1.01886483632377,-0.3880740699039219,-0.024914752641895903,-0.3443782564748277
-0.12646491153585834,-0.04375482457093695,0.06371676827289585,0.01876945338102001,0.12516995616339396,0.009938877236498308,0.14886630411499127,-0.03629474258422852,-2.2274217948913573,-0.17079273223876953,0.27819847106933593,-0.41377620697021483,-0.08176916122436523,-0.34843675231933596,0.046558407008868236,1.4641740659622953,-0.1031717159883353,-1.0933090558043326,-0.3846705186598002,-0.020768424487541483,-0.3463491437664219
-0.12777760355504672,-0.04426697038690058,0.06437901654968797,0.01898373127119509,0.12643376443366047,0.010026122427897766,0.15042389375350249,0.0053769989013671875,-2.382010513305664,-0.19016098022460937,0.38472383499145507,-0.48948844909667966,-0.07909914779663085,-0.35711429595947264,0.04825353627257156,1.1333285442818153,-0.10927580188498878,-0.9607499078152955,-0.38842950695376804,-0.028020083394547986,-0.3492712169537191
-0.12908106780031364,-0.044791400157388986,0.06504090528865418,0.019199087774847908,0.12773400488126604,0.01010593731633917,0.1519664432353508,0.17475246429443358,-2.3524370193481445,-0.08539636611938477,0.4102547073364258,-0.394407958984375,-0.10746804046630859,-0.3534430274963379,0.043323271941887134,1.063013095596043,-0.11706604394227176,-0.9310403399823737,-0.39274473411596106,-0.029311440309423804,-0.35140604341007475
-0.13038626973901707,-0.04531612936092718,0.06570746780119108,0.019406055353451013,0.12899148563486237,0.010188388851864948,0.15350000459880056,0.14786746978759766,-2.3779777641296387,-0.07307111740112304,0.38032196044921873,-0.38472383499145507,-0.0964542350769043,-0.34776924896240236,0.04595845676782567,1.2286751769580584,-0.11836669206928285,-0.9912999718370417,-0.39314830106708776,-0.027294595736232736,-0.3523144391729621
-0.13169896175820545,-0.04583762294219834,0.06636743907780782,0.019612663394228205,0.13026478570373293,0.010271858896092343,0.15503770053816524,0.057802738189697264,-2.468042495727539,-0.17959648132324219,0.36095371246337893,-0.467479076385498,-0.09745549011230469,-0.35878305435180663,0.05258519067430852,1.3442544569424753,-0.11206358090513553,-1.0408940417283026,-0.39179226999657185,-0.02443579935669087,-0.35323417058005313
-0.1330065006927773,-0.04635366367855396,0.0670288485057282,0.01981915166178548,0.13155016571995531,0.010360002932056576,0.15656335228761112,0.09140898132324218,-2.6226312141418457,-0.10036273956298827,0.48772769927978515,-0.4172977066040039,-0.10746804046630859,-0.3537767791748047,0.053991763942506606,1.2094682833071946,-0.11062762114334453,-0.9916934064347053,-0.3933116474885227,-0.026197547546389695,-0.3544130523667591
-0.13432728209488254,-0.04687234095291087,0.06769535113165513,0.020027796938132066,0.13280630414082395,0.010451742128113764,0.15807420353591703,0.06049123764038086,-2.797383678436279,-0.15582635879516601,0.5273445701599121,-0.4419482040405273,-0.10112675857543946,-0.36512433624267576,0.05194973781730662,1.1745529062809048,-0.11053341306314755,-0.9744761206972232,-0.396489090204779,-0.027914871229096465,-0.3570595260040239
-0.13564105272754864,-0.047391677307226564,0.06835568194609777,0.020237700705952415,0.134095231538751,0.010554147358479123,0.15957187209421647,0.10485147857666016,-2.7960394287109374,-0.10212348937988282,0.5519950675964356,-0.42962295532226563,-0.10947055053710937,-0.37580438995361326,0.046988482541505186,1.1283677879812208,-0.1129645579206268,-0.9630180139700181,-0.39809036433962564,-0.02840009465344214,-0.3603475557675435
-0.1369458352418162,-0.047911313312758205,0.06901331622684609,0.020449941251475028,0.1353630666326677,0.01066697885854666,0.16108416138474294,0.11426122665405274,-2.7503349380493165,-0.09948236465454101,0.5291053199768067,-0.4102547073364258,-0.11581183242797852,-0.36812810134887697,0.0423703487804259,1.1447180059641602,-0.11803840969467572,-0.9642226459624982,-0.39895890935330847,-0.028486586066898,-0.36283888006745035
-0.13826326103026831,-0.04842507704893844,0.06967969907955311,0.02065786756125287,0.1366479673814775,0.010777173820612905,0.16259944686017966,0.09813022994995117,-2.8551864166259766,-0.14174036026000977,0.5511146926879883,-0.4357855796813965,-0.10513177871704102,-0.35611304092407225,0.04154330743562431,1.1428042583638196,-0.11759677739233423,-0.9630731887465083,-0.3977916020742484,-0.0280692991316169,-0.36328723177001665
-0.13957145904479895,-0.04893758240272798,0.07034092873856053,0.020865973639943663,0.13793344321627582,0.010874725399411546,0.1641036467677893,0.11829397583007813,-2.931808650970459,-0.09860198974609374,0.5704829406738281,-0.4269818305969238,-0.10212801361083984,-0.34176171875,0.04854180216028782,1.210846120378177,-0.11408667387287698,-0.9892363670156339,-0.39518331034741805,-0.027242445088122017,-0.36154316768830425
-0.14088055590389437,-0.049450567176646434,0.07099352970791226,0.021081090488073564,0.13920329172201765,0.010966944015597639,0.16560940470900556,0.04973723983764648,-2.8901369094848635,-0.1382188606262207,0.5748848152160645,-0.4454697036743164,-0.09445172500610352,-0.35678054428100586,0.05378778595869914,1.1106366638946017,-0.1155328982054338,-0.9516931889950394,-0.39669257188558266,-0.029143900501340622,-0.3583314613485948
-0.14219288838525684,-0.04995905783682408,0.07165733590922793,0.021299922487682494,0.14048963044759813,0.011056346324869484,0.16711054876326112,0.11426122665405274,-2.8605634155273436,-0.1329366111755371,0.5484735679626465,-0.4710005760192871,-0.1071342887878418,-0.36579183959960937,0.06633118126534522,1.1605536339451696,-0.10993978857667229,-0.9652953911817204,-0.39531030462364736,-0.02906203441987037,-0.357648450658627
-0.1434950942481331,-0.0504541860380823,0.07232132187945657,0.021511024533117415,0.1417810505247629,0.011146287940880194,0.16864920343380052,0.10619572830200195,-2.97751314163208,-0.12237211227416991,0.6277073097229003,-0.4604360771179199,-0.10947055053710937,-0.363121826171875,0.07699101757489955,1.2748917379676432,-0.10473697172233762,-1.0133807337947176,-0.3949950697168342,-0.025308150900084526,-0.35783604065537417
-0.1447978994134412,-0.050950992155250154,0.07297038746624222,0.021721647376589586,0.14307333349270984,0.011239225523635031,0.17019319106695247,0.0013442497253417969,-3.0796761207580565,-0.18311798095703125,0.6726064300537109,-0.45427345275878905,-0.0964542350769043,-0.35511178588867187,0.07644077829586411,1.3368694137084391,-0.10539999392069195,-1.0329756351965544,-0.39764259861118073,-0.025230091245751925,-0.35806221578584235
-0.14609519173814078,-0.05144324416298417,0.07363401400772802,0.02192795576615083,0.14434787972666632,0.01134127121617448,0.17172645277918627,0.06317973709106445,-3.1737736015319826,-0.16815160751342773,0.6646830558776855,-0.4789239501953125,-0.10079300689697265,-0.3557792892456055,0.07919363836671559,1.2044974617421869,-0.10452620473464948,-0.9804431256900324,-0.3991305111534353,-0.027849073438148617,-0.3561194114330879
-0.14739224440731744,-0.05194190774680846,0.0742934459776059,0.022138338845017008,0.14564246373669912,0.011443017257497976,0.1732533628019398,0.05376998901367187,-3.090430118560791,-0.11444873809814453,0.6391521835327149,-0.4146565818786621,-0.1078017921447754,-0.35444428253173826,0.06832299707407166,1.0594834777486524,-0.11119192191339185,-0.9275626761761858,-0.40434680606017104,-0.02970191498177434,-0.35569386497941136
-0.14868030884901245,-0.05244548486880943,0.07493627975721422,0.022346504810317764,0.1469303364321592,0.011540928374122527,0.17480082593104784,0.1330807228088379,-2.911644905090332,-0.08187486648559571,0.5784063148498535,-0.4155369567871094,-0.1078017921447754,-0.3641230812072754,0.05323147222074987,1.078335467153506,-0.11546884550504102,-0.9348267528295252,-0.40653005068334985,-0.02923861095509255,-0.3576777099159106
-0.1499694520132683,-0.052942290876894206,0.07559001922665363,0.02255299296879196,0.14819088512551468,0.011622421178473568,0.17634469368189679,0.07796648406982422,-2.8215801734924315,-0.12501323699951172,0.5352679443359375,-0.43138370513916013,-0.09678798675537109,-0.37413563156127927,0.04982244067017416,1.213789906261136,-0.1130713825187292,-0.988986594626414,-0.406167142047355,-0.02567444536933389,-0.3620669587654299
-0.15126476687992535,-0.05342801153531802,0.0762484325787468,0.02275846250948146,0.14947894963265956,0.01169600425973765,0.17787711654525887,0.01747524642944336,-2.9170219039916994,-0.15934785842895507,0.5784063148498535,-0.45691457748413083,-0.09311671829223633,-0.3751368865966797,0.0518176307355277,1.3742217583462424,-0.10798230675610597,-1.049676434291708,-0.4019326183802532,-0.02208340269304513,-0.3663867628237177
-0.15255223223735462,-0.05392212111879154,0.07689498150983416,0.022965549970387564,0.15073997776796058,0.011763235760604488,0.17939473879839787,0.11291697692871094,-2.950628147125244,-0.12589361190795897,0.5916119384765625,-0.4357855796813965,-0.0954529800415039,-0.37246687316894533,0.05503875865401377,1.3161439052636987,-0.10967157256770255,-1.029254677660655,-0.40177003927145316,-0.022789277653066972,-0.3686255444696817
-0.153853778911189,-0.05442917373674862,0.07754308836544507,0.02317641236029957,0.1520289049913547,0.011829568525989629,0.1809254838549334,-0.0013442497253417969,-2.8551864166259766,-0.18487873077392578,0.5731240653991699,-0.4454697036743164,-0.08977920150756837,-0.3654580879211426,0.059576362279724855,1.1638257053171375,-0.10916047747374158,-0.9624595728722829,-0.4028424861764017,-0.026781023801941917,-0.3687933852916982
-0.15514855458019028,-0.054923822626961015,0.07819574922140675,0.02339146932181951,0.15331677786134773,0.01189985598929363,0.18246593610551928,0.061835487365722655,-2.9035794067382814,-0.2377012252807617,0.5722436904907227,-0.5176604461669921,-0.10246176528930664,-0.3734681282043457,0.07271211361893778,1.4108260643054258,-0.10322572115238962,-1.0533654836728903,-0.3965319429298115,-0.021580960738098835,-0.36807999067794095
-0.15643428213509997,-0.05540852455851705,0.07884097988349346,0.0236047285942099,0.15457358736131374,0.011971222066075366,0.18399925781344614,0.0053769989013671875,-3.1011841163635254,-0.15846748352050782,0.7263092994689941,-0.4225799560546875,-0.10079300689697265,-0.3654580879211426,0.0818166169481629,1.629715411481604,-0.10517863165378308,-1.1330197913883338,-0.39508091864876393,-0.017434116211117123,-0.3676783490997966
-0.15773193399762542,-0.05590161552420588,0.07948339423866592,0.023814452484034215,0.15586874663186798,0.012038573340162123,0.1855209547558901,0.04973723983764648,-3.2893790779113767,-0.21921335220336913,0.7175055503845215,-0.4833258247375488,-0.11047180557250977,-0.3711318664550781,0.08833992291496741,1.3822234805840745,-0.10490777544323297,-1.0311853354572853,-0.3938766518410273,-0.022609700655021516,-0.3670532341414759
-0.15902383347310248,-0.056410525608819394,0.08013449727918712,0.024023157756073835,0.15712804898560462,0.012109040572379081,0.18703677942898264,0.06317973709106445,-3.2813135795593262,-0.17783573150634766,0.7210270500183106,-0.43930707931518553,-0.10846929550170899,-0.35678054428100586,0.0863683120572387,1.049980107315008,-0.1116203306111415,-0.9054184009059326,-0.39661838527041815,-0.028673972416015766,-0.3659552441979054
-0.16031848925980074,-0.05691272457520976,0.08078098621458142,0.024236896448593132,0.15839751386797685,0.012180766186986727,0.1885499076774639,0.09678598022460938,-3.366001312255859,-0.11708986282348632,0.7351130485534668,-0.4146565818786621,-0.10346302032470703,-0.35878305435180663,0.08114588215131284,1.2641309266028895,-0.1145678384325447,-0.9877559730718866,-0.3970416467367056,-0.023351146164192888,-0.3641972703407831
-0.16161062839080073,-0.0574060551964215,0.08142441929662166,0.024455069259160196,0.1596819351748411,0.012248477107982473,0.19004583854232682,0.09544173049926757,-3.4641315422058105,-0.14790298461914062,0.762404670715332,-0.41201545715332033,-0.10012550354003906,-0.34676799392700197,0.08385202660281432,1.3284090300673843,-0.11232108701152818,-1.0214792903322814,-0.3942753759865431,-0.02158972605191598,-0.3632332582205538
-0.16290114971066716,-0.057897168704067824,0.08207486303901791,0.02467527941437973,0.16092052884793698,0.01231109461280551,0.19154152975166683,0.06721248626708984,-3.571671520233154,-0.18575910568237305,0.8742122840881348,-0.47012020111083985,-0.11647933578491211,-0.34843675231933596,0.0801764023165624,1.1908370812802018,-0.11693490709530971,-0.9647759668381538,-0.39607647627497106,-0.02377280589554455,-0.3600860849821913
-0.16418238315183606,-0.05840374190189599,0.0827213520834953,0.024890096611293676,0.1621951709004694,0.012373592344408626,0.1930394979611822,-0.028229244232177736,-3.4587545433044435,-0.22713672637939453,0.7967392921447753,-0.4789239501953125,-0.10880304718017578,-0.3547780342102051,0.08220114496976805,1.1029516174657814,-0.11679046607853452,-0.932325754569508,-0.39816778284599014,-0.026276165928912274,-0.3573015973064175
-0.165456006630217,-0.058908277755071695,0.08336951893479926,0.025106531728424225,0.16345111768418613,0.012438846496316033,0.19454945036492333,0.0013442497253417969,-3.3108870735168456,-0.24738534927368164,0.7210270500183106,-0.5009333229064942,-0.10012550354003906,-0.36679309463500975,0.0944436388742127,1.2799958208201,-0.11188296681083079,-0.9973295651135974,-0.3958310721507749,-0.023736581737382675,-0.3567374052604248
-0.1667385584494696,-0.05939657495580377,0.08401582810128062,0.025320989387512264,0.1647074480912725,0.012508834308404083,0.1960688703071919,0.10485147857666016,-3.308198574066162,-0.16198898315429688,0.7738495445251464,-0.4577949523925781,-0.11881559753417968,-0.3607855644226074,0.09967652350301902,1.4471483419865996,-0.11195503492877856,-1.0576668504648985,-0.3976296605519834,-0.019761868970295676,-0.3577276572342637
-0.16800151600262547,-0.05988031826526815,0.08466141830119324,0.025540840004905883,0.16598534989524885,0.01258451473001367,0.1975536558267008,0.19760470962524415,-3.461443042755127,-0.0871571159362793,0.8301935386657715,-0.45515382766723633,-0.12649188613891602,-0.37246687316894533,0.09671390256590899,1.4850055493238659,-0.11587701840110697,-1.0646749815719656,-0.3999961616340542,-0.019466991230015877,-0.3598588565142818
-0.16927148432522043,-0.060381977924919644,0.08529772073149136,0.02575457869742518,0.16723535243659915,0.012672239232458958,0.19902076465154553,0.1666869659423828,-3.4520332946777343,-0.12853473663330078,0.8504421615600586,-0.45691457748413083,-0.12048435592651367,-0.38314692687988283,0.08780839583601002,1.2610867992511867,-0.12332537908546234,-0.9788659326242636,-0.4047709778191308,-0.024634222381986995,-0.36334959076174667
-0.17055008122838802,-0.06089052847170725,0.08592221873647671,0.025964302587249497,0.16851411730589064,0.012762660268598576,0.20049548343917817,0.04973723983764648,-3.4036403045654295,-0.17343385696411132,0.7430364227294922,-0.46307720184326173,-0.09945800018310547,-0.38081066513061523,0.09105051000255428,1.2076942035518035,-0.1212504884544009,-0.9531942135325736,-0.405174079546067,-0.026690261476135034,-0.36755375966512244
-0.17181597486167804,-0.06138044359265592,0.08654839443920553,0.02618169643555478,0.16978358218826287,0.012854759002481673,0.2019814674544678,0.02150799560546875,-3.534032527923584,-0.21393110275268554,0.7923374176025391,-0.49653144836425783,-0.11514432907104492,-0.38648444366455076,0.09667898670841418,1.4646499588527784,-0.11609787212040489,-1.0607925421023152,-0.401152541469637,-0.020180164449286418,-0.37076292097653996
-0.17309990483654125,-0.061869220213516894,0.08718313894498009,0.02640676024234103,0.17104096712328326,0.012940086731531658,0.2034469583590959,-0.01747524642944336,-3.7410469856262205,-0.23682085037231446,0.9199917793273925,-0.48948844909667966,-0.10947055053710937,-0.3734681282043457,0.09899241719962165,1.465263836345529,-0.11513249978923816,-1.0617243021812441,-0.4011402585382383,-0.020593840115682265,-0.37276853950402
-0.1743788013909248,-0.06236806356625414,0.08781602587501515,0.026630505671043556,0.1723122536057958,0.013019122657711282,0.20491526557063827,0.022852245330810546,-3.767931980133057,-0.1919217300415039,0.9235132789611816,-0.4604360771179199,-0.10112675857543946,-0.38982196044921874,0.09460968331974004,1.2138833115054515,-0.12008067320598963,-0.9652003094369849,-0.4042809437911781,-0.024682133190995336,-0.3748426944648148
-0.17565266463391174,-0.06287170057486507,0.08844280088017588,0.02685029640182722,0.1735802805113973,0.013088271620927594,0.2063773410840864,0.03629474258422852,-3.7840629768371583,-0.20072547912597655,0.914709529876709,-0.4665987014770508,-0.10112675857543946,-0.402504524230957,0.09082961893086887,1.2381298040392184,-0.12509161554500203,-0.9739259895327437,-0.4058243150767523,-0.023811561134407067,-0.37959865467519655
-0.17692335192307546,-0.06336545072959576,0.0890801219282587,0.027072364023703187,0.17484389714451193,0.013149331201227068,0.20785307848950374,0.10619572830200195,-3.9413401947021485,-0.19632360458374024,0.9754553985595703,-0.48948844909667966,-0.11080555725097656,-0.40050201416015624,0.09646828434920861,1.358230201613795,-0.12204944942858459,-1.022632470748848,-0.4026731540049099,-0.020435452189379144,-0.3837787449044337
-0.17819817389723713,-0.06385464677489261,0.08972181720777933,0.02729305359905163,0.17609744706756694,0.013205357470129946,0.20932216466330789,0.09006473159790039,-4.215567138671875,-0.14966373443603515,1.1145546340942383,-0.45427345275878905,-0.1288281478881836,-0.39282572555541995,0.10329060652604301,1.326866028264725,-0.12081645261025173,-1.013272092768106,-0.40460065406504453,-0.020281904159070763,-0.3881030732723721
-0.17947011956879153,-0.064349175782802,0.09034775325498524,0.02751883637240662,0.1773555030816847,0.013262522239120517,0.2107845997145819,0.1290479736328125,-4.362090358734131,-0.17519460678100585,1.1576930046081544,-0.4745220756530762,-0.12215311431884765,-0.39015571212768557,0.10248284446371607,1.059915357506397,-0.12339838102378502,-0.9006672806939855,-0.41000014547498975,-0.026351118576744142,-0.38986073496549684
-0.18073187873524973,-0.06485029613571464,0.09098645256776175,0.02774336076337093,0.17857760636040898,0.013320945390501776,0.2122560227751714,0.18416221237182617,-4.281435375213623,-0.09860198974609374,1.1427266311645508,-0.42169958114624023,-0.12649188613891602,-0.39382698059082033,0.10693836171879532,1.0282251255106483,-0.12498706958001854,-0.8895534642749172,-0.4136063212038798,-0.026834050312832508,-0.39062623542691305
-0.18200682048263134,-0.06534776133284127,0.09163084438097671,0.02796411022532933,0.17978302778214267,0.013383622891017848,0.21377987694457082,0.14517897033691407,-4.173895397186279,-0.18135723114013672,1.0960667610168457,-0.5132585716247559,-0.12415562438964843,-0.40116951751708985,0.11365509366993073,1.0577885035697676,-0.11919093051154814,-0.8997451603611585,-0.41269969095750897,-0.026554326753994318,-0.39206615785536486
-0.1832578537281714,-0.06583252326009034,0.09226001615953273,0.028186537494114285,0.18101030823102712,0.013460202048109134,0.21528982934831192,0.13039222335815429,-4.269337127685547,-0.10916648864746094,1.11719575881958,-0.42081920623779295,-0.12515687942504883,-0.387819450378418,0.11290179016639712,1.1596619742037562,-0.117944095080195,-0.9356191321085622,-0.41361418887079826,-0.02389326146004801,-0.39342795119166535
-0.1845185342811519,-0.06632016138086363,0.09289224390052593,0.028406807535943778,0.18220882652650333,0.013541395201244222,0.21678024748164934,0.21911270523071288,-4.302943370819092,-0.10828611373901367,1.1576930046081544,-0.48068470001220703,-0.1385069465637207,-0.38915445709228513,0.10878839143478836,1.1593000904372146,-0.12181135336425308,-0.9345733883539011,-0.4141920390645628,-0.024717387304648487,-0.39236586615386976
-0.18578149183430773,-0.06681067569516112,0.09353130275112835,0.028626178733208493,0.1834409006967113,0.013614438975769437,0.2182691076904632,0.08737623214721679,-4.245140632629394,-0.1787161064147949,1.0758181381225587,-0.45251270294189455,-0.12015060424804687,-0.37980941009521485,0.10120682167045553,1.0843138704557465,-0.12393789890070693,-0.905059826318572,-0.41622963555869036,-0.0261517829315335,-0.3899802371847155
-0.18702707223493228,-0.06730113001376559,0.09416311106768567,0.028844890850514424,0.18467623461836322,0.01368310862793992,0.21977342748037582,-0.024196495056152345,-4.124158157348633,-0.23506010055541993,1.0722966384887695,-0.5053351974487305,-0.1174805908203125,-0.38815320205688475,0.10096460544543637,1.060316324080082,-0.12244679244635064,-0.8960127127502509,-0.4131281535910711,-0.02655892451887043,-0.38727736141673436
-0.18827708675360458,-0.06778379470975224,0.09478820826601984,0.02906372274104027,0.18588194349582474,0.01374027339693049,0.2212716353454141,-0.03898324203491211,-4.108027160644531,-0.25971059799194335,1.0221152687072754,-0.4991725730895996,-0.09879049682617187,-0.3874856986999512,0.1086429903515486,1.334078375226888,-0.11645436884333907,-1.0003724853315261,-0.40636567678935187,-0.021484125284078663,-0.3853462099511467
-0.18952572322574934,-0.06826909594374019,0.09542241346505555,0.029280996816125636,0.18712092061775726,0.013789708320830135,0.2227516870956593,0.13980197143554687,-4.133567905426025,-0.12941511154174803,1.0811003875732421,-0.4710005760192871,-0.12081810760498046,-0.39149071884155273,0.10744604592519452,1.2665811007950696,-0.11833445883327193,-0.9779640845399274,-0.405425699616136,-0.02215222814023142,-0.3853335940958997
-0.19077783497568407,-0.06875229983738261,0.09605679832392112,0.029498210895517966,0.18833545004019248,0.013837105900077308,0.22423779099325195,0.1774409637451172,-4.233042385101318,-0.11797023773193359,1.0758181381225587,-0.43402482986450197,-0.11547808074951171,-0.40283827590942384,0.10240246866359284,1.2597033538919946,-0.12107288772824681,-0.9786266205207012,-0.40535650491510733,-0.02143964721615561,-0.38738056400551146
-0.1920270706411777,-0.06923688199571874,0.09668015782881877,0.029718960248393288,0.18955017092524665,0.01388588174401817,0.22571622482328052,0.2258339538574219,-4.255894630432129,-0.07483186721801757,1.1409658813476562,-0.45427345275878905,-0.1284943962097168,-0.4071770477294922,0.105946798693592,1.2008979950609249,-0.12069659020190944,-0.9552781947318512,-0.4065605931370655,-0.02165317833215183,-0.3929438488696034
-0.19328277766028845,-0.06972535896536376,0.09731112729650435,0.029943724403963586,0.19079346250109014,0.013933219436655384,0.2271605636463714,0.19088346099853515,-4.261271629333496,-0.09684123992919921,1.0925452613830566,-0.41377620697021483,-0.10846929550170899,-0.41018081283569335,0.11221357350819759,1.272765411503734,-0.12005705976122345,-0.9796042626513395,-0.4076394977924621,-0.02189163000597633,-0.3980496387180327
-0.1945333315947827,-0.07020898239252515,0.09793946011710557,0.030172263597622873,0.191995528178271,0.013977381284552441,0.22860915681859711,0.15458871841430663,-4.3284841156005855,-0.19280210494995118,1.1876257514953612,-0.4991725730895996,-0.12115185928344727,-0.42319712829589845,0.11699385448066572,1.2805507942358973,-0.12020433502202958,-0.985487585793118,-0.4082013258767281,-0.020987119702705583,-0.4035448374225612
-0.19577501707501524,-0.07068895055481747,0.09856491685326564,0.030396967866583212,0.19322232918520993,0.014024299552753788,0.23005229714590728,0.1290479736328125,-4.430647094726562,-0.17079273223876953,1.1920276260375977,-0.4692398262023926,-0.13516942977905275,-0.40951330947875975,0.12781309985344128,1.4320619933370053,-0.11592254695908984,-1.0350655888008382,-0.40833751225886616,-0.018794555675899924,-0.4067678141794062
-0.1970288067408596,-0.07117149536850112,0.099185639820162,0.03061933513967513,0.1944491303666818,0.014076311018961687,0.23151233531470292,0.10888422775268555,-4.5153348274230956,-0.20424697875976563,1.1902668762207032,-0.49741182327270506,-0.11380932235717774,-0.4098470611572266,0.12036675972570832,1.2831701434242733,-0.11898058020372115,-0.9861365072039198,-0.40970442813970026,-0.021229125414881603,-0.40794227043718634
-0.1982761847215306,-0.07165727602261797,0.09981547078775989,0.03084571710637895,0.19565215475322079,0.014129161443124406,0.23298819260242323,0.0416717414855957,-4.460220588684082,-0.2377012252807617,1.1841042518615723,-0.47980432510375975,-0.11314181900024414,-0.4155208396911621,0.12642509431164203,1.1785033599894552,-0.11704669427233147,-0.9424634376362453,-0.40939838336182727,-0.024329954129828937,-0.40884362441658145
-0.19952476119798235,-0.07214593276117595,0.1004411670703598,0.03106844391729678,0.19688240749782138,0.014182850825241943,0.2344461334308734,0.09006473159790039,-4.452155090332031,-0.18311798095703125,1.1594537544250487,-0.4692398262023926,-0.12448937606811523,-0.41418583297729494,0.12390585071506009,1.3011510616697721,-0.11884613945233485,-0.9973437205267438,-0.408418091370698,-0.021796119630894836,-0.4097251047447611
-0.20077094090103878,-0.07262985573047022,0.10106260911290799,0.031294526341867725,0.19809492333389858,0.014234802404839883,0.23589952036805584,0.18012946319580078,-4.518023326873779,-0.14526185989379883,1.206113624572754,-0.4683594512939453,-0.12148561096191406,-0.4148533363342285,0.1188394013507426,1.2576627054067602,-0.12224768077633018,-0.9821535776467634,-0.4096114097358062,-0.02233593086020859,-0.41011151264941714
-0.20201472361253378,-0.07310598896806358,0.1016910618158122,0.031518271770570254,0.1993054259326836,0.014289989824871023,0.2373659700038587,0.06721248626708984,-4.708906787872315,-0.17783573150634766,1.2950314903259277,-0.4498715782165527,-0.12482312774658202,-0.4038395309448242,0.1300724359326853,1.3843420134923232,-0.11725452548063027,-1.0305535898638876,-0.40783519556067527,-0.02012097071020103,-0.4105141204463285
-0.2032442452387107,-0.07358955250861501,0.10231304316509923,0.031741957421745896,0.2005269539508864,0.014343978749121434,0.23880946997807784,0.1317364730834961,-4.747890029907227,-0.21657222747802735,1.3152801132202148,-0.5114978218078613,-0.12682563781738282,-0.407510799407959,0.1311197918064743,1.242839876292937,-0.11983007157631732,-0.9701511672456389,-0.4087285403571041,-0.024023128771409014,-0.4103487042985079
-0.20447083056658732,-0.07408474070556627,0.10293975817456692,0.031972174313148666,0.20172537660231962,0.014397188711110063,0.2402345740728979,0.10619572830200195,-4.5919570617675785,-0.17167310714721679,1.2184388732910156,-0.46219682693481445,-0.12048435592651367,-0.41184957122802734,0.1424356151583431,1.1471204984544803,-0.11967996995136362,-0.9278917017413362,-0.4091759878139046,-0.028135193507469364,-0.4103169156865132
-0.2057113177692053,-0.07456464898124864,0.10356197917937689,0.03220287062468034,0.20294028929905858,0.014445545021531975,0.24167609647999144,0.1760967140197754,-4.557006568908691,-0.18135723114013672,1.236046371459961,-0.4868473243713379,-0.13149816131591796,-0.41418583297729494,0.13939435702806588,1.3460868544965212,-0.11943734418329703,-1.0144679979622468,-0.40781643229370623,-0.022004240150945504,-0.41082718910369936
-0.20693143163438166,-0.07503425076044873,0.10418593776854028,0.032433567045295084,0.20415376401902682,0.014491564445168543,0.24311012891568315,0.1626542167663574,-4.75729977798462,-0.1408599853515625,1.3460932350158692,-0.4868473243713379,-0.13350067138671876,-0.405842041015625,0.14140525972852744,1.562922577411775,-0.1186580862155395,-1.083582322339586,-0.4056661998591615,-0.019186645311780607,-0.41004315742327013
-0.20816047384042968,-0.07551176226273579,0.10481415081592158,0.032661926360958334,0.20537030667875422,0.014540579944632316,0.24453613174598487,0.10619572830200195,-4.945494739532471,-0.20336660385131836,1.3328876113891601,-0.4745220756530762,-0.12015060424804687,-0.4055082893371582,0.13491670411741236,1.2948261158487122,-0.12125875810936056,-0.987220606095626,-0.40711141533163453,-0.023557985085297207,-0.4093904847128785
-0.2093865199706505,-0.07600431392168575,0.10543571274077275,0.03289400093718369,0.20658013802390893,0.014589655330706051,0.24594991083562104,0.20029320907592774,-4.882315002441406,-0.13733848571777343,1.389231605529785,-0.4692398262023926,-0.1405094566345215,-0.41184957122802734,0.12398921728162533,0.9626121509128024,-0.12937086421267427,-0.8595695169147006,-0.412025399400051,-0.02921964138691512,-0.4095046676559926
-0.21061160736969659,-0.076477211427929,0.10605272055619008,0.0331246373621054,0.2077877644946196,0.014643704141566419,0.2473807673174895,0.1680312156677246,-4.999264728546143,-0.1302954864501953,1.3865904808044434,-0.4577949523925781,-0.1381731948852539,-0.4165220947265625,0.12751540614058124,1.5168715256334457,-0.12329273071703184,-1.0760711755566965,-0.4085542234818615,-0.017876992504149408,-0.4106173241526724
-0.21183525661743904,-0.07693710601307875,0.10667607995200465,0.033356112635898855,0.20901792124611132,0.014699730410469299,0.24880437337439595,0.2123914566040039,-5.223754432678223,-0.1611086082458496,1.4869532203674316,-0.4850865745544434,-0.14618323516845702,-0.42820340347290037,0.12520773526904508,1.3997625803314433,-0.12179689076591839,-1.0394996196673143,-0.4084262138608319,-0.018978843442990095,-0.4136410526148819
-0.21306369963013824,-0.07739610186274679,0.1073014766924717,0.03358561056073288,0.21022305486305137,0.014754917830500437,0.25022078900203343,0.18012946319580078,-5.323228912353516,-0.10388423919677735,1.5397757148742675,-0.43842670440673825,-0.14284571838378907,-0.41919210815429686,0.1255543505872275,1.2799985773603928,-0.12561999973624505,-0.9860485617370225,-0.41157355612232144,-0.022495925888830957,-0.4165192798631365
-0.2142885473736614,-0.07786851994886114,0.10791171350305591,0.033811932640826735,0.21142981826844692,0.014818673835411163,0.25163948152076315,0.07796648406982422,-5.2398854293823245,-0.21921335220336913,1.4790298461914062,-0.49741182327270506,-0.12315436935424805,-0.4245321350097656,0.12944709982675878,1.0746992914970677,-0.12635597220758701,-0.9062874264617926,-0.4144751012513488,-0.027750930338309734,-0.41911921454787343
-0.21550326838961528,-0.0783474096067588,0.1085339343987828,0.034041490452270715,0.21264779907947798,0.014881471218230233,0.2530872957307271,0.15324446868896485,-4.995231979370117,-0.19544322967529296,1.3716241073608397,-0.4947706985473633,-0.13583693313598633,-0.42252962493896484,0.13882407996299428,1.0022793516455977,-0.12673175053146601,-0.8758898656071414,-0.4155123267564993,-0.030513256242902704,-0.4208049395152334
-0.21673111209988258,-0.07880676499425275,0.10915873194590102,0.03427368480171599,0.21384066093738138,0.014950620181446545,0.2545229459775523,0.22717820358276367,-4.903822998046875,-0.12501323699951172,1.3733848571777343,-0.4665987014770508,-0.1274931411743164,-0.4258671417236328,0.1404050717494616,1.330040658208453,-0.12417362298402455,-1.0044094516082036,-0.4137709202602823,-0.023570068072054095,-0.42219071524768914
-0.21794894907396664,-0.07926186592352881,0.10977124575666061,0.03450563949563835,0.21507714538007625,0.014970334220763212,0.25594103930293327,0.17878521347045898,-4.905167247772217,-0.1487833595275879,1.3707437324523926,-0.48068470001220703,-0.11948310089111328,-0.4278696517944336,0.14951471627971183,1.4532118270049066,-0.1161870947355143,-1.0438825223214399,-0.4134352917189511,-0.02094161322042888,-0.42363070316456175
-0.21916882328362008,-0.07972212004650446,0.11038489795842484,0.03473339972703585,0.21629081173719636,0.014975846952288714,0.25736979855353925,0.2123914566040039,-4.903822998046875,-0.13205623626708984,1.3637007331848143,-0.46219682693481445,-0.13083065795898438,-0.41285082626342773,0.1472581766335628,1.2737370785141067,-0.11857860943928868,-0.9739491753470324,-0.416158476652576,-0.02250937137779571,-0.4231563232053014
-0.22038318487083114,-0.08019333974592116,0.11100520150088532,0.034962178576218056,0.21747523667349564,0.01498393633520555,0.25880652741384225,0.20298170852661132,-4.827200763702392,-0.15494598388671874,1.3672222328186034,-0.48860807418823243,-0.1288281478881836,-0.4031720275878906,0.14660159702679676,1.2581683578962317,-0.11745506990679427,-0.9666847727216119,-0.41687838616087386,-0.021842112530547946,-0.41957303922119543
-0.22159568877321956,-0.08066437978550799,0.11162448631647803,0.03519089742970721,0.21870117496418529,0.014993523646952911,0.2602373240091007,0.15190021896362305,-4.84736450958252,-0.12413286209106446,1.3346483612060547,-0.450751953125,-0.11314181900024414,-0.3981657524108887,0.15622000071856085,1.563676291760319,-0.10985301355214284,-1.0835724864361875,-0.41219147786658417,-0.01624520797380419,-0.4146729634993671
-0.22279483032577166,-0.0811225366772212,0.11222950982858654,0.03541799847206285,0.21988914710765634,0.015006826219262378,0.26166386614614134,0.1814737129211426,-5.039592220306396,-0.14438148498535155,1.4094802284240722,-0.48860807418823243,-0.13183191299438476,-0.4088458061218262,0.15432661970135236,1.5960603839164458,-0.10939390801365988,-1.1027514645184473,-0.4111325402263853,-0.013558545968842215,-0.41098235256083987
-0.22399582945406327,-0.08158207172454504,0.11284717683304574,0.03564827535915866,0.22108526871700368,0.015022525564967146,0.2630987973173147,0.1371134719848633,-5.29634391784668,-0.14966373443603515,1.5300915908813477,-0.4613164520263672,-0.13550318145751952,-0.4051745376586914,0.15805423233723573,1.4711147166674663,-0.10919551932970722,-1.0509797692171086,-0.41283768689966593,-0.015350956774035085,-0.40877222651022715
-0.22520863300766766,-0.08205502922648132,0.11345543618558744,0.03588023005308102,0.22228790965470605,0.015040262146241302,0.26452557921896136,0.19894895935058593,-5.364900653839111,-0.16991235733032226,1.5195270919799804,-0.477163200378418,-0.1288281478881836,-0.41118206787109374,0.14876463118927014,1.2472246060721772,-0.11496437596809637,-0.9656403168279741,-0.41443346260589053,-0.02031062070858935,-0.4087886077103283
-0.22640369987091483,-0.08253110257746474,0.11403451385120197,0.036113023595875114,0.2234213296125438,0.015058238492121453,0.26593851935064267,0.1626542167663574,-5.37834315109253,-0.18311798095703125,1.5432972145080566,-0.510617446899414,-0.13216566467285157,-0.4121833229064941,0.147354298594262,1.2048301778661203,-0.11794280447406832,-0.9497675531900269,-0.41659424717258997,-0.021358931365701272,-0.4090282181152034
-0.22760781495733662,-0.08299662977644298,0.11462042262642572,0.036351389865887755,0.22458351189832274,0.015076754144740469,0.2673554741759359,0.06317973709106445,-5.581324859619141,-0.21657222747802735,1.6031627082824706,-0.5352679443359375,-0.13149816131591796,-0.41752334976196287,0.1527229674368754,1.3673814084210996,-0.11355928187931678,-1.0134823306930094,-0.4168879157463294,-0.017508493081115926,-0.40883223881142583
-0.2288072560520216,-0.08345886124837806,0.1152169374402646,0.03659502921190298,0.22575298041012998,0.015096048759621268,0.2687773425394059,0.17475246429443358,-5.830011058807373,-0.16551048278808594,1.720252571105957,-0.5026940727233886,-0.1371719398498535,-0.405842041015625,0.15309631828957293,1.2501433018982393,-0.11487226905275229,-0.9672559240799258,-0.42043402946430763,-0.020248939074220006,-0.4087641431828396
-0.23000849483583613,-0.08392678532983468,0.1158097970983175,0.03683501329304914,0.2268936869430619,0.015118099685723276,0.27018303224612517,0.11157272720336914,-5.918731540679931,-0.16551048278808594,1.7818788146972655,-0.4842061996459961,-0.13350067138671876,-0.4055082893371582,0.14538839116219537,1.0939151891709635,-0.12050489966641019,-0.9109531937908582,-0.42559349190183593,-0.02312267728554242,-0.4082497398388895
-0.23120038596342618,-0.08440160029842741,0.11639738357128472,0.03707457794975943,0.22806746990878007,0.015138712569604721,0.27156655103535643,0.2204569549560547,-5.842109306335449,-0.12061136245727538,1.7343385696411133,-0.4745220756530762,-0.14685073852539063,-0.4171895980834961,0.14449630705945302,0.9624715424813878,-0.12112582056713485,-0.8591065231117114,-0.4268393980919069,-0.025841599196042273,-0.40888813172881033
-0.23240018659593706,-0.08487431814484078,0.11699359884299074,0.03731186560629434,0.22923693842058732,0.015158246840008433,0.2729586386276334,0.24734194946289062,-5.748011825561523,-0.12413286209106446,1.6841571998596192,-0.4481108283996582,-0.14284571838378907,-0.4151870880126953,0.14126882153854617,0.9876994853207133,-0.12538902088045167,-0.868758242987097,-0.42865659145534885,-0.025417748678024904,-0.4105901339007673
-0.23359693126601078,-0.08533229526764105,0.11758849573661302,0.037545258342437264,0.23039202594295688,0.015175564105929799,0.2743675640657029,0.18550646209716798,-5.844797805786133,-0.20424697875976563,1.7378600692749022,-0.5238230705261231,-0.15319202041625976,-0.4251996383666992,0.14477791198522577,1.2402974573982717,-0.12333810053184158,-0.9678642791800611,-0.4263510712014966,-0.020013011019996415,-0.4124183005534246
-0.23478307000655244,-0.08579728315988043,0.11817895851218753,0.037779729692057916,0.23155967302915675,0.015191383224854483,0.2757513226195401,0.19626045989990235,-5.866305801391602,-0.16991235733032226,1.7193721961975097,-0.4815650749206543,-0.14618323516845702,-0.41985961151123047,0.14907771057338867,1.0613353281988698,-0.1281420766730734,-0.8942058525279358,-0.4289187124205773,-0.024409783443633582,-0.41476763092948504
-0.23597328321823288,-0.08626059335437632,0.118769481174372,0.038016418155244,0.232715144000363,0.015209479453037631,0.2771259730635927,0.09947447967529296,-5.778929569244385,-0.268514347076416,1.720252571105957,-0.5220623207092285,-0.13783944320678712,-0.4205271148681641,0.15290592841346623,1.1176529278614267,-0.1272862933328883,-0.9175103163827407,-0.42769197273369514,-0.02400240934006863,-0.4159478691793957
-0.23716337676577648,-0.0867214466707008,0.11936857253051915,0.03825244742938822,0.23386831410401632,0.015226796609875918,0.27851686226917205,0.11291697692871094,-5.714405582427979,-0.238581600189209,1.6929609489440918,-0.5220623207092285,-0.14718449020385743,-0.4071770477294922,0.16612833056633275,1.190467823341677,-0.12465771540727015,-0.9369963703326535,-0.4258482779561637,-0.02348521510849802,-0.41509352919273107
-0.23835227170845627,-0.08718385802063192,0.11996304999970556,0.03848769785035373,0.2350353857551618,0.015242196413447812,0.2798873781373098,0.18819496154785156,-5.62568510055542,-0.18047685623168946,1.6392580795288085,-0.4833258247375488,-0.13350067138671876,-0.40951330947875975,0.16535878977411864,1.2233696552349032,-0.12784728765186906,-0.9525715523180315,-0.42537066278256197,-0.022761400802200665,-0.41363428116924783
-0.23953002141486515,-0.0876369216052555,0.1205543517332349,0.03873013870058823,0.2362087852720433,0.0152578956500695,0.281252920689744,0.14249047088623046,-5.637783348083496,-0.20072547912597655,1.6524637031555176,-0.493890323638916,-0.12549063110351563,-0.4165220947265625,0.16671494610480958,1.2713951284852452,-0.12783266519959635,-0.9713472037945869,-0.42268151543279797,-0.021908656801142352,-0.41379326968294494
-0.24072185265584525,-0.08809280149679335,0.12115116608920665,0.03897108151290913,0.23738237642607668,0.015272336722466659,0.282626133091576,0.14114622116088868,-5.70768433380127,-0.22625635147094728,1.6788749504089355,-0.5053351974487305,-0.14584948348999024,-0.4228633766174316,0.17323848249579557,1.3942316082276993,-0.12443229532918511,-1.015634206436445,-0.41747639803856185,-0.020014496251453625,-0.41468505561788493
-0.24188641967224767,-0.08855011953963483,0.12174576344069606,0.03920842905605399,0.2385438874582253,0.015287616534652477,0.28399185541292316,0.1734082145690918,-5.817912811279297,-0.20688810348510742,1.7096880722045897,-0.510617446899414,-0.14484822845458983,-0.43053966522216797,0.17821173675414934,1.3442221486164156,-0.12497358477453165,-0.9992863094788812,-0.41695542876390057,-0.02041939249857772,-0.41708968197806934
-0.24306243168522002,-0.08900785700691219,0.12234287744788377,0.03944499774602016,0.23971671171458533,0.015301817842443643,0.2853407397793948,0.21373570632934571,-5.905289043426514,-0.14614223480224608,1.7695535659790038,-0.4850865745544434,-0.13950820159912108,-0.4285371551513672,0.16986697112056706,1.2611135325195317,-0.13054274472185046,-0.9694587585982748,-0.4204819874142982,-0.02133973111596899,-0.4201227736209027
-0.2442349083156263,-0.08946918974336557,0.1229364560725054,0.03968084725125142,0.24088876889873914,0.015316798221579667,0.286709577949789,0.20432595825195313,-5.967124530792236,-0.15758710861206054,1.7484245681762696,-0.45691457748413083,-0.14084320831298827,-0.42486588668823244,0.16875748132041082,1.300105664445429,-0.12895195435535925,-0.9851275024226291,-0.42055918851485247,-0.020612046094818842,-0.4223576567597233
-0.24541289767755808,-0.08992872489977248,0.12353249146621538,0.039919453176786975,0.24203177629922396,0.015332437571591397,0.28807326292648366,0.13442497253417968,-6.003419273376465,-0.23153860092163087,1.7924433135986328,-0.5053351974487305,-0.14251196670532226,-0.425533390045166,0.17049877573459657,1.297084368295962,-0.12954464103357458,-0.9886160838454772,-0.42001326012036566,-0.020228308282404843,-0.42398724059487414
-0.2465778242317864,-0.09037999090434959,0.12412990512461904,0.04016123494706268,0.24319712234333798,0.015348795997254949,0.2894273005957379,0.23255520248413086,-6.139188495635986,-0.1611086082458496,1.839983558654785,-0.5000529479980469,-0.15652953720092774,-0.4278696517944336,0.16867632949126288,1.3994311761649532,-0.12820736016384177,-1.0230606457219285,-0.4190527443670727,-0.01855109383090633,-0.4242412314601644
-0.24774964178223388,-0.09083521160684557,0.12472815763189445,0.04040055983916698,0.24434454001630967,0.015367311649873965,0.29078792950091237,0.14517897033691407,-6.152630992889405,-0.20160585403442383,1.8663948059082032,-0.5009333229064942,-0.1508557586669922,-0.4318746719360352,0.15854328972382423,1.2164576624983396,-0.13239328681768164,-0.9560547952727595,-0.4218734716117479,-0.021521891450707063,-0.42512676547235845
-0.24891960175694186,-0.09129444711203653,0.12532221567664498,0.04064252137835565,0.24546846852460927,0.01538828407158132,0.2921730063237502,0.10216297912597656,-6.159352241516113,-0.20600772857666017,1.8170938110351562,-0.507095947265625,-0.14284571838378907,-0.4265346450805664,0.1594485828758992,1.13872654811855,-0.13068738319970027,-0.9251669063500749,-0.42119509897164986,-0.02392461188497358,-0.4265079912387146
-0.2500808731553842,-0.09175637904183874,0.12591573441465667,0.040889995649069824,0.24663774539926464,0.015408117993200984,0.2935434624143611,0.20567020797729493,-6.100205253601074,-0.18399835586547852,1.8206153106689453,-0.48860807418823243,-0.15319202041625976,-0.43087341690063474,0.1623972911603183,1.2027153128131731,-0.12864420280288827,-0.94955922097915,-0.4207814865575357,-0.022990163927643508,-0.4278320258911554
-0.25124849613422373,-0.0922129780090284,0.12651560473306558,0.04113201707486845,0.24778027353233686,0.015426573650126963,0.29489336550770046,0.16130996704101563,-6.07466450881958,-0.16991235733032226,1.816213436126709,-0.46483795166015623,-0.13183191299438476,-0.4272021484375,0.16348003615620835,1.248496194256923,-0.12648400096539103,-0.9703883256025222,-0.41879832010953655,-0.021933694069180314,-0.4282295158397206
-0.25241216441514447,-0.09265693370203354,0.12710852427772845,0.04137224081153752,0.24890132573802914,0.01544592815161772,0.2962773637170606,0.24330920028686523,-6.264203720092773,-0.13645811080932618,1.9262602996826172,-0.4789239501953125,-0.1581982955932617,-0.4205271148681641,0.1698611659778057,1.4126703267012166,-0.12479063820769982,-1.03270693648103,-0.4153558888346381,-0.018216696424186163,-0.42743815382437383
-0.253572357200109,-0.09310993740004717,0.12769425328403924,0.04161222489268368,0.25005861848390865,0.015463724728584914,0.29764014984919046,0.2070144577026367,-6.326039207458496,-0.21657222747802735,1.9262602996826172,-0.5026940727233886,-0.16387207412719726,-0.4131845779418945,0.17362520333183531,1.2808601788394232,-0.12547079845872733,-0.9724255608424595,-0.4146157156917803,-0.02207341514845431,-0.42525527284154224
-0.25471619155941005,-0.09357426621232776,0.1282878919043539,0.041854306314175346,0.25118216354337153,0.015478884767550815,0.2989966442875331,0.23793220138549806,-6.174138988494873,-0.17519460678100585,1.869916305541992,-0.5009333229064942,-0.15486077880859375,-0.42219587326049807,0.17730061587075147,1.0921782563592932,-0.13044427299492373,-0.9012816952066655,-0.41642756465429276,-0.0264820363598884,-0.4227357442139906
-0.2558733283819375,-0.09401870110729564,0.12888584476041334,0.04209668716871681,0.2523034075607486,0.015493265844254936,0.300370395996104,0.17878521347045898,-6.198335483551025,-0.20248622894287108,1.8584714317321778,-0.5088566970825196,-0.14685073852539063,-0.42419838333129883,0.17868224817210585,1.5384632853821671,-0.12372571682185796,-1.06857925407153,-0.4116855603858739,-0.01826914535483606,-0.42174038568191236
-0.2570226155861541,-0.09445241029951155,0.12946713964867637,0.042336791132165964,0.25345341373153396,0.015508485878913873,0.30174187059541646,0.10888422775268555,-6.402661441802978,-0.23682085037231446,1.9236191749572753,-0.47980432510375975,-0.14851949691772462,-0.42086086654663085,0.18314543698315733,1.5377386391464014,-0.11845976906421825,-1.0771692842388394,-0.4092576596438951,-0.016675936243431222,-0.42233636192650553
-0.2581750186394178,-0.0948818649244265,0.1300511908481606,0.0425816887514888,0.25455759226855085,0.01552418522461864,0.30309584837806075,0.23927645111083984,-6.627151145935058,-0.16727123260498047,2.041589412689209,-0.510617446899414,-0.16453957748413087,-0.4368809471130371,0.17601005643787557,1.390926517509854,-0.12410301160427349,-1.0140756570776355,-0.412326267254808,-0.019997081139008634,-0.4243038123260473
-0.2593204708098523,-0.09532216535256256,0.13064213293478097,0.04282916302220297,0.25567126242963895,0.01554018411245628,0.3044464105513589,0.17878521347045898,-6.63521664428711,-0.21481147766113282,2.044230537414551,-0.5273445701599121,-0.1602008056640625,-0.4408859672546387,0.17613843559097675,1.1452382391792175,-0.1250320589475408,-0.9230668089125379,-0.4179691614906695,-0.024378642785475666,-0.4272491657507965
-0.2604824612839465,-0.0957752889328792,0.13123073813461597,0.043081371062180865,0.2568092842971154,0.01555660253381287,0.3058038038342663,0.18012946319580078,-6.484660675048828,-0.18840023040771484,2.01869966506958,-0.4868473243713379,-0.151189510345459,-0.4312071685791016,0.17857633332905656,1.012061144439609,-0.12522430643813284,-0.8673824240754952,-0.4206708902025079,-0.02842784041814091,-0.4295181596955306
-0.26162102256724495,-0.09621546947871228,0.13180418329548507,0.043325190068025966,0.25791135377826424,0.015574339115087028,0.3071571823144787,0.28363669204711917,-6.45643143081665,-0.1355777359008789,1.9764416694641114,-0.493890323638916,-0.1598670539855957,-0.43487843704223633,0.18408078220204524,1.3107194566086335,-0.12241194978694127,-0.9768465091550943,-0.41971943394787364,-0.02279938638555758,-0.4309416846854865
-0.2627662350821566,-0.0966478004062345,0.1323885940327952,0.04356463495151634,0.2590301051164036,0.015590697649833658,0.30850055405850785,0.24868619918823243,-6.533053665161133,-0.13997961044311524,2.0354267883300783,-0.4692398262023926,-0.1508557586669922,-0.4178571014404297,0.18810435768043118,1.4057741901935588,-0.1210158099845976,-1.013581078191029,-0.42024512205885833,-0.020827540377766088,-0.42961218889052094
-0.26390257936097267,-0.09707767456466838,0.13297510200136778,0.043810131764188,0.26016486740696915,0.015606876306584255,0.3098541123076332,0.2634729461669922,-6.637905143737793,-0.17167310714721679,2.0609576606750486,-0.5062155723571777,-0.16253706741333007,-0.4205271148681641,0.19092299832055684,1.3076646865625594,-0.1213944825707309,-0.9694715106303944,-0.4201822939151803,-0.022809071433511633,-0.4269901726501318
-0.26504012191740334,-0.0975207912997187,0.13354782808658505,0.0440571866104663,0.2612680872346279,0.015623174845637846,0.311213602821803,0.13576922225952148,-6.494070423126221,-0.2306582260131836,2.0503931617736817,-0.5423109436035156,-0.15686328887939452,-0.43087341690063474,0.1963660400836395,1.175471294111968,-0.12253853271229972,-0.9144129599562661,-0.41887720215933744,-0.02630360464054146,-0.42514428126166615
-0.2661622648884283,-0.09796936077060149,0.13411833716732,0.044299807229613755,0.2623918239312427,0.015637615918035003,0.31249801210771205,0.1760967140197754,-6.386530445098877,-0.19808435440063477,1.9667575454711914,-0.4859669494628906,-0.15586203384399414,-0.425533390045166,0.19444657107820446,1.1960017906950258,-0.12353707846515102,-0.9174432183653087,-0.41887002389812894,-0.026658056748191033,-0.42411113995958655
-0.26729243713759393,-0.09840277031160145,0.13469789425306342,0.04453949165954396,0.26351441028134753,0.015650438961132485,0.3138059703576367,0.1814737129211426,-6.452398681640625,-0.17343385696411132,1.9614752960205077,-0.47804357528686525,-0.15285826873779296,-0.4098470611572266,0.19188549093970458,1.5008717319525267,-0.11986584253847098,-1.0413622016324633,-0.4133974352213324,-0.018934075083457562,-0.42226791138592434
-0.2684234484537975,-0.09883078689429584,0.1352775113344999,0.04479451600643611,0.2646229990908513,0.015661164882050615,0.3151038020981582,0.22986670303344728,-6.569348407745362,-0.14174036026000977,1.9843650436401368,-0.4921295738220215,-0.15919955062866212,-0.4161883430480957,0.18452260936540105,1.4478792524809072,-0.12020050856274288,-1.0236979432496105,-0.41262236489830245,-0.019384323520583443,-0.42061710226814486
-0.26954744889147886,-0.09925964243494503,0.13584538376815045,0.04505756974055205,0.2657430925871855,0.0156705725339681,0.3163831779635876,0.2527189483642578,-6.6338723945617675,-0.14614223480224608,2.0803259086608885,-0.46307720184326173,-0.15519453048706056,-0.40917955780029297,0.17540874941698986,1.2667002121561355,-0.12490861319818142,-0.9519809789951212,-0.4158920274354721,-0.0218470937840163,-0.4191574388074656
-0.2706737263293356,-0.09970204009434352,0.1364160126221053,0.045317207974404916,0.26683557462568724,0.01567908123223773,0.3176917954025541,0.2634729461669922,-6.5680041580200195,-0.16991235733032226,2.048632411956787,-0.5053351974487305,-0.1618695640563965,-0.4188583564758301,0.17423967583196798,1.3051229937012836,-0.12433646345198789,-0.9710844533563389,-0.414306090237736,-0.02123003289017216,-0.4172099872204721
-0.27179982399827946,-0.10014947106513862,0.13698987720741027,0.045569056476556895,0.2679158805491954,0.01568615199736987,0.31897632457076613,0.29976768875122073,-6.504824420928955,-0.11797023773193359,2.0107762908935545,-0.46483795166015623,-0.1602008056640625,-0.41852460479736325,0.17937295289493943,1.3205082742848118,-0.12663460993121187,-0.9722998105357892,-0.41654366907795226,-0.020504997176810588,-0.41685178459952954
-0.2729208883558267,-0.10057892579913663,0.13755756998123095,0.045821863709883615,0.26900040493350563,0.0156922639222442,0.3202690628951149,0.27691544342041013,-6.682265384674072,-0.18487873077392578,2.0996941566467284,-0.5035744476318359,-0.1618695640563965,-0.4295384101867676,0.19238986421312546,1.605768521351327,-0.12195419075868442,-1.0838739454820925,-0.41423536719566334,-0.014239934414560122,-0.4178553365824685
