lbr-stack/dynamic_parameter_identification/src/test/measurements.csv
q_0,q_1,q_2,q_3,q_4,q_5,q_6,tau_0,tau_1,tau_2,tau_3,tau_4,tau_5,tau_6,tau_ext_0,tau_ext_1,tau_ext_2,tau_ext_3,tau_ext_4,tau_ext_5,tau_ext_6
0.002440467604042,0.024791706183623,0.019691819202711,-0.022523631622035,0.005777355205097,0.02834484911108,0.041414185654952,-0.108884227752686,16.2385366821289,0.125013236999512,-7.05356376647949,-0.164630107879639,0.48560869216919,-0.323739128112793,-0.205896601932881,4.02980388589424,-0.013577562834953,-2.19371544051147,-0.309039539417482,0.216418555159119,-0.326157835739515
0.002130255946202,0.026324788126944,0.020063390092067,-0.022346444923708,0.006366116197384,0.028811335041233,0.043150340256484,-0.11963822555542,15.6013623123169,0.095960865020752,-6.78857091903687,-0.179596481323242,0.465249839782715,-0.34176171875,-0.204383134671065,3.97428750216414,-0.01367137468569,-2.17920023249219,-0.309182975336904,0.213734431682566,-0.32968984972529
0.001862708098345,0.027635442910563,0.020388881671176,-0.022172014536602,0.006913267842173,0.029238872203798,0.044665206198402,-0.064523986816406,14.7813699798584,0.128534736633301,-6.45226770401001,-0.184878730773926,0.428870906829834,-0.345099235534668,-0.204690983780362,3.54418917887933,-0.020261226574762,-2.01511330963627,-0.313192396711147,0.202751773352049,-0.331675707331792
0.00162865617316,0.028726366850009,0.020693340941967,-0.021997943578239,0.007386788583675,0.029644478322565,0.045969149863798,-0.056458488464356,14.0164918861389,0.125013236999512,-6.2136861038208,-0.183998355865478,0.463247329711914,-0.343764228820801,-0.211201875705977,3.17651355989493,-0.028609133726033,-1.8746646861587,-0.320479163538423,0.1951140232831,-0.337191687888668
0.001432534288695,0.029601994281494,0.020943032217164,-0.021831063267311,0.007788595666075,0.029966015094672,0.047072297762075,-0.162654216766357,13.2717775382996,0.057224369049072,-5.52963479995728,-0.219213352203369,0.344097980499268,-0.373468128204346,-0.204119342762902,3.04256553163384,-0.027953753359717,-1.82807570696431,-0.32037465488446,0.19015010090879,-0.342600869599384
0.001272425091683,0.030267538176246,0.021129806336321,-0.021714456838238,0.008104691548772,0.030178315635887,0.047959789505483,-0.116949726104736,12.2770327415466,0.079233741760254,-5.45304218292236,-0.210409603118896,0.382145671844482,-0.364790584564209,-0.200995458339905,2.89117015774778,-0.030734213066973,-1.73691367997782,-0.322050284498495,0.175323666367352,-0.349086188137244
0.001156477742569,0.03073198687083,0.021276193645671,-0.021681679882134,0.008333062994474,0.030358678178955,0.048636179094373,-0.139801971435547,11.6748088645935,0.085396366119385,-5.21358020782471,-0.207768478393555,0.355445537567139,-0.376805644989014,-0.216451665614216,1.99486395052334,-0.045225700713191,-1.40531111499697,-0.3320624370822,0.157084446160563,-0.357205464321393
0.001080737434349,0.030991385340077,0.02139993083557,-0.021673111188172,0.008483872531816,0.03051177671561,0.049084329249903,-0.161309967041016,11.2809436950684,0.066908493041992,-4.94418548583984,-0.219213352203369,0.358115550994873,-0.386484443664551,-0.216622408733476,2.24757710819205,-0.042730286977464,-1.48117132436739,-0.327636549968338,0.156178109477287,-0.362562698785204
0.001042867280239,0.031090255187876,0.021454818604385,-0.02167239211252,0.008562488968109,0.030590453103964,0.049355412371243,-0.177440963745117,10.1127906837463,0.068669242858887,-4.53305040359497,-0.212170352935791,0.324406631469727,-0.370464363098144,-0.214487223440268,2.89488954494103,-0.032757217585805,-1.70289214459331,-0.319020856020913,0.16925412927932,-0.368778747995351
0.001032860434973,0.031109549802757,0.02146033133591,-0.0216838969957,0.008581280230034,0.030599920642491,0.049466146640048,-0.322619934082031,8.23352956771851,0.043138370513916,-3.80586072921753,-0.252667598724365,0.286692691802978,-0.378808155059814,-0.226210460851589,3.21885416751335,-0.020766264934709,-1.80308276749771,-0.311168452956259,0.173056080969129,-0.370433540903374
0.001037953742063,0.031072698375515,0.02146045110913,-0.021688450996051,0.008584252351217,0.030603276256145,0.049490714330932,-0.373701423645019,6.29915421295166,0.027291622161865,-3.01352331161499,-0.25442834854126,0.231623664855957,-0.36679309463501,-0.266378614691598,2.84725615187321,-0.018365772806906,-1.6380023948249,-0.310977272473771,0.163116697073558,-0.369951683696197
0.001048140356242,0.030980779301462,0.02146033133591,-0.021684735953655,0.008586265763042,0.030604175100709,0.049503357605116,-0.379078422546387,4.67395629501343,0.011444873809815,-2.40430387496948,-0.272916221618652,0.192908470153809,-0.362120571136475,-0.304157507670139,2.41615821149389,-0.020384448408501,-1.44795764179,-0.314682672033407,0.148319011013353,-0.36984580695881
0.001060484088294,0.030847215144293,0.02146039122252,-0.021674968763911,0.008588087363183,0.030604954062971,0.049510128719032,-0.392520919799805,3.20603559494019,-0.011444873809815,-1.81709381103516,-0.300207843780518,0.148519496917725,-0.340426712036133,-0.328421147296817,1.77494852684313,-0.021383073415609,-1.19037006725094,-0.318082724962512,0.130795834382308,-0.367312172158909
0.001073187358171,0.030696333721202,0.02146033133591,-0.021658610338248,0.008589812970214,0.030605193718494,0.049511027563597,-0.360258926391602,2.34033877182007,-0.001760749816895,-1.4825513458252,-0.302848968505859,0.12715938949585,-0.342095470428467,-0.346637347073021,0.964265226727824,-0.028695429878624,-0.860759278695276,-0.326570028404262,0.105954102172357,-0.360316672682411
0.001081456510001,0.030512735446785,0.021460271340217,-0.021635301029755,0.008591826382039,0.030605373487407,0.049511926408162,-0.371012924194336,1.99352234268188,-0.018487873077393,-1.352255859375,-0.314293842315674,0.121151859283447,-0.336087940216064,-0.351499049207579,0.612086129176258,-0.029204923697924,-0.71640276199688,-0.330343474087903,0.092332162097818,-0.354346691791105
0.001086789472613,0.030320148944886,0.021460151566997,-0.021614088952525,0.008593168540234,0.030606032567366,0.049511506983726,-0.368324424743652,1.94378510284424,-0.014085998535156,-1.30295486450195,-0.316934967041016,0.111139308929443,-0.336421691894531,-0.350595466602388,0.405034001544976,-0.026504404349352,-0.626498879391759,-0.331016274582549,0.083701420194988,-0.349345781912535
0.001094758973227,0.030139007330474,0.021460570991433,-0.021593775610776,0.008594319061277,0.030606272331972,0.049511506983726,-0.346816429138184,2.04057108306885,-0.000880374908447,-1.3205623626709,-0.305490093231201,0.112474315643311,-0.337089195251465,-0.34853733855394,0.544992393268248,-0.022410852195731,-0.667512436436788,-0.330232606460138,0.081658156284828,-0.345835774894452
0.001102189167102,0.029987466827425,0.021460511104823,-0.021577896496158,0.008595661394005,0.030606691756408,0.049511506983726,-0.377734172821045,2.16155355834961,-0.014085998535156,-1.31792123794556,-0.315174217224121,0.111806812286377,-0.335086685180664,-0.346901860226529,0.714064245260857,-0.017394460947374,-0.712618787292136,-0.327523711962707,0.081811272256876,-0.343157150607915
0.001106323743017,0.029875654054225,0.021460570991433,-0.021573402491501,0.008597099370775,0.030607350836366,0.049511686643556,-0.371012924194336,2.4411575012207,-0.010564498901367,-1.32760536193848,-0.302848968505859,0.113475570678711,-0.33341792678833,-0.348394429468334,0.840030244826248,-0.01525184325385,-0.728698547711472,-0.325966947568803,0.080559439223522,-0.341134137466227
0.001107522129715,0.029792543438741,0.021460511104823,-0.021578915223026,0.008598537522079,0.030607530605279,0.049511746639249,-0.362947425842285,2.81217042541504,-0.007042999267578,-1.44029335021973,-0.294925594329834,0.119483100891113,-0.333084175109863,-0.351400199572422,0.955094358415298,-0.01488041915634,-0.731301263590594,-0.325510913961854,0.079465170374002,-0.33964818583273
0.00110656339854,0.029737715556535,0.021460690873736,-0.021591678379514,0.008599304594285,0.030608010025408,0.049511327214813,-0.337406681060791,3.23292058944702,-0.011444873809815,-1.61460758209229,-0.303729343414307,0.138506946563721,-0.336421691894531,-0.34904044278915,1.06972061478726,-0.014096743443286,-0.738323170172572,-0.322867384077242,0.079903137205966,-0.338203416150139
0.001104705822801,0.029707455474297,0.021460810646956,-0.021604381649391,0.008600550933904,0.030608369563234,0.049511806525859,-0.289013690948486,3.55957327270508,-0.003521499633789,-1.72553482055664,-0.281719970703125,0.14484822845459,-0.331749168395996,-0.337252267569425,1.24374140920079,-0.013938947877762,-0.775447448052388,-0.320696794291098,0.082946412146136,-0.337197720403704
0.001102069284799,0.029701463322642,0.021460570991433,-0.021615586881355,0.008601989085208,0.030608489336454,0.049511866412469,-0.275571193695068,3.77196472930908,-0.003521499633789,-1.81533306121826,-0.290523719787598,0.152190765380859,-0.336087940216064,-0.32171732223094,1.39842952628046,-0.013178404519633,-0.814887528338673,-0.318008123198834,0.086396805954777,-0.336051290883035
0.001098054591187,0.029713747168084,0.021460750760346,-0.021626492571186,0.00860246835262,0.030609627836542,0.049512166063685,-0.255407447814941,3.90504545211792,0.005282249450684,-1.85759105682373,-0.287882595062256,0.151189510345459,-0.332082920074463,-0.30492873112809,1.4517108982456,-0.012237487315758,-0.819368481277662,-0.316286020198875,0.087807427504343,-0.335407985331879
0.001093260935314,0.029737416014402,0.021460930529259,-0.021635540685278,0.008603427061978,0.030610287025584,0.049511626756946,-0.236587951660156,4.05156867218018,0.015846748352051,-1.90425092697144,-0.27995922088623,0.156529537200928,-0.333084175109863,-0.290410302938924,1.43907846426225,-0.011723747759688,-0.801265444199746,-0.316496102638726,0.08797268359595,-0.334832452406772
0.001087748203788,0.029767795978944,0.021460990415869,-0.02164273122363,0.008604289952761,0.030610526681107,0.049511926408162,-0.215079956054687,4.2774026260376,0.011444873809815,-1.9966902923584,-0.260590972900391,0.163204570770264,-0.33241667175293,-0.273377421182352,1.43936358770406,-0.009794337787441,-0.79209986302617,-0.315316515676722,0.088071620998946,-0.334107479900277
0.001082235472263,0.029797277208004,0.021460810646956,-0.021649981648592,0.008604098315609,0.030610886218932,0.049511986294772,-0.194916210174561,4.34461511230469,0.025530872344971,-2.05479503631592,-0.261471347808838,0.167209590911865,-0.33341792678833,-0.253443844872196,1.66143033719341,-0.005088963500622,-0.874122385040939,-0.308322451276444,0.09356345265324,-0.333479710183168
0.00107893974522,0.029836585404335,0.021460810646956,-0.021657831375986,0.008604289952761,0.030611185870148,0.049512166063685,-0.197604709625244,4.30563187026978,0.025530872344971,-2.04070903778076,-0.26411247253418,0.168210845947266,-0.329746658325195,-0.239890287180032,1.66884430553986,-0.002896730193772,-0.878172652732895,-0.305007577441608,0.095463184253267,-0.333212598136795
0.00107708216948,0.029881646096796,0.021461170184782,-0.02166400318747,0.008604289952761,0.030611725176887,0.049511626756946,-0.211047206878662,4.235730884552,0.01936824798584,-2.02222116470337,-0.264992847442627,0.168210845947266,-0.33441918182373,-0.229663199539664,1.61526537772704,-0.001507007613111,-0.861806219749893,-0.302510785880245,0.095533414449681,-0.33270779346044
0.001076063551695,0.029925927826996,0.021461050302479,-0.021668856839037,0.008604289952761,0.03061196483241,0.049512106177075,-0.22448970413208,4.19540339279175,0.015846748352051,-2.00109216690063,-0.257949848175049,0.164873329162598,-0.330414161682129,-0.225797243631455,1.53836711782972,-0.00249169390732,-0.835219028798383,-0.301196158695896,0.094583650342348,-0.332494276129112
0.001074925051608,0.029965835325759,0.021461409840305,-0.021671792919171,0.008604289952761,0.030612324370236,0.049511806525859,-0.23927645111084,4.20615739059448,0.011444873809815,-2.00285291671753,-0.260590972900391,0.166542087554932,-0.331081665039062,-0.227581280667334,1.47055608519838,-0.004144742967373,-0.810989381353652,-0.30013628758575,0.093621501353359,-0.332101747396898
0.001074325858259,0.030000649517431,0.021461589609218,-0.021674429457172,0.008604289952761,0.030612564025759,0.049511926408162,-0.255407447814941,4.28815662384033,0.007042999267578,-2.02046041488647,-0.268514347076416,0.167543342590332,-0.329746658325195,-0.232824463982096,1.42377253108903,-0.00574029985842,-0.792153973619085,-0.299015483947584,0.092782610958769,-0.331806905013354
0.001073546895997,0.030030370402014,0.021461529722608,-0.021676826339651,0.008604289952761,0.030612743794672,0.049511746639249,-0.260784446716309,4.37418860626221,0.012325248718262,-2.04863241195679,-0.257949848175049,0.166542087554932,-0.33241667175293,-0.24032896787754,1.47293727641014,-0.007981060104531,-0.807706428203963,-0.298811765423862,0.093905603289493,-0.331768871471187
0.001073007589258,0.030058353593161,0.021461769378131,-0.021679642646565,0.008604289952761,0.030613223105718,0.049512046181382,-0.275571193695068,4.43602409362793,0.00968412399292,-2.07416328430176,-0.262351722717285,0.170547107696533,-0.330414161682129,-0.245265949572359,1.53566324854523,-0.008435389917125,-0.829129155374004,-0.297022885222444,0.095200507328409,-0.33151505826357
0.001072887706955,0.030085857364178,0.021461649604911,-0.021682518840089,0.008604577583021,0.030613223105718,0.049512166063685,-0.255407447814941,4.46694183731079,0.013205623626709,-2.09089040756226,-0.257949848175049,0.170213356018066,-0.331415416717529,-0.248438508095213,1.58320971192419,-0.008843133309854,-0.845607963081859,-0.295943446560047,0.096285978454682,-0.331058757541618
0.001072528169129,0.030113540904109,0.021461949147044,-0.021685035495788,0.008604577583021,0.03061382240815,0.049511986294772,-0.243309200286865,4.47635158538818,0.014966373443604,-2.11730165481567,-0.260590972900391,0.173550872802734,-0.329079154968262,-0.249643052867717,1.59278684111213,-0.008898558246389,-0.85138661818045,-0.295325595099046,0.097012901447345,-0.330809484146462
0.001072288513606,0.030138587906038,0.021461949147044,-0.021687672033789,0.008604385945869,0.030614062063673,0.049511926408162,-0.23927645111084,4.4319913444519,0.014085998535156,-2.10673715591431,-0.255308723449707,0.175553382873535,-0.329746658325195,-0.247213526792596,1.59914598480288,-0.007236677556365,-0.858668332488135,-0.294901490324272,0.097990745380523,-0.330536180234394
0.001072228626996,0.030160399176617,0.021462188802567,-0.021689829260744,0.008604385945869,0.030614181836893,0.049511926408162,-0.231210952758789,4.341926612854,0.021128997802734,-2.08648853302002,-0.255308723449707,0.174885879516602,-0.330747913360596,-0.244164596167202,1.59286337035952,-0.005845156710138,-0.862486278454236,-0.293925552226279,0.098974983627522,-0.330190856072611
0.001072228626996,0.030179274367062,0.021462188802567,-0.021690847878529,0.008604673401597,0.030614121950283,0.049512166063685,-0.236587951660156,4.19540339279175,0.015846748352051,-2.05391466140747,-0.261471347808838,0.170213356018066,-0.327744148254394,-0.241079106304798,1.53781415400007,-0.00509122467496,-0.851676138905285,-0.293494441675461,0.09875520778203,-0.329656188235356
0.00107192897578,0.030194913826157,0.02146230868487,-0.021691387185268,0.008604865213282,0.030614541374718,0.049512106177075,-0.22448970413208,4.05425717163086,0.020248622894287,-2.01517816543579,-0.252667598724365,0.165207080841064,-0.330747913360596,-0.238216592687339,1.47756909978328,-0.004585047032546,-0.841769247304315,-0.292623597149013,0.098127502480714,-0.329477236306012
0.001071689320258,0.030207497213731,0.02146230868487,-0.021691566954181,0.008604289952761,0.030614841025934,0.049512285945988,-0.233899452209473,3.99242168426514,0.010564498901367,-1.98172391891479,-0.260590972900391,0.165540832519531,-0.326742893218994,-0.236886791570511,1.40430005713443,-0.005284401320982,-0.824496316805435,-0.291783237942273,0.096746728969404,-0.329455815203877
0.001071689320258,0.030217983370044,0.021462548340393,-0.021691447071878,0.008604385945869,0.030614900912544,0.049511986294772,-0.244653450012207,4.00317568206787,0.001760749816895,-1.98524541854858,-0.257949848175049,0.16353832244873,-0.328745403289795,-0.237636566732554,1.3636895719889,-0.005913502784497,-0.815775409677831,-0.291290023756968,0.095849018694184,-0.328979645791282
0.001071569437955,0.030227690673177,0.021462428567173,-0.021691447071878,0.008604577583021,0.030614841025934,0.049512106177075,-0.252718948364258,4.07845366668701,0.007923374176025,-1.99404916763306,-0.256189098358154,0.164539577484131,-0.329079154968262,-0.240094984342385,1.35870700623335,-0.006827056049547,-0.814977183616204,-0.290640033114761,0.095264817431154,-0.328865895472599
0.001071209900129,0.030236978442791,0.021462728109306,-0.021691566954181,0.008604385945869,0.030615380332673,0.049512046181382,-0.255407447814941,4.15776440048218,0.002641124725342,-2.00021179199219,-0.25442834854126,0.166208335876465,-0.329412906646728,-0.24380426527827,1.3658326410922,-0.008305677013467,-0.812635211289976,-0.290285292121202,0.095008638917979,-0.328689984209396
0.001071090126909,0.030246505867929,0.021462428567173,-0.021691866496314,0.008604577583021,0.030615380332673,0.049512166063685,-0.26212869644165,4.22497688674927,0.006162624359131,-2.01869966506958,-0.256189098358154,0.167543342590332,-0.32607538986206,-0.246633249480028,1.40345968030457,-0.009171946331685,-0.821081319606801,-0.289359021134413,0.095365357938004,-0.328699622071903
0.001070970244606,0.030255434099717,0.021462907878219,-0.02169216614753,0.008604577583021,0.030615619988196,0.049511926408162,-0.252718948364258,4.36477885818481,0.011444873809815,-2.07064178466797,-0.251787223815918,0.169545852661133,-0.330414161682129,-0.250696010000014,1.34066389982997,-0.01133154084625,-0.790536033209891,-0.290614340460611,0.093749836106401,-0.328740213768845
0.001070790475693,0.030256273057672,0.021463027760522,-0.021693064992094,0.008604289952761,0.030615799757109,0.049512285945988,-0.250030448913574,4.47097458648682,0.011444873809815,-2.09969415664673,-0.256189098358154,0.173217121124268,-0.328077899932861,-0.251476497749476,1.43752775728977,-0.010290375769147,-0.821310622280555,-0.289571993246122,0.095669002951222,-0.32842095569472
0.001070670702473,0.030255194444195,0.021463087647131,-0.021694443147705,0.008604385945869,0.030616039412632,0.049512225950295,-0.243309200286865,4.5314658241272,0.014966373443604,-2.11818202972412,-0.250026473999023,0.174218376159668,-0.327076644897461,-0.250656700507316,1.50837303776735,-0.009030527365724,-0.841162601447288,-0.288739498866671,0.097219623625194,-0.328413480019578
0.00107049093356,0.030253157099542,0.021463327411737,-0.021696240727751,0.008604289952761,0.030616219181545,0.049511926408162,-0.232555202484131,4.50458082962036,0.024650497436524,-2.11730165481567,-0.250906848907471,0.174218376159668,-0.329746658325195,-0.247205475501797,1.58120408376316,-0.007425523038089,-0.863933873939362,-0.287776240499209,0.098949006616417,-0.328238310139991
0.00107049093356,0.030250520561541,0.021463447184957,-0.021697439223532,0.008604385945869,0.030616219181545,0.049512285945988,-0.233899452209473,4.40376210021973,0.015846748352051,-2.08912965774536,-0.25442834854126,0.175219631195068,-0.32607538986206,-0.243981731681496,1.64437702124963,-0.00496871938348,-0.885208661087104,-0.286913378120793,0.100622047015553,-0.328324974024133
0.00107049093356,0.030248962637017,0.021463207529434,-0.021697918534578,0.008604577583021,0.030616279177238,0.049512285945988,-0.237932201385498,4.22363263702393,0.014966373443604,-2.06359878540039,-0.250026473999023,0.170880859375,-0.327744148254394,-0.240643762793474,1.63219840183385,-0.003569731214311,-0.88608234777016,-0.286231076075079,0.101011705861859,-0.328158693778827
0.001070311164647,0.030246805519145,0.021463087647131,-0.021698218185794,0.008604577583021,0.030616458946151,0.049512285945988,-0.235243701934814,4.02065092849731,0.00968412399292,-1.99845104217529,-0.253547973632812,0.168210845947266,-0.327744148254394,-0.238781249316616,1.56592788239268,-0.003861695012172,-0.873772641921219,-0.28591285599895,0.100370166969785,-0.327674727915298
0.001070191282344,0.030244348750057,0.021463447184957,-0.021697858647968,0.008604577583021,0.030616638605981,0.049512405719208,-0.244653450012207,3.85665246200561,0.007042999267578,-1.92537992477417,-0.257949848175049,0.163872074127197,-0.327744148254394,-0.239418930252076,1.47524488254853,-0.005080252125668,-0.849897354140866,-0.286055526155421,0.099160931560254,-0.32746556532114
0.001070011513431,0.030241592329752,0.021463327411737,-0.021697439223532,0.008604577583021,0.030616758488284,0.049512106177075,-0.247341949462891,3.76255498123169,0.007042999267578,-1.88576305389404,-0.257069473266602,0.159533302307129,-0.328745403289795,-0.24151041687202,1.38814178414867,-0.007271111839186,-0.823872125995512,-0.287161340121565,0.097902975039827,-0.327317224515421
0.001070011513431,0.030239315329577,0.021463447184957,-0.021697019690013,0.008604577583021,0.030616938257197,0.049512405719208,-0.255407447814941,3.77734172821045,-0.005282249450684,-1.88136117935181,-0.259710597991943,0.160534557342529,-0.324740383148193,-0.244077115621074,1.32045326787374,-0.009252669748635,-0.800791431630917,-0.287392398872784,0.096222014327882,-0.327239707107272
0.001069472206692,0.030237997060576,0.02146362695387,-0.02169678003449,0.008604385945869,0.030617237908413,0.049512046181382,-0.260784446716309,3.89966845321655,0.004401874542236,-1.8998490524292,-0.252667598724365,0.161202060699463,-0.32507413482666,-0.247456617740366,1.27134137265726,-0.011093223673525,-0.779757107221549,-0.287349017096639,0.094559756739284,-0.327245196337478
0.001069592088995,0.030238116942879,0.021463447184957,-0.021697019690013,0.008604673401597,0.030617237908413,0.049512285945988,-0.260784446716309,4.12819090652466,0.010564498901367,-1.97027904510498,-0.253547973632812,0.162870819091797,-0.32607538986206,-0.250305249768048,1.28620255341303,-0.011904004677379,-0.776320852260488,-0.287107714385529,0.093983550714134,-0.327143345994233
0.001069711862215,0.030238596253925,0.02146356706726,-0.021697499110142,0.008604673401597,0.03061711802611,0.049512465714901,-0.260784446716309,4.35805760955811,0.00968412399292,-2.06888103485107,-0.243863849639893,0.170213356018066,-0.325741638183594,-0.252200663209168,1.34629724206961,-0.01144498644188,-0.791912401127258,-0.286499589211098,0.094558304356866,-0.326932481905027
0.001069412320082,0.0302395549851,0.021463926605086,-0.021698457841317,0.008604289952761,0.030617537450546,0.049511926408162,-0.250030448913574,4.51264632797241,0.015846748352051,-2.12434465408325,-0.247385349273682,0.172549617767334,-0.325741638183594,-0.252190990173164,1.45662307226959,-0.010013408911055,-0.82862783708414,-0.284812718717302,0.096998935359972,-0.32668515493743
0.001069412320082,0.030240993136403,0.021463866609393,-0.021699656228015,0.008604385945869,0.030617417677326,0.049512285945988,-0.23927645111084,4.55162957000732,0.017607498168945,-2.14723440170288,-0.250026473999023,0.178890899658203,-0.32507413482666,-0.251278299548651,1.54302225950692,-0.007605620975069,-0.857948676123859,-0.284161956473556,0.099119188396391,-0.326382993250466
0.001069172664559,0.030241592329752,0.021464226147219,-0.021701334034841,0.008604385945869,0.030617657332849,0.049511926408162,-0.243309200286865,4.49113833236694,0.016727123260498,-2.12434465408325,-0.250026473999023,0.17822339630127,-0.329412906646728,-0.249341803019024,1.61445926206383,-0.005368666087675,-0.883549907210216,-0.283141740371725,0.101307142015649,-0.326183125414754
0.001069292437779,0.030241532443142,0.021464405916132,-0.021702112997103,0.008604385945869,0.030617597446239,0.049512405719208,-0.241964950561523,4.33251686477661,0.021128997802734,-2.09089040756226,-0.250906848907471,0.174552127838135,-0.323405376434326,-0.248182872396165,1.63055892425307,-0.00358523184504,-0.892380041540987,-0.282676774341568,0.102336306769348,-0.32624216108882
0.001069292437779,0.030241232791926,0.021463986491696,-0.021702532530622,0.008604577583021,0.030617837101762,0.049512285945988,-0.250030448913574,4.15373165130615,0.013205623626709,-2.03542678833008,-0.247385349273682,0.171548362731934,-0.327744148254394,-0.247155315960835,1.59549179626659,-0.002544778643001,-0.886548679949317,-0.282523961268115,0.102223800888086,-0.326021512874012
0.001069292437779,0.030240513716274,0.021464166260609,-0.021702532530622,0.008604577583021,0.030617717219459,0.049512465714901,-0.244653450012207,4.00183143234253,0.017607498168945,-1.98172391891479,-0.246504974365234,0.169545852661133,-0.324740383148193,-0.246982060439885,1.53251411877262,-0.003057078286644,-0.869726003135884,-0.282233760590896,0.101676560317882,-0.326209444005824
0.001068932899953,0.03023949509849,0.021464405916132,-0.02170181345497,0.008604385945869,0.030618076757285,0.049512106177075,-0.251374698638916,3.89966845321655,0.011444873809815,-1.95355192184448,-0.251787223815918,0.167543342590332,-0.327744148254394,-0.248112756788775,1.46157387907575,-0.004320466005773,-0.849155135727647,-0.282417300801244,0.100848320064731,-0.326107834506508
0.001069052782256,0.030238895905141,0.021464226147219,-0.021701513803754,0.008604673401597,0.030618196639588,0.049512405719208,-0.259440196990967,3.88084895706177,0.005282249450684,-1.93418367385864,-0.251787223815918,0.164539577484131,-0.326409141540527,-0.250632056662425,1.40152176264057,-0.005844544128725,-0.832814904972519,-0.282545900929218,0.099983673733045,-0.325955088602339
0.001069052782256,0.030238296711792,0.021464226147219,-0.021701513803754,0.008604577583021,0.030618196639588,0.049512285945988,-0.258095947265625,3.92386494827271,0.003521499633789,-1.94474817276001,-0.252667598724365,0.164873329162598,-0.326409141540527,-0.253258704500184,1.33556126504913,-0.007891742459621,-0.809901544930784,-0.282974730998673,0.098647988295917,-0.325895775636488
0.00106875313104,0.030237997060576,0.021464286142912,-0.021701394030534,0.008604577583021,0.0306183764085,0.049512285945988,-0.260784446716309,4.02199517822266,0.003521499633789,-1.95707342147827,-0.25442834854126,0.166208335876465,-0.32407287979126,-0.254377291420527,1.32465114516475,-0.008978384828815,-0.803587012852296,-0.283661143946974,0.098030781761323,-0.325926418550327
0.001068992895646,0.030238416485012,0.021464405916132,-0.021701513803754,0.008604577583021,0.030618256526197,0.049512345832598,-0.258095947265625,4.15776440048218,0.008803749084473,-1.98524541854858,-0.248265724182129,0.167543342590332,-0.326742893218994,-0.255074960819122,1.34069923214977,-0.009560785533575,-0.801691937019841,-0.283505986724669,0.097729745592159,-0.32570227526128
0.001068873013343,0.030238776022838,0.021464525798435,-0.02170181345497,0.008604577583021,0.0306183764085,0.049512645483814,-0.247341949462891,4.31504161834717,0.014085998535156,-2.04951278686523,-0.245624599456787,0.170213356018066,-0.325407886505127,-0.253921548392533,1.38529295707239,-0.009401650436198,-0.809246239021789,-0.28291770312062,0.097754148826369,-0.325642230654242
0.00106875313104,0.0302395549851,0.021464645571655,-0.021702532530622,0.008604385945869,0.03061849618172,0.049512285945988,-0.241964950561523,4.43064709472656,0.017607498168945,-2.09089040756226,-0.24474422454834,0.173550872802734,-0.32507413482666,-0.251894360461029,1.45272365437978,-0.008043942925585,-0.829670225202916,-0.28209538824054,0.098613188300558,-0.325432606577705
0.00106875313104,0.030240094291839,0.021464645571655,-0.021703131723971,0.008604577583021,0.030618616064023,0.049512465714901,-0.241964950561523,4.47231883621216,0.01936824798584,-2.1084979057312,-0.247385349273682,0.176554637908936,-0.32507413482666,-0.250041244940212,1.52924218282985,-0.006141921253502,-0.853998051447268,-0.280827550243605,0.100120693697486,-0.325291646406759
0.001068873013343,0.03024075348088,0.021464885336261,-0.021703790803929,0.008604577583021,0.030618855719546,0.049512285945988,-0.2540631980896,4.42795859527588,0.014966373443604,-2.10409603118896,-0.249146099090576,0.175219631195068,-0.326409141540527,-0.248817538891683,1.584248479711,-0.004694671702871,-0.873005161187676,-0.280148820107724,0.101571330030614,-0.325074982442197
0.00106875313104,0.030240693485187,0.021465005109481,-0.021704270224058,0.008604385945869,0.030618795832936,0.049512465714901,-0.241964950561523,4.28546812438965,0.021128997802734,-2.08032590866089,-0.253547973632812,0.174552127838135,-0.324406631469727,-0.247494363144793,1.5993071398383,-0.003572783531557,-0.881351989669267,-0.280171601008642,0.102343171890772,-0.324946521028689
0.001068573362127,0.030240393943055,0.021464885336261,-0.021704270224058,0.008604673401597,0.030618915606156,0.049512405719208,-0.248686199188232,4.1134041595459,0.018487873077393,-2.02398191452026,-0.24474422454834,0.1698796043396,-0.320067859649658,-0.247089261627749,1.56900719671284,-0.003393180526219,-0.879228061888086,-0.280190778115565,0.102349006671857,-0.325049657812037
0.00106869324443,0.030239914522926,0.021464825340568,-0.021704030568535,0.008604385945869,0.030618975601849,0.049512106177075,-0.255407447814941,3.97360218811035,0.010564498901367,-1.96235567092896,-0.246504974365234,0.166875839233398,-0.325407886505127,-0.24919165658991,1.50089870110815,-0.004667673542944,-0.85997514678454,-0.279821780769781,0.101353770776934,-0.324749363377913
0.001068573362127,0.030239135560664,0.021464825340568,-0.021703551148407,0.008604577583021,0.030619095375069,0.049512405719208,-0.258095947265625,3.90235695266724,0.007923374176025,-1.94034629821777,-0.250906848907471,0.165874584197998,-0.326742893218994,-0.25148840280287,1.44002543158711,-0.006492135753997,-0.84153182657599,-0.280204058218204,0.100359033030188,-0.324731260382606
0.001068573362127,0.030238416485012,0.021465124991784,-0.021703131723971,0.008604673401597,0.030619095375069,0.049512645483814,-0.258095947265625,3.91042245101929,0.005282249450684,-1.93858554840088,-0.255308723449707,0.165874584197998,-0.326409141540527,-0.253835890037238,1.36831901219355,-0.008436119070871,-0.817905654582711,-0.280667614769118,0.099197411970841,-0.324878714263015
0.001068393702297,0.030238116942879,0.021465304760697,-0.021703131723971,0.008604385945869,0.030619095375069,0.049512405719208,-0.252718948364258,3.99511018371582,0.005282249450684,-1.95091079711914,-0.247385349273682,0.167877094268799,-0.328077899932861,-0.254772254884588,1.33167204839094,-0.009315985629882,-0.80344996290559,-0.280499386887298,0.098527418658502,-0.325021387889406
0.001068513475517,0.030238296711792,0.021465124991784,-0.021703251497191,0.008604385945869,0.030619155370762,0.049512765257034,-0.26212869644165,4.14028915405273,0.010564498901367,-1.98876691818237,-0.242983474731445,0.167877094268799,-0.324406631469727,-0.255157338584303,1.34265634496766,-0.009631463027564,-0.801294365227631,-0.280561156768887,0.098296594226524,-0.324862292124053
0.001068273819994,0.030238596253925,0.021465304760697,-0.021703491261797,0.008604289952761,0.030619454912895,0.049512405719208,-0.252718948364258,4.26261587905884,0.018487873077393,-2.03806791305542,-0.246504974365234,0.167877094268799,-0.32607538986206,-0.255781407262631,1.38576206608274,-0.009247045407026,-0.81183915535003,-0.280179328384759,0.098382837405678,-0.324750988746292
0.001068273819994,0.030239315329577,0.021465364647307,-0.021704030568535,0.008604385945869,0.030619514908588,0.049512405719208,-0.252718948364258,4.3513363609314,0.01936824798584,-2.07152215957642,-0.237701225280762,0.169545852661133,-0.322070369720459,-0.255178222149516,1.4296747490487,-0.007997699468759,-0.822663179197519,-0.279798016429107,0.098498290299439,-0.324572764648332
0.001068153937691,0.030239674867403,0.021465604411913,-0.021704090455145,0.008604289952761,0.030619694677501,0.049512046181382,-0.252718948364258,4.39704085159302,0.018487873077393,-2.08824928283691,-0.242103099822998,0.170880859375,-0.324740383148193,-0.252665862627034,1.49651846423861,-0.006012263891003,-0.843974598354788,-0.278750991294105,0.099580733346171,-0.324238794251785
0.001068273819994,0.030239914522926,0.02146548452961,-0.021704569766191,0.008604289952761,0.030619694677501,0.049512285945988,-0.244653450012207,4.37015585708618,0.013205623626709,-2.0768044090271,-0.242983474731445,0.172215866088867,-0.322404121398926,-0.251858345695092,1.53134936145266,-0.004587227566811,-0.854788885718653,-0.277978652836407,0.100231553843939,-0.324116191572179
0.001068273819994,0.030240034405229,0.02146548452961,-0.021704809530797,0.008604577583021,0.030619574795198,0.049512285945988,-0.250030448913574,4.29218937301636,0.017607498168945,-2.06447916030884,-0.238581600189209,0.172215866088867,-0.323739128112793,-0.250246453125004,1.55959792121336,-0.004319328159986,-0.865487719874479,-0.277255820071717,0.100571435394249,-0.323940109879366
0.001068153937691,0.030239794749706,0.021465604411913,-0.021704809530797,0.008604385945869,0.030619574795198,0.049512405719208,-0.255407447814941,4.17792814636231,0.014085998535156,-2.04423053741455,-0.24474422454834,0.169545852661133,-0.322070369720459,-0.249582145611824,1.5594105719578,-0.003730259959282,-0.870876311076332,-0.276819376073967,0.100616961661999,-0.323838110669029
0.001068153937691,0.0302395549851,0.021465604411913,-0.021704629761884,0.008604577583021,0.030619754564111,0.049512285945988,-0.258095947265625,4.07307666778565,0.010564498901367,-2.00461366653442,-0.245624599456787,0.167877094268799,-0.322070369720459,-0.250850314723953,1.5134463638441,-0.004229480865802,-0.861178053956322,-0.276731784393071,0.100188815366393,-0.323467048123634
0.001068273819994,0.030239195447274,0.02146548452961,-0.021704389997278,0.008604577583021,0.030619574795198,0.049512285945988,-0.260784446716309,3.99914293289185,0.012325248718262,-1.97732204437256,-0.245624599456787,0.167543342590332,-0.322404121398926,-0.25281661412749,1.47718303070122,-0.005359570107743,-0.853851997780414,-0.277136506576082,0.100101347308309,-0.323301451249843
0.001068094051082,0.030238895905141,0.02146548452961,-0.021704330110668,0.008604577583021,0.030619874446414,0.049512285945988,-0.258095947265625,3.97225793838501,0.014085998535156,-1.97027904510498,-0.247385349273682,0.166875839233398,-0.322070369720459,-0.253875776658057,1.42286685392369,-0.006985897851182,-0.837699719446915,-0.277392916508587,0.099247674417978,-0.323437955261324
0.001068153937691,0.030238596253925,0.021465784071743,-0.021704030568535,0.008604673401597,0.030619934333024,0.049512405719208,-0.260784446716309,4.00586418151856,0.007923374176025,-1.97027904510498,-0.24474422454834,0.168544597625732,-0.321736618041992,-0.256041396021034,1.37702663741137,-0.008317958117474,-0.822483089257633,-0.276928039759005,0.098491600870613,-0.32337119932684
0.001067974168779,0.030238476480705,0.021466083722959,-0.021704030568535,0.008604289952761,0.030619874446414,0.049512285945988,-0.260784446716309,4.06904391860962,0.006162624359131,-1.98172391891479,-0.242103099822998,0.167877094268799,-0.323739128112793,-0.255608315120987,1.37983088686363,-0.008818309037278,-0.822406176294672,-0.276629020099514,0.098595991703254,-0.323167703364522
0.001068094051082,0.030238895905141,0.021465903954046,-0.021704030568535,0.008604385945869,0.030619934333024,0.049512405719208,-0.252718948364258,4.19540339279175,0.012325248718262,-2.00813516616821,-0.242983474731445,0.168878349304199,-0.32407287979126,-0.255800923386384,1.38539744058816,-0.00896220997114,-0.818145450936212,-0.276545655435226,0.098435032504731,-0.323193265368689
0.001067854395559,0.030238955791751,0.021466023836349,-0.021704330110668,0.008604385945869,0.030620173988547,0.049512285945988,-0.250030448913574,4.28546812438965,0.016727123260498,-2.045110912323,-0.242103099822998,0.170213356018066,-0.323739128112793,-0.254759938331843,1.41769579408316,-0.008211085605686,-0.824196298428605,-0.275857179925277,0.098642887608924,-0.32328138581623
0.001067974168779,0.03023943521188,0.021466023836349,-0.021704689648494,0.008604289952761,0.030620173988547,0.049512285945988,-0.250030448913574,4.33654961395264,0.016727123260498,-2.06359878540039,-0.241222724914551,0.170547107696533,-0.325407886505127,-0.253432784345628,1.46693386872871,-0.007449085332114,-0.83775138109396,-0.275391349878123,0.099179593029465,-0.323364866214063
0.001067974168779,0.030239794749706,0.021466323378482,-0.021704869417407,0.008604289952761,0.03062029387085,0.049512405719208,-0.241964950561523,4.33789386367798,0.014966373443604,-2.06712028503418,-0.240342350006104,0.170547107696533,-0.320735363006592,-0.252402099726601,1.50850097183313,-0.006225330994633,-0.850802637834638,-0.274589674606337,0.099611183410827,-0.323210099617765
0.001067974168779,0.030239914522926,0.021466023836349,-0.021705228955233,0.008604577583021,0.030620114101937,0.049512285945988,-0.250030448913574,4.30025487136841,0.012325248718262,-2.06095766067505,-0.237701225280762,0.172549617767334,-0.324406631469727,-0.251206326622898,1.52759677255135,-0.005502080014009,-0.856845519791791,-0.274257391437025,0.09997840479437,-0.323041524055658
0.001068094051082,0.030239794749706,0.021466023836349,-0.021705228955233,0.008604577583021,0.030620233875157,0.049512405719208,-0.259440196990967,4.20615739059448,0.008803749084473,-2.0433501625061,-0.24474422454834,0.172215866088867,-0.321736618041992,-0.251782393792228,1.54751544372118,-0.005300710047628,-0.86732580246204,-0.2742583187965,0.100391142262571,-0.323137407803122
0.001067854395559,0.0302395549851,0.021466143609569,-0.021705169068623,0.008604577583021,0.03062041364407,0.049512285945988,-0.259440196990967,4.09861741256714,0.007042999267578,-2.02046041488647,-0.239461975097656,0.170547107696533,-0.327410396575928,-0.252782362384104,1.52491360473913,-0.006011376583068,-0.865058215360847,-0.27452466386867,0.100234123579974,-0.323099584674507
0.001067854395559,0.030239315329577,0.021466203605262,-0.02170504918632,0.008604385945869,0.03062035375746,0.049512705370424,-0.255407447814941,4.04484742355347,0.010564498901367,-1.99140804290771,-0.245624599456787,0.166542087554932,-0.325407886505127,-0.255238878248934,1.46874084975312,-0.007424484236241,-0.849772917851705,-0.275212124460937,0.099401343462479,-0.323423336738742
0.001067974168779,0.030239015678361,0.021466143609569,-0.021704809530797,0.008604577583021,0.03062041364407,0.049512645483814,-0.266161445617676,4.01930667877197,0.007923374176025,-1.98260429382324,-0.242983474731445,0.165874584197998,-0.319734107971191,-0.25575419805288,1.4533032512651,-0.008479959897649,-0.848496450464148,-0.275583198203163,0.099180961872705,-0.323691241850418
0.001067854395559,0.030238895905141,0.021466143609569,-0.021704749535104,0.008604577583021,0.030620533526373,0.049512106177075,-0.259440196990967,4.03409342575073,0.00968412399292,-1.98260429382324,-0.243863849639893,0.165540832519531,-0.323071624755859,-0.257870428366098,1.40375904849526,-0.009683974866602,-0.831641420231153,-0.275430050393936,0.098417594353225,-0.323435298495969
0.001067734513256,0.030238596253925,0.021466443260785,-0.021704749535104,0.008604673401597,0.030620593412983,0.049512285945988,-0.263472946166992,4.10399441146851,0.002641124725342,-1.99757066726685,-0.24474422454834,0.167877094268799,-0.323071624755859,-0.258441007070706,1.39929301745885,-0.010461200827727,-0.829155125268738,-0.275130251514491,0.097999670497951,-0.323127703640897
0.001067674626646,0.030238895905141,0.021466623029698,-0.021704629761884,0.008604385945869,0.030620773181896,0.049512285945988,-0.255407447814941,4.18599364471436,0.00968412399292,-2.00989591598511,-0.243863849639893,0.166875839233398,-0.322737873077393,-0.257698286448841,1.40500077523775,-0.010732434191519,-0.827353666556753,-0.275279672801587,0.097686115082642,-0.323085142892137
0.001067554744343,0.030238955791751,0.021466682916307,-0.021704809530797,0.008604385945869,0.030620653408676,0.049512405719208,-0.256751697540283,4.25051763153076,0.00968412399292,-2.03014453887939,-0.24474422454834,0.169212100982666,-0.323405376434326,-0.256345910646885,1.43364690827008,-0.009733690209956,-0.831822882256139,-0.275581691760781,0.098050165568817,-0.323055453180596
0.001067794399866,0.03023949509849,0.021466383374175,-0.02170510907293,0.008604673401597,0.030620593412983,0.049512465714901,-0.251374698638916,4.28681237411499,0.014966373443604,-2.04863241195679,-0.241222724914551,0.1718821144104,-0.323071624755859,-0.256140349219644,1.4599843555097,-0.008928196378418,-0.836804576051361,-0.275755874905735,0.098486875189995,-0.323019024119563
0.001067674626646,0.0302395549851,0.021466563143088,-0.021705288841843,0.008604577583021,0.030620593412983,0.049512645483814,-0.256751697540283,4.28412387466431,0.007923374176025,-2.04687166213989,-0.241222724914551,0.170880859375,-0.322070369720459,-0.254755055082099,1.48786501410309,-0.00798384035083,-0.844428581452199,-0.27540611276348,0.099352098615604,-0.322847849443787
0.001067974168779,0.0302395549851,0.021466563143088,-0.021705228955233,0.008604673401597,0.030620773181896,0.049512465714901,-0.251374698638916,4.25723888015747,0.008803749084473,-2.04423053741455,-0.240342350006104,0.171214611053467,-0.320401611328125,-0.255507565516919,1.50975656667024,-0.007490088562742,-0.851404229249346,-0.275426130483614,0.099736507254594,-0.322749278453052
0.001067674626646,0.03023949509849,0.021466742912001,-0.021705169068623,0.008604385945869,0.030620952950809,0.049512285945988,-0.251374698638916,4.19674764251709,0.010564498901367,-2.03278566360474,-0.242103099822998,0.166208335876465,-0.323071624755859,-0.25510413237225,1.50706639115109,-0.007535408035649,-0.851411839140452,-0.275317090751546,0.099635046571052,-0.32259063198595
0.001067554744343,0.03023943521188,0.021466503147395,-0.021705228955233,0.008604385945869,0.030621012946502,0.049512765257034,-0.256751697540283,4.14028915405273,0.011444873809815,-2.02398191452026,-0.23506010055542,0.169545852661133,-0.319734107971191,-0.256069826622248,1.4985343601157,-0.008078517868845,-0.851846263990187,-0.274655326961608,0.099448141370579,-0.322399235419873
0.001067854395559,0.030239195447274,0.021466563143088,-0.02170510907293,0.008604577583021,0.030620952950809,0.049512285945988,-0.26212869644165,4.09189616394043,0.010564498901367,-2.01253704071045,-0.242103099822998,0.167543342590332,-0.323071624755859,-0.257160193707019,1.47329411734725,-0.008736654233735,-0.84725914205706,-0.274228111763542,0.099122090504236,-0.322059150564206
0.001067554744343,0.030239015678361,0.021466742912001,-0.02170498929971,0.008604385945869,0.030621012946502,0.049512405719208,-0.263472946166992,4.06904391860962,0.007042999267578,-2.00197254180908,-0.242103099822998,0.166208335876465,-0.321736618041992,-0.258897834461151,1.44177818319367,-0.0099414363726,-0.840778737679996,-0.274160452599938,0.098666063793582,-0.322093000590552
0.001067674626646,0.030238895905141,0.021466682916307,-0.02170498929971,0.008604577583021,0.030621012946502,0.049512645483814,-0.266161445617676,4.08517491531372,0.010564498901367,-2.00637441635132,-0.238581600189209,0.166542087554932,-0.322737873077393,-0.259745800992399,1.42837439666561,-0.010318117165423,-0.839026345443839,-0.273725775284822,0.098378759192753,-0.322139040728571
0.001067674626646,0.030239015678361,0.021466742912001,-0.021704929304017,0.008604577583021,0.030621012946502,0.049512585488121,-0.267505695343018,4.11205990982056,0.011444873809815,-2.01253704071045,-0.241222724914551,0.168210845947266,-0.324406631469727,-0.260733123036074,1.41031784077667,-0.010160115378498,-0.832732266270852,-0.274014384554499,0.097827214944378,-0.322043421520209
0.001067674626646,0.030238895905141,0.021467042454133,-0.021704869417407,0.008604385945869,0.030621132719722,0.049512525601511,-0.2540631980896,4.16717414855957,0.008803749084473,-2.01781929016113,-0.24474422454834,0.168544597625732,-0.320067859649658,-0.26068867807078,1.41920108385715,-0.009697807170457,-0.834758277369405,-0.273933994575134,0.097778264554597,-0.321932707167386
0.001067554744343,0.030239135560664,0.02146686268522,-0.02170498929971,0.008604577583021,0.030621132719722,0.049512285945988,-0.250030448913574,4.23169813537598,0.014966373443604,-2.03014453887939,-0.23506010055542,0.169545852661133,-0.317731597900391,-0.259592503634308,1.43377885702849,-0.009225757585795,-0.835580439335194,-0.274031611532759,0.097798512409951,-0.321563583881979
0.001067494857733,0.030239375216187,0.021466982567523,-0.02170498929971,0.008604289952761,0.030621372375245,0.049512046181382,-0.241964950561523,4.26261587905884,0.014966373443604,-2.03366603851318,-0.242103099822998,0.170547107696533,-0.318732852935791,-0.258076888092478,1.45969257226805,-0.008319072331239,-0.840188359284681,-0.274125524539724,0.098240892438809,-0.321154201833914
0.001067554744343,0.03023949509849,0.02146686268522,-0.021705408724146,0.008604673401597,0.030621252602025,0.049512345832598,-0.250030448913574,4.27068137741089,0.018487873077393,-2.03982866287231,-0.23506010055542,0.170880859375,-0.319066604614258,-0.256053984577182,1.47756138422236,-0.006999119155232,-0.842492063418581,-0.274091458485146,0.098551611129762,-0.320993295591327
0.001067494857733,0.030239315329577,0.021467162336436,-0.02170510907293,0.008604385945869,0.030621492257548,0.049511926408162,-0.2540631980896,4.24110788345337,0.011444873809815,-2.03806791305542,-0.237701225280762,0.168878349304199,-0.318732852935791,-0.255201987899204,1.5034432835768,-0.005868340998788,-0.850422672487041,-0.273866833518829,0.099298921960964,-0.320759657010024
0.001067494857733,0.03023943521188,0.021467162336436,-0.02170510907293,0.008604577583021,0.030621372375245,0.049512166063685,-0.264817195892334,4.18599364471436,0.010564498901367,-2.02574266433716,-0.238581600189209,0.170880859375,-0.319066604614258,-0.255267638839441,1.49880564301152,-0.005832766871617,-0.848984719938058,-0.273691110288508,0.099276862697192,-0.320590599590061
0.001067554744343,0.030239315329577,0.021467042454133,-0.021705228955233,0.008604577583021,0.030621492257548,0.049512285945988,-0.2540631980896,4.11609265899658,0.012325248718262,-2.01693891525269,-0.249146099090576,0.1698796043396,-0.320067859649658,-0.256833364831943,1.48532597952456,-0.0061611245162,-0.847371837689399,-0.273916173595114,0.099381429806067,-0.320428770767117
0.001067494857733,0.030239135560664,0.021467222223046,-0.021705169068623,0.008604385945869,0.030621372375245,0.049512106177075,-0.270194194793701,4.07979791641235,0.00968412399292,-2.00109216690063,-0.240342350006104,0.166542087554932,-0.319400356292725,-0.257779330266753,1.46528170755066,-0.006470895799397,-0.844661765284823,-0.274103398654657,0.099237518931892,-0.32053001083007
0.001067554744343,0.030239015678361,0.021467042454133,-0.02170504918632,0.008604577583021,0.030621552144158,0.049512106177075,-0.264817195892334,4.08248641586304,0.00968412399292,-2.00285291671753,-0.240342350006104,0.167543342590332,-0.320067859649658,-0.25872057790529,1.44862313518118,-0.007734615003106,-0.842079881928602,-0.274027348848106,0.09887490547863,-0.320190829969125
0.001067494857733,0.030238895905141,0.021467282109656,-0.02170504918632,0.008604385945869,0.030621612139851,0.049512285945988,-0.258095947265625,4.10802716064453,0.012325248718262,-2.01077629089355,-0.242983474731445,0.168210845947266,-0.321402866363525,-0.259469133893522,1.42551158523086,-0.008677120685646,-0.835208193748514,-0.274010259808584,0.098645024038459,-0.320132710647983
0.001067494857733,0.030239015678361,0.021467042454133,-0.02170498929971,0.008604673401597,0.030621432370938,0.049512405719208,-0.264817195892334,4.15104315185547,0.013205623626709,-2.0134174156189,-0.239461975097656,0.167543342590332,-0.318732852935791,-0.25989020510962,1.41986747074814,-0.009335584909618,-0.832877580583815,-0.273900809092589,0.098489510406766,-0.320137379208438
0.00106737497543,0.030239195447274,0.021467162336436,-0.02170510907293,0.008604577583021,0.030621552144158,0.049512405719208,-0.255407447814941,4.19271489334107,0.014966373443604,-2.02574266433716,-0.239461975097656,0.168544597625732,-0.319734107971191,-0.260184437404268,1.42279511403277,-0.009321254289182,-0.831247343870123,-0.27367285637979,0.098614209575229,-0.320085447182148
0.00106725520221,0.030239075674054,0.021467581760872,-0.021705169068623,0.008604385945869,0.030621672026461,0.049512405719208,-0.260784446716309,4.235730884552,0.015846748352051,-2.0283837890625,-0.239461975097656,0.168210845947266,-0.317397846221924,-0.25938393766193,1.44541845371216,-0.008487379070432,-0.835830630250561,-0.273288004745027,0.098897262425674,-0.320172088481234
0.00106725520221,0.030239195447274,0.021467342105349,-0.021705169068623,0.008604385945869,0.030621612139851,0.049511926408162,-0.251374698638916,4.23841938400269,0.014085998535156,-2.03366603851318,-0.243863849639893,0.1718821144104,-0.318399101257324,-0.25879747899199,1.4711929806235,-0.007411604350821,-0.8415421963084,-0.273017412584372,0.099218230857649,-0.320083529557222
0.00106725520221,0.03023949509849,0.021467401991959,-0.021705169068623,0.008604385945869,0.030621731913071,0.049512285945988,-0.264817195892334,4.23438663482666,0.012325248718262,-2.03278566360474,-0.238581600189209,0.169545852661133,-0.321069114685059,-0.258697095083167,1.48312194669339,-0.006145186494683,-0.843997717752916,-0.27260264273253,0.099502328774327,-0.320001081096832
0.001067494857733,0.030239315329577,0.021467521874262,-0.021705228955233,0.008604577583021,0.030621672026461,0.049512585488121,-0.258095947265625,4.21019013977051,0.015846748352051,-2.02222116470337,-0.241222724914551,0.169212100982666,-0.318732852935791,-0.258447628300065,1.49286703397916,-0.005926588449952,-0.845988038149989,-0.272180789024984,0.099355027468485,-0.319892762107665
0.00106725520221,0.030239135560664,0.021467701643175,-0.021705169068623,0.008604385945869,0.030621911681983,0.049512285945988,-0.256751697540283,4.16851839828491,0.007042999267578,-2.01869966506958,-0.242983474731445,0.170880859375,-0.319066604614258,-0.258709687811353,1.48660926367056,-0.006329722821063,-0.843979295925461,-0.272149357744609,0.099415660725033,-0.319852239899392
0.00106725520221,0.030239075674054,0.021467821416395,-0.02170510907293,0.008604385945869,0.030621791908764,0.049512106177075,-0.264817195892334,4.12684665679932,0.008803749084473,-2.01429779052734,-0.239461975097656,0.167877094268799,-0.317397846221924,-0.259043800547283,1.48082631637654,-0.007098437349475,-0.844635828592505,-0.272064533943437,0.099415859726103,-0.319944766145504
0.00106737497543,0.030239135560664,0.021467521874262,-0.02170504918632,0.008604385945869,0.030621971677677,0.049511866412469,-0.268849945068359,4.11205990982056,0.007923374176025,-2.00813516616821,-0.235940475463867,0.170880859375,-0.323405376434326,-0.260615534521656,1.45980864152255,-0.00782000849393,-0.840489511839725,-0.272109481400152,0.099107434039034,-0.319786474044159
0.00106725520221,0.030238895905141,0.021467701643175,-0.02170510907293,0.008604289952761,0.030621911681983,0.049512585488121,-0.260784446716309,4.09996166229248,0.014966373443604,-2.00813516616821,-0.239461975097656,0.168210845947266,-0.320401611328125,-0.262096239779567,1.45644607961117,-0.008016377658876,-0.8430502032504,-0.271633825926997,0.099151180214626,-0.31979785892738
0.00106737497543,0.030239135560664,0.021467401991959,-0.02170504918632,0.008604577583021,0.030621971677677,0.049512285945988,-0.267505695343018,4.12146965789795,0.010564498901367,-2.00989591598511,-0.237701225280762,0.166542087554932,-0.320735363006592,-0.262679446809843,1.43621363927838,-0.008245167595127,-0.837368365862834,-0.271963235677977,0.09878270488325,-0.319877477372591
0.00106725520221,0.030239135560664,0.021467521874262,-0.02170510907293,0.008604577583021,0.030621971677677,0.049512285945988,-0.258095947265625,4.16314139938355,0.012325248718262,-2.01781929016113,-0.237701225280762,0.168210845947266,-0.319066604614258,-0.263353519883339,1.44103686820482,-0.008665942302818,-0.839397700234954,-0.272016947183248,0.098648021398846,-0.320000141550585
0.00106737497543,0.030239075674054,0.021467821416395,-0.02170504918632,0.008604577583021,0.030621851795374,0.049511986294772,-0.266161445617676,4.20481314086914,0.014085998535156,-2.02310153961182,-0.243863849639893,0.170213356018066,-0.322070369720459,-0.263314310067394,1.44832545387796,-0.008459579037209,-0.839749045414072,-0.272142309862743,0.098737539081625,-0.319799600031975
0.00106731508882,0.030239195447274,0.021467941298698,-0.021705169068623,0.008604385945869,0.030621851795374,0.049512405719208,-0.259440196990967,4.23976363372803,0.013205623626709,-2.03190528869629,-0.236820850372314,0.170547107696533,-0.318732852935791,-0.263223708453108,1.46872731227646,-0.007773522918445,-0.843423284518616,-0.272240746502339,0.099243790709014,-0.319838460004372
0.00106737497543,0.03023949509849,0.021467581760872,-0.021705288841843,0.008604577583021,0.030622091450896,0.049512285945988,-0.259440196990967,4.24782913208008,0.010564498901367,-2.03014453887939,-0.23506010055542,0.170547107696533,-0.319066604614258,-0.262395253923293,1.48286185011052,-0.007067403235781,-0.845606810768421,-0.272056856821022,0.099649064486081,-0.319797648002991
0.00106725520221,0.030239315329577,0.021468001185308,-0.021705228955233,0.008604385945869,0.030622091450896,0.049512285945988,-0.263472946166992,4.23438663482666,0.013205623626709,-2.03278566360474,-0.237701225280762,0.171214611053467,-0.318399101257324,-0.261889334295566,1.49113439662623,-0.007078166144324,-0.845962234877818,-0.271540473178835,0.099834193187279,-0.319783899299076
0.001067135319907,0.030239375216187,0.021468001185308,-0.021705228955233,0.008604385945869,0.030622091450896,0.049512046181382,-0.26212869644165,4.20078039169312,0.010564498901367,-2.02222116470337,-0.239461975097656,0.172549617767334,-0.321736618041992,-0.261312847350482,1.49121591687451,-0.007306306914563,-0.844466302193507,-0.270994021595213,0.100077854580994,-0.319741102356654
0.00106737497543,0.030239315329577,0.021467761529785,-0.021705228955233,0.008604673401597,0.030621731913071,0.049512645483814,-0.263472946166992,4.14701040267944,0.008803749084473,-2.011656665802,-0.242103099822998,0.169545852661133,-0.321402866363525,-0.261140573512563,1.47799980629383,-0.008055542168276,-0.841050134061029,-0.271203144673155,0.099928815229937,-0.319664128551691
0.001067135319907,0.030239135560664,0.021468001185308,-0.021705169068623,0.008604385945869,0.030622211333199,0.049512285945988,-0.272882694244385,4.11609265899658,0.007923374176025,-2.00901554107666,-0.243863849639893,0.167543342590332,-0.320401611328125,-0.261289501672116,1.46409852928198,-0.008493175508566,-0.839661738302226,-0.271387883037171,0.099711068588424,-0.31948309574487
0.001067135319907,0.030238955791751,0.021468001185308,-0.021705169068623,0.008604385945869,0.030622211333199,0.049512285945988,-0.26212869644165,4.09592891311646,0.007923374176025,-2.00725479125977,-0.236820850372314,0.170213356018066,-0.319066604614258,-0.261426987942578,1.46810970370433,-0.009070400668714,-0.845082118710652,-0.27165572341768,0.099783171834591,-0.319554866465578
0.00106731508882,0.030238955791751,0.021467941298698,-0.02170504918632,0.008604577583021,0.030622151446589,0.049512285945988,-0.263472946166992,4.11071566009522,0.00968412399292,-2.00813516616821,-0.239461975097656,0.167543342590332,-0.321069114685059,-0.261258863779913,1.44251984594655,-0.009767968738085,-0.837644009292384,-0.271914029992805,0.099202124707782,-0.319755352392526
0.00106731508882,0.030239135560664,0.021467641647482,-0.021705228955233,0.008604577583021,0.030622091450896,0.049512405719208,-0.260784446716309,4.14297765350342,0.007923374176025,-2.0134174156189,-0.242983474731445,0.169212100982666,-0.318732852935791,-0.262408123799861,1.42020471710988,-0.009933637240414,-0.830422779338856,-0.271635650375191,0.098844820594884,-0.31993960234023
0.001067075433297,0.030238955791751,0.021468001185308,-0.021705169068623,0.008604577583021,0.030622091450896,0.049512285945988,-0.266161445617676,4.17523964691162,0.005282249450684,-2.01693891525269,-0.23506010055542,0.168544597625732,-0.318732852935791,-0.262810097179186,1.44763392565961,-0.009496512851678,-0.840444050922617,-0.271217203509833,0.099256551753907,-0.319873182817576
0.001067195206517,0.030239195447274,0.021467941298698,-0.02170510907293,0.008604577583021,0.030622031564286,0.049512285945988,-0.268849945068359,4.21691138839722,0.00968412399292,-2.02398191452026,-0.236820850372314,0.170213356018066,-0.318399101257324,-0.263725576269238,1.45411288570377,-0.009823942812829,-0.839607196227768,-0.271169841481668,0.099136301423189,-0.319625647199358
0.001067135319907,0.030239315329577,0.021467881412088,-0.021705169068623,0.008604577583021,0.030622211333199,0.049512285945988,-0.256751697540283,4.23035388565063,0.012325248718262,-2.03806791305542,-0.237701225280762,0.170213356018066,-0.317731597900391,-0.264392070092679,1.46667895922468,-0.009440828283594,-0.840292527058542,-0.270959159531243,0.099104578463475,-0.319505138108095
0.001067075433297,0.030239375216187,0.021467881412088,-0.021705228955233,0.008604577583021,0.030622271219809,0.049512285945988,-0.260784446716309,4.22766538619995,0.010564498901367,-2.02574266433716,-0.241222724914551,0.168878349304199,-0.321402866363525,-0.263150088186106,1.48484223205986,-0.008605515736878,-0.844435930945575,-0.270317703312002,0.099299065904925,-0.319438657509805
0.001067135319907,0.030239315329577,0.021468240840831,-0.021705169068623,0.008604385945869,0.030622271219809,0.049512405719208,-0.259440196990967,4.21691138839722,0.010564498901367,-2.02134078979492,-0.237701225280762,0.169212100982666,-0.319066604614258,-0.262492193439,1.49405637627147,-0.008319794182018,-0.845943911101108,-0.269827537335369,0.099402808797222,-0.319669285936751
0.00106737497543,0.03023943521188,0.021467761529785,-0.021705348728453,0.008604673401597,0.030622151446589,0.049512285945988,-0.263472946166992,4.18464939498901,0.014085998535156,-2.01693891525269,-0.23506010055542,0.170880859375,-0.317731597900391,-0.262632666337401,1.48711257196741,-0.008280253044318,-0.84279677603012,-0.269717547033828,0.09933668971452,-0.319547580652351
0.001067195206517,0.030239195447274,0.021468061181001,-0.021705169068623,0.008604577583021,0.030622151446589,0.049512285945988,-0.268849945068359,4.15104315185547,0.007923374176025,-2.01517816543579,-0.232418975830078,0.167877094268799,-0.317731597900391,-0.26277289730314,1.47889120091846,-0.008208803906552,-0.840619742334158,-0.269462127588807,0.099309143787508,-0.319509471294422
0.001067195206517,0.030239315329577,0.021467881412088,-0.021705228955233,0.008604577583021,0.030622331215502,0.049512166063685,-0.263472946166992,4.1134041595459,0.008803749084473,-2.00637441635132,-0.235940475463867,0.166875839233398,-0.321402866363525,-0.262844774216504,1.47103906975146,-0.00856721397273,-0.840857230796173,-0.269168647918183,0.099083130357127,-0.319496026203068
0.001066835668691,0.030238955791751,0.021468360723134,-0.02170510907293,0.008604289952761,0.030622391102112,0.049512405719208,-0.274226943969727,4.11474840927124,0.007923374176025,-2.00637441635132,-0.242983474731445,0.167543342590332,-0.320067859649658,-0.26361378160968,1.45410175698847,-0.009321747442577,-0.83691561862162,-0.269263206132724,0.098558259120296,-0.319324441724832
0.001066955550994,0.030238895905141,0.021468240840831,-0.02170498929971,0.008604289952761,0.030622630757635,0.049512285945988,-0.271538444519043,4.12146965789795,0.008803749084473,-2.00549404144287,-0.240342350006104,0.163872074127197,-0.318399101257324,-0.264936100662621,1.43317863263621,-0.009554077906404,-0.831622973940222,-0.270099675325499,0.098107945476784,-0.319349594675633
0.001067075433297,0.030239135560664,0.021468061181001,-0.021705169068623,0.008604385945869,0.030622450988722,0.049512405719208,-0.266161445617676,4.14432190322876,0.007923374176025,-2.01517816543579,-0.238581600189209,0.167209590911865,-0.316396591186523,-0.264729183568235,1.43720379813542,-0.009637622690273,-0.834438674806051,-0.270416616771515,0.097873453503945,-0.319386012433345
0.001067075433297,0.030238955791751,0.021468180954221,-0.021705169068623,0.008604385945869,0.030622570871025,0.049511926408162,-0.263472946166992,4.17389539718628,0.006162624359131,-2.02046041488647,-0.232418975830078,0.170213356018066,-0.321069114685059,-0.265230570541898,1.43511559976172,-0.009991477740763,-0.832725449135082,-0.270153919456242,0.097813195124934,-0.319363807520793
0.001067075433297,0.030239195447274,0.021467941298698,-0.021705228955233,0.008604577583021,0.030622450988722,0.049512405719208,-0.267505695343018,4.20884589004517,0.007042999267578,-2.02750341415405,-0.235940475463867,0.166208335876465,-0.318399101257324,-0.265697137449234,1.45336086684655,-0.009746327706681,-0.837443439336203,-0.26979053723974,0.098324730465441,-0.31967773302995
0.001067075433297,0.030239315329577,0.021468001185308,-0.021705228955233,0.008604385945869,0.030622450988722,0.049512285945988,-0.259440196990967,4.23169813537598,0.010564498901367,-2.02750341415405,-0.239461975097656,0.168210845947266,-0.321736618041992,-0.264901682945661,1.4760682504219,-0.008940114381661,-0.842852869668112,-0.269114040148032,0.098713474385527,-0.319468382842692
0.001066955550994,0.030239315329577,0.021468180954221,-0.021705228955233,0.008604385945869,0.030622570871025,0.049512285945988,-0.263472946166992,4.22497688674927,0.010564498901367,-2.02662303924561,-0.238581600189209,0.169212100982666,-0.31673034286499,-0.264520764284017,1.47557786137033,-0.008454128529612,-0.839099033521542,-0.269553222343258,0.098870299581956,-0.319350181823489
0.001066955550994,0.030239195447274,0.021468001185308,-0.021705169068623,0.008604385945869,0.030622570871025,0.049512285945988,-0.266161445617676,4.20750164031982,0.00968412399292,-2.02398191452026,-0.237701225280762,0.170213356018066,-0.320401611328125,-0.263599945770542,1.50194456090078,-0.00765885489487,-0.847997232782619,-0.269228311324961,0.099702725599772,-0.319205515245476
0.001066955550994,0.030239315329577,0.021468300836524,-0.021705228955233,0.008604577583021,0.030622630757635,0.049512285945988,-0.258095947265625,4.17658389663696,0.012325248718262,-2.01958003997803,-0.23506010055542,0.170547107696533,-0.318732852935791,-0.263217696965198,1.49005637130484,-0.006887543142612,-0.842735512443437,-0.269289057579065,0.099640336427219,-0.319108005308323
0.001066955550994,0.030239135560664,0.021468360723134,-0.021705288841843,0.008604385945869,0.030622450988722,0.049512405719208,-0.267505695343018,4.13760065460205,0.008803749084473,-2.00901554107666,-0.237701225280762,0.167209590911865,-0.320067859649658,-0.263173829678378,1.48085081309477,-0.006635502283253,-0.840698674522314,-0.269040393158738,0.099751800761191,-0.319097623160403
0.001066835668691,0.030239075674054,0.021468480605437,-0.02170510907293,0.008604385945869,0.030622690644245,0.049512225950295,-0.258095947265625,4.12550240707397,0.008803749084473,-2.00813516616821,-0.240342350006104,0.170213356018066,-0.317064094543457,-0.264262333195876,1.46204610202996,-0.007084136824311,-0.836664031045571,-0.269171185458921,0.099370122525331,-0.319145538151985
0.001066955550994,0.030238895905141,0.021468540492047,-0.021705169068623,0.008604385945869,0.030622630757635,0.049512046181382,-0.260784446716309,4.12012540817261,0.010564498901367,-2.01253704071045,-0.239461975097656,0.167877094268799,-0.320067859649658,-0.263535063242166,1.45091721957326,-0.007597158322563,-0.835534439428474,-0.26919731940584,0.099181102806141,-0.319156208607836
0.001067075433297,0.030238895905141,0.021468121067611,-0.021705228955233,0.008604673401597,0.030622510875332,0.049512465714901,-0.264817195892334,4.12415815734863,0.014966373443604,-2.00725479125977,-0.23506010055542,0.166208335876465,-0.318732852935791,-0.2635647850752,1.44805574383538,-0.007755110892998,-0.836523227915771,-0.268740715045656,0.099004424033845,-0.31899921527237
0.001066955550994,0.030239075674054,0.021468300836524,-0.021705169068623,0.008604577583021,0.030622510875332,0.049512465714901,-0.266161445617676,4.16045289993286,0.012325248718262,-2.0134174156189,-0.233299350738525,0.168210845947266,-0.315395336151123,-0.263814689023999,1.43205164808125,-0.007731856381054,-0.831180266186753,-0.268223031744683,0.098539964849628,-0.318723140716141
0.001066955550994,0.030238955791751,0.021468300836524,-0.021705169068623,0.008604577583021,0.030622750639938,0.049512106177075,-0.259440196990967,4.18868214416504,0.014966373443604,-2.01605854034424,-0.231538600921631,0.170213356018066,-0.319400356292725,-0.264147367113547,1.44079522768853,-0.00793609771048,-0.834144614752109,-0.267477287972129,0.098564882409072,-0.318482768694921
0.001066955550994,0.030239135560664,0.021468300836524,-0.021705228955233,0.008604385945869,0.030622750639938,0.049512405719208,-0.267505695343018,4.20884589004517,0.010564498901367,-2.02486228942871,-0.240342350006104,0.170547107696533,-0.319400356292725,-0.264519232814087,1.45862971470403,-0.007851875290097,-0.838275239903177,-0.267489984944406,0.098646590538197,-0.31852837553976
0.001066955550994,0.030239315329577,0.021468360723134,-0.021705228955233,0.008604385945869,0.030622690644245,0.049512285945988,-0.266161445617676,4.21556713867188,0.014966373443604,-2.02574266433716,-0.234179725646973,0.169545852661133,-0.321069114685059,-0.263620347582254,1.47185917315681,-0.007687056953914,-0.840759623193206,-0.267874073392745,0.098840379353827,-0.318374757011688
0.001066895664384,0.030239375216187,0.021468360723134,-0.021705228955233,0.008604385945869,0.030622750639938,0.049512585488121,-0.266161445617676,4.20750164031982,0.013205623626709,-2.01958003997803,-0.233299350738525,0.170213356018066,-0.318399101257324,-0.262903140169439,1.48382972971947,-0.007583551975317,-0.843662200877573,-0.267388749972837,0.099160312984169,-0.318432268817049
0.001067075433297,0.03023943521188,0.021468121067611,-0.021705288841843,0.008604577583021,0.030622750639938,0.049512405719208,-0.260784446716309,4.20615739059448,0.00968412399292,-2.02574266433716,-0.23506010055542,0.170880859375,-0.31673034286499,-0.26310227000463,1.48643837022814,-0.00762042648016,-0.843341010743673,-0.266671227640124,0.099201196211006,-0.318386967317824
0.001066835668691,0.030239195447274,0.021468360723134,-0.021705228955233,0.008604577583021,0.030622690644245,0.049512285945988,-0.259440196990967,4.1712068977356,0.012325248718262,-2.02046041488647,-0.232418975830078,0.1698796043396,-0.318732852935791,-0.262914193315828,1.48979205369166,-0.007550093632788,-0.844928079800274,-0.266880921167246,0.099279619085849,-0.318337687903999
0.001067075433297,0.030239195447274,0.021468420609744,-0.021705228955233,0.008604577583021,0.030622870413158,0.049512645483814,-0.260784446716309,4.14701040267944,0.011444873809815,-2.01077629089355,-0.240342350006104,0.168210845947266,-0.318065349578857,-0.262717487095263,1.48167881091686,-0.007326904779835,-0.843048796842079,-0.266979557219381,0.098979653271631,-0.318313446821664
0.001066835668691,0.030239195447274,0.021468360723134,-0.021705169068623,0.008604577583021,0.030622750639938,0.049512285945988,-0.259440196990967,4.12953515625,0.00968412399292,-2.01253704071045,-0.242103099822998,0.167209590911865,-0.318399101257324,-0.2627640317004,1.47497083698674,-0.007208497129551,-0.842818363824133,-0.26712182147891,0.098872789182078,-0.318262881678158
0.001066895664384,0.030238955791751,0.021468600378657,-0.021705228955233,0.008604577583021,0.030622990295461,0.049512285945988,-0.264817195892334,4.12953515625,0.007042999267578,-2.00373329162598,-0.23506010055542,0.168210845947266,-0.317064094543457,-0.262834889264576,1.4638561343556,-0.007226875152516,-0.840457718913587,-0.267769472750977,0.098619850678736,-0.318160133826584
0.001066835668691,0.030239015678361,0.021468600378657,-0.021705169068623,0.008604577583021,0.030622870413158,0.049512166063685,-0.263472946166992,4.13356790542603,0.012325248718262,-2.00989591598511,-0.237701225280762,0.168878349304199,-0.320067859649658,-0.263264590012845,1.44837403167908,-0.007690505147887,-0.835310617140396,-0.267548737874894,0.098373262005873,-0.31804863600405
0.001066835668691,0.030239135560664,0.021468420609744,-0.021705228955233,0.008604577583021,0.030622750639938,0.049512465714901,-0.259440196990967,4.15373165130615,0.00968412399292,-2.01693891525269,-0.236820850372314,0.169212100982666,-0.320401611328125,-0.263252883135902,1.43643810527253,-0.008205713680026,-0.831462352280207,-0.267613636523544,0.098248236623499,-0.318087981559865
0.001066835668691,0.030239135560664,0.021468480605437,-0.021705228955233,0.008604577583021,0.030622870413158,0.049512465714901,-0.266161445617676,4.17792814636231,0.007042999267578,-2.01693891525269,-0.236820850372314,0.170880859375,-0.318732852935791,-0.263615497423893,1.45198431890769,-0.008279932297549,-0.837409303790124,-0.267720206269865,0.098582936976614,-0.318262413077931
0.001066775782081,0.030239315329577,0.021468420609744,-0.021705228955233,0.008604577583021,0.030622930408851,0.049512285945988,-0.270194194793701,4.20615739059448,0.013205623626709,-2.02574266433716,-0.234179725646973,0.168878349304199,-0.317064094543457,-0.2641265785204,1.45071351290502,-0.008003752724135,-0.834160444540158,-0.267887467290768,0.098432043758072,-0.318231527556479
0.001066955550994,0.030239195447274,0.021468420609744,-0.021705228955233,0.008604577583021,0.030622930408851,0.049512285945988,-0.268849945068359,4.21825563812256,0.011444873809815,-2.02662303924561,-0.236820850372314,0.170547107696533,-0.320735363006592,-0.264513840526664,1.46628732101129,-0.007848410395769,-0.837362111238231,-0.267589721632072,0.098666685337503,-0.31814451325923
0.001066835668691,0.030239195447274,0.02146872026096,-0.021705169068623,0.008604385945869,0.030623050182071,0.049512405719208,-0.26212869644165,4.21556713867188,0.014085998535156,-2.02398191452026,-0.236820850372314,0.170213356018066,-0.320067859649658,-0.265006580135579,1.48314417131579,-0.007768408451509,-0.842216007278148,-0.267707144226051,0.099125279334996,-0.318189196865341
0.001066775782081,0.030239195447274,0.021468540492047,-0.021705288841843,0.008604577583021,0.030623110177764,0.049512645483814,-0.264817195892334,4.20615739059448,0.007042999267578,-2.01958003997803,-0.237701225280762,0.169212100982666,-0.318399101257324,-0.264210336721305,1.4802983628338,-0.007329252922291,-0.839840222638297,-0.267878731109589,0.099346862520602,-0.318293690064277
0.001066655899778,0.030239075674054,0.021468840143263,-0.02170510907293,0.008604385945869,0.030623050182071,0.049512106177075,-0.263472946166992,4.17255114746094,0.012325248718262,-2.01693891525269,-0.237701225280762,0.171548362731934,-0.321069114685059,-0.263521956957711,1.48855563807657,-0.007242174150075,-0.842745073531419,-0.268490241031619,0.099775828756501,-0.318185202481332
0.001066835668691,0.030239195447274,0.021468540492047,-0.021705169068623,0.008604577583021,0.030622930408851,0.049512705370424,-0.266161445617676,4.15373165130615,0.011444873809815,-2.0134174156189,-0.234179725646973,0.168878349304199,-0.314060329437256,-0.264223004100394,1.4597613947534,-0.007457579228102,-0.833001585567457,-0.268866247179928,0.099427139882342,-0.317980642228171
0.001066775782081,0.030239015678361,0.02146866037435,-0.021705169068623,0.008604385945869,0.030623050182071,0.049512106177075,-0.264817195892334,4.13356790542603,0.012325248718262,-2.00725479125977,-0.23506010055542,0.171214611053467,-0.31673034286499,-0.263601166874638,1.46421387642282,-0.007133057789094,-0.83711902802313,-0.268246546489592,0.099194956895285,-0.317708868123628
0.001066655899778,0.030238955791751,0.021468840143263,-0.02170510907293,0.008604385945869,0.030623170064374,0.049512225950295,-0.260784446716309,4.13625640487671,0.012325248718262,-2.00989591598511,-0.235940475463867,0.168544597625732,-0.316062839508057,-0.263676654556268,1.45179678140053,-0.007348161929385,-0.834427272695719,-0.268333015286697,0.099023101526881,-0.317405385220131
0.001066655899778,0.030239195447274,0.02146866037435,-0.021705169068623,0.008604577583021,0.030622990295461,0.049512285945988,-0.271538444519043,4.1456661529541,0.012325248718262,-2.01693891525269,-0.233299350738525,0.169212100982666,-0.317397846221924,-0.263224680914107,1.45110522691077,-0.007291787842377,-0.835452380795119,-0.267994312754214,0.099230756725181,-0.317178814525228
0.001066775782081,0.030239135560664,0.02146866037435,-0.021705228955233,0.008604673401597,0.030622990295461,0.049512405719208,-0.272882694244385,4.16314139938355,0.012325248718262,-2.011656665802,-0.235940475463867,0.168878349304199,-0.317731597900391,-0.264003139859072,1.45337559630041,-0.007382938508247,-0.83666408863652,-0.267852915055062,0.09932339835289,-0.317175852703241
0.001066536126558,0.030239075674054,0.021469019912176,-0.021705228955233,0.008604385945869,0.030623349833287,0.049512285945988,-0.266161445617676,4.18599364471436,0.012325248718262,-2.01781929016113,-0.235940475463867,0.170213356018066,-0.318732852935791,-0.265411296909643,1.4544855490464,-0.007047125900044,-0.835303991617242,-0.267510516934103,0.099234780168093,-0.317132456058351
0.001066775782081,0.030239315329577,0.021468840143263,-0.021705169068623,0.008604385945869,0.030623050182071,0.049512405719208,-0.260784446716309,4.19943614196777,0.007923374176025,-2.01958003997803,-0.235940475463867,0.167543342590332,-0.31572908782959,-0.264813859914144,1.46082890787472,-0.007483781113137,-0.836225897977293,-0.267142908691412,0.099522786260312,-0.316900344463911
0.001066655899778,0.030239315329577,0.021468540492047,-0.021705228955233,0.008604577583021,0.030623110177764,0.049512285945988,-0.267505695343018,4.20212464141846,0.00968412399292,-2.02398191452026,-0.236820850372314,0.172549617767334,-0.317064094543457,-0.265298100940135,1.46695006975948,-0.007545567735349,-0.836376486918735,-0.267006320009713,0.099769256971223,-0.316797996483728
0.001066775782081,0.030239315329577,0.02146866037435,-0.021705288841843,0.008604577583021,0.030623170064374,0.049512166063685,-0.267505695343018,4.20212464141846,0.012325248718262,-2.01869966506958,-0.236820850372314,0.1698796043396,-0.315395336151123,-0.265661464840085,1.46951872285078,-0.00764537074801,-0.835835217148696,-0.267183219882362,0.099802302194379,-0.316704005161938
0.001066655899778,0.030239075674054,0.021468840143263,-0.021705169068623,0.008604577583021,0.030623349833287,0.049512285945988,-0.266161445617676,4.18599364471436,0.015846748352051,-2.0134174156189,-0.239461975097656,0.170880859375,-0.316396591186523,-0.26547409195813,1.48295728182892,-0.007155831838657,-0.840440583309674,-0.267338123893078,0.099967718190623,-0.316804244638034
0.001066835668691,0.030239315329577,0.02146878014757,-0.021705228955233,0.008604577583021,0.030623110177764,0.049512285945988,-0.266161445617676,4.16851839828491,0.010564498901367,-2.00989591598511,-0.23506010055542,0.166875839233398,-0.317731597900391,-0.264776975038597,1.47523725326455,-0.00682843481174,-0.837787812257507,-0.268058552917933,0.099822176761555,-0.316681996438994
0.001066655899778,0.030239195447274,0.02146878014757,-0.021705228955233,0.008604385945869,0.030623229950984,0.049512106177075,-0.260784446716309,4.15104315185547,0.014966373443604,-2.00989591598511,-0.236820850372314,0.168210845947266,-0.314727832794189,-0.264592353712763,1.45981891574943,-0.00677008584655,-0.832087046350173,-0.267943789765139,0.099549062356708,-0.316706734826117
0.001066895664384,0.030239135560664,0.021468900029873,-0.021705228955233,0.008604673401597,0.030623170064374,0.049512106177075,-0.263472946166992,4.14969890213013,0.010564498901367,-2.00461366653442,-0.242983474731445,0.168544597625732,-0.317731597900391,-0.265215266029384,1.46154351675611,-0.00644496482842,-0.83463620915825,-0.268053874766536,0.099632183581506,-0.316764453164976
0.001066775782081,0.030239075674054,0.021469079798786,-0.021705169068623,0.008604289952761,0.030623110177764,0.049512285945988,-0.272882694244385,4.14297765350342,0.013205623626709,-2.00637441635132,-0.239461975097656,0.169545852661133,-0.317397846221924,-0.265839400966042,1.44887204258754,-0.006756619036246,-0.830319440214578,-0.268781287280579,0.099295193213194,-0.316863981592693
0.001066835668691,0.030239135560664,0.021469019912176,-0.021705228955233,0.008604577583021,0.030623170064374,0.049512166063685,-0.267505695343018,4.16582989883423,0.008803749084473,-2.00989591598511,-0.234179725646973,0.170213356018066,-0.317731597900391,-0.26630463396707,1.44445216483908,-0.007220476559158,-0.82808294413538,-0.268871045755703,0.099158310884099,-0.316816440642821
0.001066775782081,0.030239195447274,0.021468900029873,-0.021705228955233,0.008604577583021,0.030623229950984,0.049512285945988,-0.26212869644165,4.16986264801025,0.013205623626709,-2.011656665802,-0.23506010055542,0.169212100982666,-0.314727832794189,-0.266649009954672,1.45600303764591,-0.007462976743592,-0.832164411178127,-0.269034324060867,0.099235129065836,-0.316824691516817
0.001066775782081,0.030239315329577,0.02146866037435,-0.021705288841843,0.008604577583021,0.030623289946677,0.049512106177075,-0.267505695343018,4.18599364471436,0.012325248718262,-2.01605854034424,-0.23506010055542,0.168878349304199,-0.319066604614258,-0.266301764964429,1.45043123553195,-0.007084008990329,-0.829080588736781,-0.268569823555182,0.099237560189456,-0.316692963694704
0.001066596013168,0.030239135560664,0.021469019912176,-0.021705169068623,0.008604577583021,0.030623349833287,0.049512525601511,-0.272882694244385,4.19943614196777,0.014085998535156,-2.01253704071045,-0.235940475463867,0.171548362731934,-0.318732852935791,-0.266692736026518,1.47482681186059,-0.006587006115751,-0.837341937867233,-0.268403968088999,0.099839715036831,-0.316954105842735
0.001066835668691,0.030239315329577,0.021468840143263,-0.021705408724146,0.008604577583021,0.030623170064374,0.049512345832598,-0.26212869644165,4.19809189224243,0.013205623626709,-2.01958003997803,-0.232418975830078,0.170213356018066,-0.31572908782959,-0.266647086216393,1.47309510228252,-0.006558857398476,-0.834822050789775,-0.268237148156368,0.099940860298145,-0.316967652121108
0.001066655899778,0.030239135560664,0.021469139685396,-0.021705169068623,0.008604385945869,0.030623409719897,0.049512106177075,-0.263472946166992,4.19540339279175,0.008803749084473,-2.01869966506958,-0.233299350738525,0.1698796043396,-0.318065349578857,-0.266735255410647,1.46627732239455,-0.006486096757479,-0.831540377044633,-0.268121186201221,0.099852788097129,-0.316793929630187
0.001066655899778,0.030239315329577,0.021468840143263,-0.021705288841843,0.008604385945869,0.030623409719897,0.049512405719208,-0.264817195892334,4.17792814636231,0.013205623626709,-2.011656665802,-0.242103099822998,0.1698796043396,-0.317064094543457,-0.266391557362122,1.46841399174248,-0.006702777846762,-0.83172581013316,-0.268108474341286,0.099848146681298,-0.31672859617439
0.001066655899778,0.030239075674054,0.021469079798786,-0.021705228955233,0.008604577583021,0.030623409719897,0.049512285945988,-0.266161445617676,4.16582989883423,0.007923374176025,-2.00813516616821,-0.232418975830078,0.169545852661133,-0.320067859649658,-0.266006082497171,1.47644326159756,-0.006623114071261,-0.835042134248331,-0.268500822796568,0.100048875853079,-0.31672899666316
0.001066655899778,0.030239075674054,0.021469019912176,-0.021705288841843,0.008604385945869,0.030623409719897,0.049512405719208,-0.272882694244385,4.15642015075684,0.017607498168945,-2.00549404144287,-0.229777851104736,0.171214611053467,-0.316396591186523,-0.266518331537059,1.46267435703955,-0.00688667050009,-0.830585544154177,-0.268589418729238,0.099739706136169,-0.317059885016414
0.001066655899778,0.030238955791751,0.021469199681089,-0.021705169068623,0.008604385945869,0.0306235296022,0.049512046181382,-0.267505695343018,4.15238740158081,0.012325248718262,-2.00373329162598,-0.237701225280762,0.168544597625732,-0.31673034286499,-0.267508738480667,1.46356213362756,-0.006784861488729,-0.832222883887682,-0.268253586045842,0.099528651855622,-0.316956300270926
0.001066775782081,0.030239135560664,0.021468840143263,-0.021705228955233,0.008604673401597,0.030623349833287,0.049512285945988,-0.268849945068359,4.16045289993286,0.015846748352051,-2.00813516616821,-0.238581600189209,0.169212100982666,-0.313059074401855,-0.26769780863143,1.45788500260039,-0.006783301784255,-0.830284764731428,-0.267916864573885,0.099325682100624,-0.316927727019671
0.001066655899778,0.030238955791751,0.021469199681089,-0.021705169068623,0.008604385945869,0.03062358948881,0.049511986294772,-0.266161445617676,4.15910865020752,0.01936824798584,-2.00285291671753,-0.237701225280762,0.168878349304199,-0.31673034286499,-0.267587864564461,1.45723862084185,-0.006870216399733,-0.830678413932257,-0.267990642101151,0.099306816251293,-0.31685129238364
0.001066655899778,0.030239135560664,0.021469259567699,-0.021705288841843,0.008604577583021,0.030623409719897,0.049512405719208,-0.256751697540283,4.18196089553833,0.014966373443604,-2.00989591598511,-0.235940475463867,0.168878349304199,-0.317397846221924,-0.266732077247699,1.46415421249938,-0.006098942160319,-0.833154749445057,-0.267736186088321,0.099457683219268,-0.316808771316914
0.001066596013168,0.030239135560664,0.021469079798786,-0.021705169068623,0.008604577583021,0.030623409719897,0.049512285945988,-0.268849945068359,4.1873378944397,0.012325248718262,-2.01517816543579,-0.234179725646973,0.169545852661133,-0.318399101257324,-0.266504818382989,1.45488073567946,-0.005555996087533,-0.829123734574589,-0.267222318116957,0.099435983719023,-0.316712300417229
0.001066835668691,0.030239195447274,0.021468900029873,-0.021705468610756,0.008604577583021,0.030623349833287,0.049512465714901,-0.275571193695068,4.18599364471436,0.012325248718262,-2.01517816543579,-0.233299350738525,0.170880859375,-0.316062839508057,-0.266384591183246,1.47094994571609,-0.005548062026088,-0.834737300756694,-0.266609144631602,0.099756954382838,-0.316788059593793
0.001066955550994,0.030239375216187,0.021468900029873,-0.021705228955233,0.008604577583021,0.03062358948881,0.049512285945988,-0.266161445617676,4.19405914306641,0.012325248718262,-2.0134174156189,-0.233299350738525,0.171214611053467,-0.317397846221924,-0.267622332073164,1.46467168091375,-0.005716246362204,-0.830400313547378,-0.266525250812213,0.100099459149478,-0.317103992525678
0.001066596013168,0.030239195447274,0.021469319454309,-0.021705228955233,0.008604577583021,0.0306235296022,0.049512106177075,-0.26212869644165,4.1873378944397,0.012325248718262,-2.00989591598511,-0.233299350738525,0.172883369445801,-0.318399101257324,-0.267894890900395,1.47371869642648,-0.005510672742295,-0.833471804642265,-0.26660511780836,0.100518213988952,-0.317148854092132
0.001066655899778,0.030239195447274,0.021468959916483,-0.021705228955233,0.008604577583021,0.030623409719897,0.049512405719208,-0.270194194793701,4.17658389663696,0.00968412399292,-2.00637441635132,-0.236820850372314,0.170213356018066,-0.317731597900391,-0.268044590910505,1.47567852097978,-0.005454976916841,-0.833858649999294,-0.266410469781166,0.100763890021244,-0.31712706350119
0.001066655899778,0.030239195447274,0.021469079798786,-0.021705288841843,0.008604577583021,0.03062358948881,0.049512405719208,-0.259440196990967,4.16045289993286,0.012325248718262,-2.00725479125977,-0.230658226013184,0.170213356018066,-0.31673034286499,-0.267984045602539,1.46662410022137,-0.005685893467693,-0.830810481404251,-0.266793894281632,0.100715083131577,-0.317071346756251
0.001066476130865,0.030239075674054,0.021469319454309,-0.021705228955233,0.008604289952761,0.0306235296022,0.049512285945988,-0.270194194793701,4.15373165130615,0.007923374176025,-2.00901554107666,-0.235940475463867,0.169212100982666,-0.318065349578857,-0.267477851942197,1.46257547170335,-0.006117394511451,-0.829931755466987,-0.267024197039123,0.100586115032964,-0.316903761676326
0.001066596013168,0.030239135560664,0.021469079798786,-0.021705228955233,0.008604577583021,0.030623709371113,0.049512285945988,-0.274226943969727,4.15104315185547,0.004401874542236,-2.00197254180908,-0.237701225280762,0.169545852661133,-0.315395336151123,-0.267237721712215,1.46831615660038,-0.006527737171467,-0.8328782074699,-0.26747506109801,0.100743622539283,-0.316692369996976
0.001066596013168,0.030239135560664,0.021469139685396,-0.021705288841843,0.008604385945869,0.030623709371113,0.049512106177075,-0.263472946166992,4.15642015075684,0.00968412399292,-2.00461366653442,-0.236820850372314,0.1718821144104,-0.315395336151123,-0.267083285018484,1.46116928395622,-0.00757448962854,-0.83013438294254,-0.267079376803576,0.100565608174662,-0.31663591552465
0.001066775782081,0.030239195447274,0.021469079798786,-0.021705348728453,0.008604673401597,0.03062358948881,0.049512285945988,-0.267505695343018,4.1712068977356,0.010564498901367,-2.00813516616821,-0.23506010055542,0.1698796043396,-0.314394081115723,-0.267442035022473,1.45817378698202,-0.007785685926279,-0.829084306791618,-0.267511728514091,0.100343652007266,-0.316481843299799
0.001066596013168,0.030239195447274,0.021469259567699,-0.021705408724146,0.008604577583021,0.030623829144333,0.049511986294772,-0.259440196990967,4.18061664581299,0.015846748352051,-2.00461366653442,-0.233299350738525,0.170880859375,-0.315395336151123,-0.266879448219855,1.45792923580727,-0.008068933902475,-0.828509974486773,-0.267684598578754,0.100469743273115,-0.316346795005797
0.001066655899778,0.030239195447274,0.021469259567699,-0.021705408724146,0.008604385945869,0.030623709371113,0.049512465714901,-0.267505695343018,4.19002639389038,0.012325248718262,-2.01077629089355,-0.238581600189209,0.170547107696533,-0.314394081115723,-0.266236838871272,1.46113438447761,-0.00757176237003,-0.828408363197463,-0.267680469948502,0.100583006456642,-0.316248092692278
0.001066476130865,0.030239075674054,0.021469439336612,-0.021705288841843,0.008604289952761,0.030623829144333,0.049511866412469,-0.266161445617676,4.18330514526367,0.014085998535156,-2.01077629089355,-0.237701225280762,0.172215866088867,-0.316062839508057,-0.266155535080083,1.46234927262301,-0.007498698133967,-0.828276712091032,-0.268099627375752,0.100479829769924,-0.316148915710342
0.001066596013168,0.030239195447274,0.021469139685396,-0.021705288841843,0.008604385945869,0.030623829144333,0.049512285945988,-0.270194194793701,4.18868214416504,0.00968412399292,-2.0134174156189,-0.238581600189209,0.1718821144104,-0.317064094543457,-0.266416046419757,1.47052983676662,-0.007387559879061,-0.83067664158512,-0.268473024781923,0.100700503049105,-0.316261069726206
0.001066356357645,0.030238955791751,0.021469439336612,-0.021705228955233,0.008604289952761,0.030623949026636,0.049512225950295,-0.272882694244385,4.1712068977356,0.008803749084473,-2.01077629089355,-0.234179725646973,0.170547107696533,-0.316062839508057,-0.266734217363902,1.46644265062998,-0.007343636251372,-0.828866836542301,-0.268853452292765,0.100741328963365,-0.316146419416193
0.001066655899778,0.030239195447274,0.021469199681089,-0.021705228955233,0.008604385945869,0.030623829144333,0.049512285945988,-0.264817195892334,4.16986264801025,0.007042999267578,-2.00461366653442,-0.237701225280762,0.172215866088867,-0.316062839508057,-0.26799582325912,1.46198548283622,-0.007446723871859,-0.827578946394409,-0.268940483074605,0.100787143492926,-0.316247007207318
0.001066655899778,0.030239195447274,0.021469199681089,-0.021705348728453,0.008604577583021,0.030623829144333,0.049512166063685,-0.270194194793701,4.15776440048218,0.013205623626709,-2.00549404144287,-0.231538600921631,0.168878349304199,-0.316062839508057,-0.268450586748155,1.47486883393809,-0.007715951502561,-0.833714527922241,-0.268702054563978,0.100929164542629,-0.316405670980663
0.001066775782081,0.030239195447274,0.021469259567699,-0.021705408724146,0.008604385945869,0.030623829144333,0.049512285945988,-0.267505695343018,4.15910865020752,0.012325248718262,-2.00813516616821,-0.234179725646973,0.168210845947266,-0.31572908782959,-0.26892268868044,1.46685896429581,-0.008062203865359,-0.830591180944359,-0.268320274031234,0.100641341367329,-0.31661104401979
0.001066476130865,0.030239135560664,0.021469139685396,-0.021705228955233,0.008604385945869,0.030623949026636,0.049512285945988,-0.266161445617676,4.16582989883423,0.010564498901367,-2.00373329162598,-0.228017101287842,0.170547107696533,-0.318732852935791,-0.26848985926857,1.45803880969074,-0.008214714070733,-0.82741420749577,-0.267937394437466,0.100399822504502,-0.316494737143532
0.001066596013168,0.030239135560664,0.021469259567699,-0.021705408724146,0.008604385945869,0.030623709371113,0.049512645483814,-0.263472946166992,4.16448564910889,0.00968412399292,-2.00549404144287,-0.232418975830078,0.170880859375,-0.316062839508057,-0.267740023327351,1.46024322640369,-0.00801358715437,-0.828744141170087,-0.267831459870928,0.100455636606879,-0.3164967458657
0.001066655899778,0.030239195447274,0.021469079798786,-0.021705228955233,0.008604577583021,0.030623829144333,0.049512285945988,-0.271538444519043,4.16582989883423,0.012325248718262,-2.01253704071045,-0.242983474731445,0.169545852661133,-0.317731597900391,-0.267779417106425,1.45610454012366,-0.007981984579646,-0.827163135842129,-0.267601129312832,0.100436022324867,-0.316265968667409
0.001066476130865,0.030239075674054,0.021469439336612,-0.021705228955233,0.008604385945869,0.030623949026636,0.049512405719208,-0.274226943969727,4.17927239608765,0.004401874542236,-2.00637441635132,-0.235940475463867,0.171548362731934,-0.315395336151123,-0.26787150269763,1.46885137786837,-0.007635356065857,-0.832155184484075,-0.267513088102078,0.100630168757395,-0.316334769292067
0.001066476130865,0.030239135560664,0.021469379340919,-0.021705228955233,0.008604289952761,0.030623769257723,0.049512046181382,-0.263472946166992,4.17792814636231,0.014085998535156,-2.01693891525269,-0.235940475463867,0.170213356018066,-0.318732852935791,-0.267669222637072,1.45680043425899,-0.007482350268156,-0.826505321994991,-0.267394584063807,0.10041190326129,-0.316052920351484
0.001066356357645,0.030239075674054,0.021469439336612,-0.021705228955233,0.008604098315609,0.030623949026636,0.049512525601511,-0.266161445617676,4.17389539718628,0.007923374176025,-2.00549404144287,-0.230658226013184,0.1698796043396,-0.314394081115723,-0.267660177792116,1.46335815644212,-0.007206191051322,-0.829009419247148,-0.267487487615799,0.100554514396546,-0.315917748905515
0.001066655899778,0.030239315329577,0.021469199681089,-0.021705348728453,0.008604577583021,0.030624008913246,0.049512405719208,-0.26212869644165,4.17792814636231,0.010564498901367,-2.00285291671753,-0.234179725646973,0.1698796043396,-0.314060329437256,-0.268335770821304,1.46040339392688,-0.007307974623338,-0.826823290035521,-0.267149328322629,0.100320074368462,-0.316060484790746
0.001066476130865,0.030239195447274,0.021469439336612,-0.021705228955233,0.008604385945869,0.030624008913246,0.049512285945988,-0.270194194793701,4.16717414855957,0.007923374176025,-2.00725479125977,-0.232418975830078,0.1698796043396,-0.313726577758789,-0.268137895307348,1.46645107238048,-0.00742134035798,-0.829234967576272,-0.266653782564071,0.1004850323982,-0.316129749151469
0.001066596013168,0.030239315329577,0.021469259567699,-0.021705228955233,0.008604577583021,0.030623829144333,0.049512166063685,-0.272882694244385,4.15238740158081,0.00968412399292,-2.00109216690063,-0.238581600189209,0.168544597625732,-0.318399101257324,-0.268406530369344,1.46534010230747,-0.007616015877659,-0.82877758681372,-0.266699369959042,0.100456682331049,-0.315957840652377
0.001066356357645,0.030239135560664,0.021469559109832,-0.021705288841843,0.008604385945869,0.030624128795549,0.049512285945988,-0.266161445617676,4.15910865020752,0.006162624359131,-2.00725479125977,-0.23506010055542,0.170213356018066,-0.317064094543457,-0.269263819558483,1.45373784179297,-0.007607480516003,-0.824713627073888,-0.266892443743425,0.100243838209074,-0.315982468940307
0.001066476130865,0.030239195447274,0.021469199681089,-0.021705228955233,0.008604577583021,0.030623949026636,0.049512405719208,-0.266161445617676,4.1617971496582,0.008803749084473,-2.00461366653442,-0.235940475463867,0.170880859375,-0.316062839508057,-0.268759090454765,1.46742411229709,-0.007469948817552,-0.830858426670379,-0.267170791934084,0.100336528352283,-0.316102859245738
0.001066476130865,0.030239195447274,0.021469259567699,-0.021705228955233,0.008604385945869,0.030624128795549,0.049512106177075,-0.263472946166992,4.16717414855957,0.015846748352051,-2.00549404144287,-0.232418975830078,0.171548362731934,-0.314727832794189,-0.268575380424413,1.46052458958991,-0.007692938430072,-0.828342662023545,-0.266557306087326,0.100046755281117,-0.316131238164249
0.001066356357645,0.030239135560664,0.021469439336612,-0.021705169068623,0.008604289952761,0.030624188682159,0.049512046181382,-0.264817195892334,4.16986264801025,0.016727123260498,-2.00285291671753,-0.237701225280762,0.1698796043396,-0.317064094543457,-0.267988532601886,1.45418629663502,-0.00770847803747,-0.825972823571125,-0.266650652670313,0.100114634356473,-0.316165937333151
0.001066596013168,0.030239195447274,0.021469259567699,-0.021705408724146,0.008604577583021,0.030624008913246,0.049512285945988,-0.270194194793701,4.17523964691162,0.00968412399292,-2.00901554107666,-0.230658226013184,0.170547107696533,-0.315395336151123,-0.268062334949592,1.46441846396676,-0.00772828913098,-0.829621724963448,-0.26599554121329,0.100421185774123,-0.316163882354264
0.001066596013168,0.030239135560664,0.021469379340919,-0.021705348728453,0.008604577583021,0.030624188682159,0.049512285945988,-0.267505695343018,4.18196089553833,0.013205623626709,-2.00461366653442,-0.233299350738525,0.1698796043396,-0.317397846221924,-0.268838439844105,1.46554776376247,-0.007520010960976,-0.829641629305111,-0.265943772346857,0.100368639603621,-0.316160121417108
0.001066596013168,0.030238955791751,0.021469559109832,-0.021705288841843,0.008604385945869,0.030624128795549,0.049512285945988,-0.272882694244385,4.17523964691162,0.012325248718262,-2.011656665802,-0.235940475463867,0.171214611053467,-0.315395336151123,-0.269051463182291,1.46733772585661,-0.007711767334263,-0.829351891108655,-0.265848982689339,0.10038705434712,-0.316133323027788
0.001066356357645,0.030239135560664,0.021469559109832,-0.021705169068623,0.008604289952761,0.030624188682159,0.049512046181382,-0.266161445617676,4.17389539718628,0.014085998535156,-2.01429779052734,-0.227136726379394,0.169212100982666,-0.317064094543457,-0.26949392978283,1.46238202097221,-0.007418320471939,-0.827178738727016,-0.266071928470651,0.100542323621045,-0.316167373745761
0.001066356357645,0.030239075674054,0.021469559109832,-0.021705228955233,0.008604289952761,0.030624188682159,0.049512106177075,-0.275571193695068,4.16582989883423,0.012325248718262,-2.00813516616821,-0.228017101287842,0.169212100982666,-0.31572908782959,-0.268987173112576,1.46195056025426,-0.007148828151794,-0.826933611312124,-0.265522348765831,0.100409555803306,-0.315821255082176
0.001066655899778,0.030239135560664,0.021469499223222,-0.021705169068623,0.008604577583021,0.030624128795549,0.049512405719208,-0.270194194793701,4.15373165130615,0.010564498901367,-2.00549404144287,-0.229777851104736,0.170213356018066,-0.317397846221924,-0.26941905672743,1.44975115395816,-0.007278029207065,-0.822920097426704,-0.264913869777896,0.100160706440243,-0.315821100570888
0.001066356357645,0.030238955791751,0.021469798874438,-0.021705228955233,0.008604289952761,0.030624188682159,0.049512285945988,-0.271538444519043,4.15910865020752,0.007923374176025,-2.00725479125977,-0.229777851104736,0.169212100982666,-0.314727832794189,-0.268994940144057,1.46199377089775,-0.00750338262574,-0.828095531083831,-0.264846864108451,0.100363768477261,-0.316084022601858
0.001066476130865,0.030239075674054,0.021469858761048,-0.021705169068623,0.008604289952761,0.030624248677852,0.049512106177075,-0.266161445617676,4.15776440048218,0.010564498901367,-2.00021179199219,-0.236820850372314,0.168878349304199,-0.317064094543457,-0.269757059766922,1.45347369577559,-0.007921859737124,-0.825482947799989,-0.264840350581063,0.100148817321655,-0.31613203915854
0.001066476130865,0.030239135560664,0.021469678992135,-0.021705228955233,0.008604385945869,0.030624128795549,0.049512405719208,-0.274226943969727,4.17792814636231,0.012325248718262,-2.00725479125977,-0.239461975097656,0.168210845947266,-0.312725322723389,-0.270374796371245,1.44653847883007,-0.008245039486423,-0.822759769035731,-0.265188989491021,0.099942592476339,-0.316012807133923
0.001066596013168,0.030239135560664,0.021469379340919,-0.021705228955233,0.008604385945869,0.030624248677852,0.049511986294772,-0.270194194793701,4.17658389663696,0.015846748352051,-2.00637441635132,-0.232418975830078,0.171214611053467,-0.315395336151123,-0.26970843050139,1.46097413578181,-0.007839225050351,-0.828275761857,-0.265499343145294,0.100022441764957,-0.315843175167016
0.001066356357645,0.030239135560664,0.021469559109832,-0.021705228955233,0.008604385945869,0.030624008913246,0.049512285945988,-0.274226943969727,4.16045289993286,0.010564498901367,-2.00989591598511,-0.233299350738525,0.169545852661133,-0.31572908782959,-0.270372271559892,1.46317512534577,-0.007419262236088,-0.828934919766424,-0.265679057436808,0.099962688676611,-0.315493596506357
0.001066476130865,0.030239315329577,0.021469499223222,-0.021705169068623,0.008604577583021,0.030624128795549,0.049512166063685,-0.271538444519043,4.1712068977356,0.006162624359131,-2.00461366653442,-0.235940475463867,0.170547107696533,-0.316062839508057,-0.271190925411071,1.46820736050738,-0.007575005139715,-0.830467725186977,-0.265853234715433,0.099938228827899,-0.315371134608006
0.001066356357645,0.030238955791751,0.021469858761048,-0.021705169068623,0.008604289952761,0.030624068908939,0.049512285945988,-0.271538444519043,4.17658389663696,0.010564498901367,-2.00637441635132,-0.232418975830078,0.170880859375,-0.314060329437256,-0.270184687146446,1.465675969872,-0.007764373081703,-0.828935895682,-0.26599372957485,0.099940227888614,-0.315311912247853
0.001066476130865,0.030239015678361,0.021469978643351,-0.021705169068623,0.008604289952761,0.030624068908939,0.049511986294772,-0.270194194793701,4.16851839828491,0.012325248718262,-2.00373329162598,-0.232418975830078,0.169212100982666,-0.314060329437256,-0.269566674663106,1.47384355529043,-0.007857547474954,-0.831936537204747,-0.265611347665422,0.100099430801674,-0.315133933716552
0.001066476130865,0.030239195447274,0.021469499223222,-0.021705288841843,0.008604577583021,0.030624248677852,0.049512106177075,-0.267505695343018,4.16717414855957,0.011444873809815,-2.00461366653442,-0.233299350738525,0.167543342590332,-0.316396591186523,-0.269270033072366,1.47184744028669,-0.007732758367939,-0.831085451202055,-0.265915302754496,0.099926446894328,-0.315173588049105
0.001066236475342,0.030238955791751,0.021469978643351,-0.021705228955233,0.008604385945869,0.030624248677852,0.049511986294772,-0.267505695343018,4.16448564910889,0.008803749084473,-2.00373329162598,-0.232418975830078,0.169212100982666,-0.31572908782959,-0.269921142701701,1.46054993689936,-0.007851075266915,-0.826612281814713,-0.266458140885934,0.099607450801457,-0.315121178443661
0.001066356357645,0.030238955791751,0.021469858761048,-0.021705228955233,0.008604289952761,0.030624368451072,0.049512225950295,-0.267505695343018,4.15910865020752,0.014085998535156,-2.00549404144287,-0.237701225280762,0.168878349304199,-0.31572908782959,-0.269759237032289,1.45158653013396,-0.008396731639358,-0.823265519841935,-0.26607371805555,0.099472497777946,-0.315262071822979
0.001066596013168,0.030239135560664,0.021469738878745,-0.021705408724146,0.008604577583021,0.030624128795549,0.049512285945988,-0.272882694244385,4.16448564910889,0.00968412399292,-2.00725479125977,-0.233299350738525,0.169545852661133,-0.315061584472656,-0.269848513794013,1.45688706594486,-0.008489261366209,-0.825330781702145,-0.266044757875505,0.099576571710443,-0.31548919139046
